; generated by PrusaSlicer 2.3.3+win64 on 2022-02-02 at 09:51:50 UTC

; 

; external perimeters extrusion width = 0.45mm
; perimeters extrusion width = 0.45mm
; infill extrusion width = 0.45mm
; solid infill extrusion width = 0.45mm
; top infill extrusion width = 0.40mm
; first layer extrusion width = 0.42mm

; external perimeters extrusion width = 0.45mm
; perimeters extrusion width = 0.45mm
; infill extrusion width = 0.45mm
; solid infill extrusion width = 0.45mm
; top infill extrusion width = 0.40mm
; first layer extrusion width = 0.42mm

; external perimeters extrusion width = 0.60mm
; perimeters extrusion width = 0.50mm
; infill extrusion width = 0.50mm
; solid infill extrusion width = 0.50mm
; top infill extrusion width = 0.45mm
; first layer extrusion width = 0.42mm

; external perimeters extrusion width = 0.60mm
; perimeters extrusion width = 0.50mm
; infill extrusion width = 0.50mm
; solid infill extrusion width = 0.50mm
; top infill extrusion width = 0.45mm
; first layer extrusion width = 0.42mm

; external perimeters extrusion width = 0.60mm
; perimeters extrusion width = 0.50mm
; infill extrusion width = 0.50mm
; solid infill extrusion width = 0.50mm
; top infill extrusion width = 0.45mm
; first layer extrusion width = 0.42mm

; external perimeters extrusion width = 0.60mm
; perimeters extrusion width = 0.50mm
; infill extrusion width = 0.50mm
; solid infill extrusion width = 0.50mm
; top infill extrusion width = 0.45mm
; first layer extrusion width = 0.42mm

M73 P0 R224
M73 Q0 S227
M201 X1000 Y1000 Z200 E8000 ; sets maximum accelerations, mm/sec^2
M203 X200 Y200 Z12 E120 ; sets maximum feedrates, mm/sec
M204 P1250 R1250 T1250 ; sets acceleration (P, T) and retract acceleration (R), mm/sec^2
M205 X8.00 Y8.00 Z0.40 E4.50 ; sets the jerk limits, mm/sec
M205 S0 T0 ; sets the minimum extruding and travel feed rate, mm/sec
M107
;TYPE:Custom
M862.3 P "MK3SMMU2S" ; printer model check
M862.1 P0.4 ; nozzle diameter check
M115 U3.10.0 ; tell printer latest fw version
G90 ; use absolute coordinates
M83 ; extruder relative mode
M104 S215 ; set extruder temp
M140 S60 ; set bed temp
M190 S60 ; wait for bed temp
M109 S215 ; wait for extruder temp
G28 W ; home all without mesh bed level
G80 ; mesh bed leveling

; Send the filament type to the MMU2.0 unit.
; E stands for extruder number, F stands for filament type (0: default; 1:flex; 2: PVA)
M403 E0 F0
M403 E1 F0
M403 E2 F0
M403 E3 F0
M403 E4 F0


;go outside print area
G1 Y-3.0 F1000.0
G1 Z0.4 F1000.0
; select extruder
T1
; initial load
G1 X55.0 E29.0 F1073.0
G1 X5.0 E29.0 F1800.0
G1 X55.0 E8.0 F2000.0
G1 Z0.3 F1000.0
G92 E0.0
G1 X240.0 E25.0 F2200.0
G1 Y-2.0 F1000.0
G1 X55.0 E25 F1400.0
G1 Z0.20 F1000.0
G1 X5.0 E4.0 F1000.0
G92 E0.0


M221 S95
G92 E0.0

; Don't change E values below. Excessive value can damage the printer.

M907 E538 ; set extruder motor current
G21 ; set units to millimeters
G90 ; use absolute coordinates
M83 ; use relative distances for extrusion
T1
M900 K0.05 ; Filament gcode LA 1.5
M900 K30 ; Filament gcode LA 1.0
G1 Z0.200 F10800.000
;LAYER_CHANGE
;Z:0.2
;HEIGHT:0.2
;BEFORE_LAYER_CHANGE
G92 E0.0
;0.2


G1 E-0.80000 F2100.000
G1 Z0.600 F10800.000
G1 Z0.200
;AFTER_LAYER_CHANGE
;0.2
G1 E-1.20000 F2100.000
G1 Z0.600 F10800.000
G1 X241.616 Y16.705
G1 Z0.200
G1 E2.00000 F2100.000
;HEIGHT:0.200000
;TYPE:Wipe tower
;WIDTH:0.500000
;-------------------------------------
; CP WIPE TOWER FIRST LAYER BRIM START
G1  X241.616 Y138.045  E6.9175 F2400
M73 P0 R223
G1  X239.073 Y138.502   F7000
G1  Y16.248  E5.1111 F2100
G1  X178.159  E2.5466
G1  Y138.502  E5.1111
G1  X239.073  E2.5466
M73 Q0 S226
G1  X239.530 Y138.959   F7000
G1  Y15.791  E5.1493 F2100
G1  X177.702  E2.5849
G1  Y138.959  E5.1493
G1  X239.530  E2.5849
G1  X239.987 Y139.416   F7000
G1  Y15.334  E5.1875 F2100
G1  X177.245  E2.6231
G1  Y139.416  E5.1875
G1  X239.987  E2.6231
G1  X240.444 Y139.873   F7000
G1  Y14.877  E5.2257 F2100
G1  X176.788  E2.6613
G1  Y139.873  E5.2257
G1  X240.444  E2.6613
; CP WIPE TOWER FIRST LAYER BRIM END
;-----------------------------------

; printing object body352 id:2 copy 0
;WIPE_START
G1 F8640.000
G1 X239.987 Y139.416 E-0.14926
G1 X237.342 Y139.416 E-0.61074
;WIPE_END
G1 E-0.04000 F2100.000
G1 Z0.600 F10800.000
G1 X44.988 Y85.534
G1 Z0.200
G1 E0.80000 F2100.000
M204 S1000
;TYPE:Perimeter
;WIDTH:0.42
;HEIGHT:0.2
G1 F1200.000
G1 X44.780 Y85.992 E0.01577
G1 X44.479 Y86.444 E0.01701
G1 X44.115 Y86.823 E0.01650
G1 X43.693 Y87.134 E0.01643
G1 X43.225 Y87.370 E0.01643
G1 X42.724 Y87.523 E0.01643
G1 X42.204 Y87.589 E0.01643
G1 X41.681 Y87.566 E0.01643
G1 X41.168 Y87.455 E0.01643
G1 X40.682 Y87.259 E0.01643
G1 X40.237 Y86.984 E0.01643
G1 X39.844 Y86.637 E0.01643
G1 X39.515 Y86.229 E0.01643
G1 X39.260 Y85.772 E0.01643
G1 X39.086 Y85.277 E0.01643
G1 X39.000 Y84.773 E0.01604
G1 X39.000 Y84.225 E0.01720
G1 X39.087 Y83.721 E0.01604
G1 X39.262 Y83.227 E0.01643
G1 X39.518 Y82.770 E0.01643
G1 X39.848 Y82.362 E0.01643
G1 X40.242 Y82.016 E0.01643
G1 X40.688 Y81.742 E0.01643
G1 X41.174 Y81.547 E0.01643
G1 X41.687 Y81.437 E0.01643
G1 X42.189 Y81.417 E0.01577
G1 X42.728 Y81.482 E0.01701
G1 X43.231 Y81.637 E0.01650
G1 X43.698 Y81.873 E0.01643
G1 X44.119 Y82.185 E0.01643
G1 X44.481 Y82.564 E0.01643
G1 X44.774 Y82.998 E0.01643
G1 X44.990 Y83.476 E0.01643
G1 X45.121 Y83.983 E0.01643
G1 X45.165 Y84.505 E0.01643
G1 X45.120 Y85.027 E0.01643
G1 X45.003 Y85.476 E0.01455
G1 X44.638 Y85.381 F10800.000
;TYPE:External perimeter
G1 F1200.000
G1 X44.449 Y85.809 E0.01466
G1 X44.184 Y86.207 E0.01500
G1 X43.865 Y86.539 E0.01444
G1 X43.495 Y86.812 E0.01442
G1 X43.084 Y87.018 E0.01442
G1 X42.644 Y87.153 E0.01442
G1 X42.188 Y87.210 E0.01442
G1 X41.729 Y87.191 E0.01442
G1 X41.280 Y87.093 E0.01442
G1 X40.853 Y86.921 E0.01442
G1 X40.462 Y86.680 E0.01442
G1 X40.117 Y86.376 E0.01442
G1 X39.829 Y86.018 E0.01442
G1 X39.605 Y85.616 E0.01442
G1 X39.452 Y85.182 E0.01442
G1 X39.375 Y84.734 E0.01428
G1 X39.376 Y84.265 E0.01469
G1 X39.453 Y83.816 E0.01428
G1 X39.607 Y83.383 E0.01442
G1 X39.832 Y82.982 E0.01442
G1 X40.121 Y82.624 E0.01442
G1 X40.466 Y82.321 E0.01442
G1 X40.858 Y82.080 E0.01442
G1 X41.285 Y81.909 E0.01442
G1 X41.734 Y81.813 E0.01442
G1 X42.174 Y81.795 E0.01380
G1 X42.649 Y81.852 E0.01500
G1 X43.089 Y81.988 E0.01444
G1 X43.500 Y82.195 E0.01442
G1 X43.869 Y82.469 E0.01442
G1 X44.187 Y82.801 E0.01442
G1 X44.444 Y83.182 E0.01442
G1 X44.633 Y83.602 E0.01442
G1 X44.748 Y84.047 E0.01442
G1 X44.787 Y84.505 E0.01442
G1 X44.747 Y84.963 E0.01442
G1 X44.653 Y85.323 E0.01166
G1 X44.900 Y85.683 F10800.000
;WIPE_START
G1 F8640.000
G1 X44.449 Y85.809 E-0.12169
G1 X44.184 Y86.207 E-0.11046
G1 X43.865 Y86.539 E-0.10634
G1 X43.495 Y86.812 E-0.10616
G1 X43.084 Y87.018 E-0.10616
G1 X42.644 Y87.153 E-0.10616
G1 X42.202 Y87.209 E-0.10302
;WIPE_END
G1 E-0.04000 F2100.000
G1 Z0.600 F10800.000
G1 X44.545 Y72.591
G1 Z0.200
G1 E0.80000 F2100.000
;TYPE:Perimeter
G1 F1200.000
G1 X44.109 Y72.535 E0.01377
G1 X43.689 Y72.406 E0.01377
G1 X43.297 Y72.208 E0.01377
G1 X42.945 Y71.947 E0.01377
G1 X42.641 Y71.629 E0.01377
G1 X42.415 Y71.293 E0.01270
G1 X42.216 Y70.869 E0.01470
G1 X42.105 Y70.440 E0.01390
G1 X42.068 Y70.002 E0.01377
G1 X42.106 Y69.564 E0.01377
G1 X42.208 Y69.173 E0.01270
G1 X42.396 Y68.743 E0.01470
G1 X42.644 Y68.376 E0.01390
G1 X42.949 Y68.059 E0.01377
G1 X43.302 Y67.798 E0.01377
G1 X43.694 Y67.601 E0.01377
G1 X44.114 Y67.473 E0.01377
G1 X44.516 Y67.422 E0.01270
G1 X44.985 Y67.436 E0.01470
G1 X45.418 Y67.530 E0.01390
G1 X45.825 Y67.694 E0.01377
G1 X46.199 Y67.924 E0.01377
G1 X46.528 Y68.215 E0.01377
G1 X46.804 Y68.557 E0.01377
G1 X47.018 Y68.941 E0.01377
G1 X47.164 Y69.355 E0.01377
G1 X47.237 Y69.788 E0.01377
G1 X47.237 Y70.227 E0.01377
G1 X47.162 Y70.660 E0.01377
G1 X47.016 Y71.073 E0.01377
G1 X46.801 Y71.457 E0.01377
G1 X46.525 Y71.798 E0.01377
G1 X46.195 Y72.088 E0.01377
G1 X45.821 Y72.318 E0.01377
G1 X45.413 Y72.481 E0.01377
G1 X44.984 Y72.573 E0.01377
G1 X44.605 Y72.589 E0.01189
G1 X44.589 Y72.212 F10800.000
;TYPE:External perimeter
G1 F1200.000
G1 X44.189 Y72.165 E0.01262
G1 X43.831 Y72.055 E0.01176
G1 X43.496 Y71.886 E0.01176
G1 X43.195 Y71.663 E0.01176
G1 X42.936 Y71.392 E0.01176
G1 X42.744 Y71.107 E0.01077
G1 X42.572 Y70.740 E0.01269
G1 X42.478 Y70.376 E0.01180
G1 X42.446 Y70.002 E0.01176
G1 X42.479 Y69.629 E0.01176
G1 X42.566 Y69.297 E0.01077
G1 X42.727 Y68.926 E0.01269
G1 X42.939 Y68.614 E0.01180
G1 X43.198 Y68.344 E0.01176
G1 X43.500 Y68.121 E0.01176
G1 X43.835 Y67.952 E0.01176
G1 X44.194 Y67.843 E0.01176
G1 X44.534 Y67.800 E0.01077
G1 X44.939 Y67.812 E0.01269
G1 X45.307 Y67.891 E0.01180
G1 X45.655 Y68.032 E0.01176
G1 X45.974 Y68.229 E0.01176
G1 X46.255 Y68.477 E0.01176
G1 X46.490 Y68.768 E0.01176
G1 X46.673 Y69.096 E0.01176
G1 X46.797 Y69.450 E0.01176
G1 X46.860 Y69.819 E0.01176
G1 X46.860 Y70.194 E0.01176
G1 X46.796 Y70.564 E0.01176
G1 X46.671 Y70.917 E0.01176
G1 X46.488 Y71.244 E0.01176
G1 X46.252 Y71.536 E0.01176
G1 X45.970 Y71.783 E0.01176
G1 X45.651 Y71.980 E0.01176
G1 X45.302 Y72.119 E0.01176
G1 X44.936 Y72.198 E0.01176
G1 X44.649 Y72.210 E0.00900
G1 X44.377 Y72.551 F10800.000
;WIPE_START
G1 F8640.000
G1 X44.189 Y72.165 E-0.10664
G1 X43.831 Y72.055 E-0.08658
G1 X43.496 Y71.886 E-0.08658
G1 X43.195 Y71.663 E-0.08658
G1 X42.936 Y71.392 E-0.08658
G1 X42.744 Y71.107 E-0.07928
G1 X42.572 Y70.740 E-0.09345
G1 X42.478 Y70.376 E-0.08692
G1 X42.461 Y70.172 E-0.04738
;WIPE_END
G1 E-0.04000 F2100.000
G1 Z0.600 F10800.000
G1 X40.265 Y61.312
G1 Z0.200
G1 E0.80000 F2100.000
;TYPE:Perimeter
G1 F1200.000
G1 X39.857 Y61.476 E0.01377
G1 X39.461 Y61.560 E0.01270
G1 X38.993 Y61.586 E0.01470
G1 X38.554 Y61.530 E0.01390
G1 X38.134 Y61.401 E0.01377
G1 X37.742 Y61.202 E0.01377
G1 X37.389 Y60.941 E0.01377
G1 X37.109 Y60.648 E0.01270
G1 X36.842 Y60.263 E0.01470
G1 X36.659 Y59.859 E0.01390
G1 X36.549 Y59.434 E0.01377
G1 X36.512 Y58.996 E0.01377
G1 X36.550 Y58.559 E0.01377
G1 X36.661 Y58.134 E0.01377
G1 X36.842 Y57.734 E0.01377
G1 X37.089 Y57.370 E0.01377
G1 X37.393 Y57.054 E0.01377
G1 X37.746 Y56.793 E0.01377
G1 X38.139 Y56.596 E0.01377
G1 X38.559 Y56.467 E0.01377
G1 X38.994 Y56.412 E0.01377
G1 X39.433 Y56.431 E0.01377
G1 X39.862 Y56.524 E0.01377
G1 X40.270 Y56.688 E0.01377
G1 X40.643 Y56.919 E0.01377
G1 X40.973 Y57.209 E0.01377
G1 X41.248 Y57.551 E0.01377
G1 X41.462 Y57.935 E0.01377
G1 X41.608 Y58.349 E0.01377
G1 X41.682 Y58.782 E0.01377
G1 X41.681 Y59.187 E0.01270
G1 X41.608 Y59.650 E0.01470
G1 X41.460 Y60.068 E0.01390
G1 X41.245 Y60.451 E0.01377
G1 X40.969 Y60.792 E0.01377
G1 X40.639 Y61.082 E0.01377
G1 X40.316 Y61.281 E0.01189
G1 X40.119 Y60.959 F10800.000
;TYPE:External perimeter
G1 F1200.000
G1 X39.747 Y61.114 E0.01262
G1 X39.411 Y61.186 E0.01077
G1 X39.007 Y61.208 E0.01269
G1 X38.634 Y61.160 E0.01180
G1 X38.275 Y61.050 E0.01176
G1 X37.941 Y60.880 E0.01176
G1 X37.639 Y60.657 E0.01176
G1 X37.402 Y60.409 E0.01077
G1 X37.171 Y60.077 E0.01269
G1 X37.016 Y59.733 E0.01180
G1 X36.922 Y59.370 E0.01176
G1 X36.891 Y58.997 E0.01176
G1 X36.923 Y58.623 E0.01176
G1 X37.018 Y58.260 E0.01176
G1 X37.173 Y57.919 E0.01176
G1 X37.383 Y57.608 E0.01176
G1 X37.643 Y57.338 E0.01176
G1 X37.944 Y57.115 E0.01176
G1 X38.279 Y56.947 E0.01176
G1 X38.638 Y56.837 E0.01176
G1 X39.010 Y56.790 E0.01176
G1 X39.385 Y56.806 E0.01176
G1 X39.751 Y56.886 E0.01176
G1 X40.099 Y57.026 E0.01176
G1 X40.418 Y57.223 E0.01176
G1 X40.699 Y57.471 E0.01176
G1 X40.934 Y57.763 E0.01176
G1 X41.117 Y58.090 E0.01176
G1 X41.242 Y58.444 E0.01176
G1 X41.305 Y58.814 E0.01176
G1 X41.304 Y59.157 E0.01077
G1 X41.241 Y59.557 E0.01269
G1 X41.115 Y59.912 E0.01180
G1 X40.932 Y60.239 E0.01176
G1 X40.696 Y60.530 E0.01176
G1 X40.414 Y60.778 E0.01176
G1 X40.170 Y60.928 E0.00900
G1 X40.099 Y61.359 F10800.000
;WIPE_START
G1 F8640.000
G1 X39.747 Y61.114 E-0.10664
G1 X39.411 Y61.186 E-0.07928
G1 X39.007 Y61.208 E-0.09345
G1 X38.634 Y61.160 E-0.08692
G1 X38.275 Y61.050 E-0.08658
G1 X37.941 Y60.880 E-0.08658
G1 X37.639 Y60.657 E-0.08658
G1 X37.402 Y60.409 E-0.07928
G1 X37.267 Y60.215 E-0.05467
;WIPE_END
G1 E-0.04000 F2100.000
G1 Z0.600 F10800.000
G1 X29.083 Y87.480
G1 Z0.200
G1 E0.80000 F2100.000
;TYPE:Perimeter
G1 F1200.000
G1 X29.550 Y87.717 E0.01643
G1 X29.971 Y88.029 E0.01643
G1 X30.333 Y88.407 E0.01643
G1 X30.626 Y88.842 E0.01643
G1 X30.842 Y89.320 E0.01643
G1 X30.973 Y89.827 E0.01643
G1 X31.017 Y90.349 E0.01643
G1 X30.972 Y90.871 E0.01643
G1 X30.840 Y91.378 E0.01643
G1 X30.623 Y91.855 E0.01643
G1 X30.330 Y92.289 E0.01643
G1 X29.981 Y92.652 E0.01577
G1 X29.547 Y92.977 E0.01701
G1 X29.077 Y93.213 E0.01650
G1 X28.576 Y93.366 E0.01643
G1 X28.056 Y93.432 E0.01643
G1 X27.533 Y93.410 E0.01643
G1 X27.020 Y93.299 E0.01643
G1 X26.534 Y93.103 E0.01643
G1 X26.089 Y92.828 E0.01643
G1 X25.696 Y92.481 E0.01643
G1 X25.367 Y92.073 E0.01643
G1 X25.112 Y91.615 E0.01643
G1 X24.938 Y91.121 E0.01643
G1 X24.852 Y90.617 E0.01604
G1 X24.852 Y90.068 E0.01720
G1 X24.939 Y89.564 E0.01604
G1 X25.114 Y89.070 E0.01643
G1 X25.370 Y88.613 E0.01643
G1 X25.700 Y88.206 E0.01643
G1 X26.094 Y87.860 E0.01643
G1 X26.540 Y87.586 E0.01643
G1 X27.026 Y87.391 E0.01643
G1 X27.539 Y87.281 E0.01643
G1 X28.041 Y87.260 E0.01577
G1 X28.580 Y87.326 E0.01701
G1 X29.025 Y87.463 E0.01461
G1 X28.915 Y87.823 F10800.000
;TYPE:External perimeter
G1 F1200.000
G1 X29.352 Y88.039 E0.01528
G1 X29.721 Y88.313 E0.01442
G1 X30.039 Y88.645 E0.01442
G1 X30.296 Y89.026 E0.01442
G1 X30.485 Y89.445 E0.01442
G1 X30.600 Y89.890 E0.01442
G1 X30.639 Y90.348 E0.01442
G1 X30.599 Y90.807 E0.01442
G1 X30.483 Y91.251 E0.01442
G1 X30.293 Y91.670 E0.01442
G1 X30.035 Y92.051 E0.01442
G1 X29.730 Y92.368 E0.01380
G1 X29.348 Y92.655 E0.01500
G1 X28.936 Y92.862 E0.01444
G1 X28.496 Y92.996 E0.01442
G1 X28.040 Y93.054 E0.01442
G1 X27.581 Y93.034 E0.01442
G1 X27.132 Y92.937 E0.01442
G1 X26.705 Y92.765 E0.01442
G1 X26.314 Y92.524 E0.01442
G1 X25.969 Y92.219 E0.01442
G1 X25.681 Y91.861 E0.01442
G1 X25.457 Y91.460 E0.01442
G1 X25.304 Y91.026 E0.01442
G1 X25.227 Y90.577 E0.01428
G1 X25.228 Y90.109 E0.01469
G1 X25.305 Y89.660 E0.01428
G1 X25.459 Y89.227 E0.01442
G1 X25.684 Y88.826 E0.01442
G1 X25.973 Y88.468 E0.01442
G1 X26.318 Y88.165 E0.01442
G1 X26.710 Y87.924 E0.01442
G1 X27.137 Y87.753 E0.01442
G1 X27.586 Y87.657 E0.01442
G1 X28.026 Y87.638 E0.01380
G1 X28.501 Y87.696 E0.01500
G1 X28.857 Y87.806 E0.01168
G1 X29.227 Y87.574 F10800.000
;WIPE_START
G1 F8640.000
G1 X29.352 Y88.039 E-0.12622
G1 X29.721 Y88.313 E-0.10616
G1 X30.039 Y88.645 E-0.10616
G1 X30.296 Y89.026 E-0.10616
G1 X30.485 Y89.445 E-0.10616
G1 X30.600 Y89.890 E-0.10616
G1 X30.638 Y90.335 E-0.10296
;WIPE_END
G1 E-0.04000 F2100.000
G1 Z0.600 F10800.000
G1 X23.211 Y101.617
G1 Z0.200
G1 E0.80000 F2100.000
;TYPE:Perimeter
G1 F1200.000
G1 X23.678 Y101.853 E0.01643
G1 X24.099 Y102.165 E0.01643
G1 X24.461 Y102.544 E0.01643
G1 X24.754 Y102.978 E0.01643
G1 X24.970 Y103.456 E0.01643
G1 X25.101 Y103.963 E0.01643
G1 X25.145 Y104.485 E0.01643
G1 X25.100 Y105.007 E0.01643
G1 X24.968 Y105.514 E0.01643
G1 X24.751 Y105.991 E0.01643
G1 X24.457 Y106.425 E0.01643
G1 X24.095 Y106.803 E0.01643
G1 X23.673 Y107.114 E0.01643
G1 X23.205 Y107.350 E0.01643
G1 X22.704 Y107.502 E0.01643
G1 X22.184 Y107.569 E0.01643
G1 X21.660 Y107.546 E0.01643
G1 X21.148 Y107.435 E0.01643
G1 X20.662 Y107.239 E0.01643
G1 X20.216 Y106.964 E0.01643
G1 X19.824 Y106.617 E0.01643
G1 X19.495 Y106.209 E0.01643
G1 X19.240 Y105.752 E0.01643
G1 X19.066 Y105.257 E0.01643
G1 X18.980 Y104.753 E0.01604
G1 X18.968 Y104.479 E0.00861
G1 X18.980 Y104.205 E0.00861
G1 X19.067 Y103.701 E0.01604
G1 X19.242 Y103.207 E0.01643
G1 X19.498 Y102.750 E0.01643
G1 X19.828 Y102.342 E0.01643
G1 X20.221 Y101.996 E0.01643
G1 X20.668 Y101.722 E0.01643
G1 X21.154 Y101.527 E0.01643
G1 X21.667 Y101.417 E0.01643
G1 X22.169 Y101.397 E0.01577
G1 X22.708 Y101.462 E0.01701
G1 X23.153 Y101.599 E0.01461
G1 X23.042 Y101.960 F10800.000
;TYPE:External perimeter
G1 F1200.000
G1 X23.479 Y102.175 E0.01528
G1 X23.849 Y102.449 E0.01442
G1 X24.167 Y102.781 E0.01442
G1 X24.424 Y103.162 E0.01442
G1 X24.613 Y103.581 E0.01442
G1 X24.728 Y104.027 E0.01442
G1 X24.767 Y104.485 E0.01442
