; generated by PrusaSlicer 2.3.3+win64 on 2022-01-19 at 10:52:37 UTC

; 

; external perimeters extrusion width = 0.45mm
; perimeters extrusion width = 0.45mm
; infill extrusion width = 0.45mm
; solid infill extrusion width = 0.45mm
; top infill extrusion width = 0.40mm
; first layer extrusion width = 0.42mm

; external perimeters extrusion width = 0.45mm
; perimeters extrusion width = 0.45mm
; infill extrusion width = 0.45mm
; solid infill extrusion width = 0.45mm
; top infill extrusion width = 0.40mm
; first layer extrusion width = 0.42mm

; external perimeters extrusion width = 0.45mm
; perimeters extrusion width = 0.45mm
; infill extrusion width = 0.45mm
; solid infill extrusion width = 0.45mm
; top infill extrusion width = 0.40mm
; first layer extrusion width = 0.42mm

; external perimeters extrusion width = 0.45mm
; perimeters extrusion width = 0.45mm
; infill extrusion width = 0.45mm
; solid infill extrusion width = 0.45mm
; top infill extrusion width = 0.40mm
; first layer extrusion width = 0.42mm

; external perimeters extrusion width = 0.45mm
; perimeters extrusion width = 0.45mm
; infill extrusion width = 0.45mm
; solid infill extrusion width = 0.45mm
; top infill extrusion width = 0.40mm
; first layer extrusion width = 0.42mm

; external perimeters extrusion width = 0.45mm
; perimeters extrusion width = 0.45mm
; infill extrusion width = 0.45mm
; solid infill extrusion width = 0.45mm
; top infill extrusion width = 0.40mm
; first layer extrusion width = 0.42mm

M73 P0 R174
M73 Q0 S176
M201 X1000 Y1000 Z200 E8000 ; sets maximum accelerations, mm/sec^2
M203 X200 Y200 Z12 E120 ; sets maximum feedrates, mm/sec
M204 P1250 R1250 T1250 ; sets acceleration (P, T) and retract acceleration (R), mm/sec^2
M205 X8.00 Y8.00 Z0.40 E4.50 ; sets the jerk limits, mm/sec
M205 S0 T0 ; sets the minimum extruding and travel feed rate, mm/sec
M107
;TYPE:Custom
M862.3 P "MK3SMMU2S" ; printer model check
M862.1 P0.4 ; nozzle diameter check
M115 U3.10.0 ; tell printer latest fw version
G90 ; use absolute coordinates
M83 ; extruder relative mode
M104 S215 ; set extruder temp
M140 S60 ; set bed temp
M190 S60 ; wait for bed temp
M109 S215 ; wait for extruder temp
G28 W ; home all without mesh bed level
G80 ; mesh bed leveling

; Send the filament type to the MMU2.0 unit.
; E stands for extruder number, F stands for filament type (0: default; 1:flex; 2: PVA)
M403 E0 F0
M403 E1 F0
M403 E2 F0
M403 E3 F0
M403 E4 F0


;go outside print area
G1 Y-3.0 F1000.0
G1 Z0.4 F1000.0
; select extruder
T1
; initial load
G1 X55.0 E29.0 F1073.0
M73 P0 R173
G1 X5.0 E29.0 F1800.0
G1 X55.0 E8.0 F2000.0
G1 Z0.3 F1000.0
G92 E0.0
G1 X240.0 E25.0 F2200.0
G1 Y-2.0 F1000.0
G1 X55.0 E25 F1400.0
G1 Z0.20 F1000.0
G1 X5.0 E4.0 F1000.0
G92 E0.0


M221 S95
G92 E0.0

; Don't change E values below. Excessive value can damage the printer.

M907 E538 ; set extruder motor current
G21 ; set units to millimeters
G90 ; use absolute coordinates
M83 ; use relative distances for extrusion
T1
M900 K0.05 ; Filament gcode LA 1.5
M900 K30 ; Filament gcode LA 1.0
M73 Q0 S175
G1 Z0.200 F10800.000
;LAYER_CHANGE
;Z:0.2
;HEIGHT:0.2
;BEFORE_LAYER_CHANGE
G92 E0.0
;0.2


G1 E-0.80000 F2100.000
G1 Z0.600 F10800.000
G1 Z0.200
;AFTER_LAYER_CHANGE
;0.2
G1 E-1.20000 F2100.000
G1 Z0.600 F10800.000
G1 X235.041 Y17.011
G1 Z0.200
G1 E2.00000 F2100.000
;HEIGHT:0.200000
;TYPE:Wipe tower
;WIDTH:0.500000
;-------------------------------------
; CP WIPE TOWER FIRST LAYER BRIM START
G1  X235.041 Y162.351  E8.2858 F2400
G1  X232.498 Y162.808   F7000
G1  Y16.554  E6.1144 F2100
G1  X171.584  E2.5466
G1  Y162.808  E6.1144
G1  X232.498  E2.5466
G1  X232.955 Y163.265   F7000
G1  Y16.097  E6.1527 F2100
G1  X171.127  E2.5849
G1  Y163.265  E6.1527
G1  X232.955  E2.5849
G1  X233.412 Y163.722   F7000
G1  Y15.640  E6.1909 F2100
G1  X170.670  E2.6231
G1  Y163.722  E6.1909
M73 P0 R172
G1  X233.412  E2.6231
G1  X233.869 Y164.179   F7000
G1  Y15.183  E6.2291 F2100
G1  X170.213  E2.6613
G1  Y164.179  E6.2291
G1  X233.869  E2.6613
; CP WIPE TOWER FIRST LAYER BRIM END
;-----------------------------------

;WIPE_START
G1 F8640.000
G1 X233.412 Y163.722 E-0.14925
G1 X230.767 Y163.722 E-0.61075
;WIPE_END
G1 E-0.04000 F2100.000
G1 Z0.600 F10800.000
G1 X235.840 Y164.853
G1 Z0.200
G1 E0.80000 F2100.000
M204 S1000
;TYPE:Skirt
;WIDTH:0.42
;HEIGHT:0.2
G1 F1200.000
G1 X235.604 Y165.291 E0.01562
G1 X235.281 Y165.671 E0.01562
G1 X234.887 Y165.975 E0.01562
G1 X234.434 Y166.191 E0.01574
G1 X152.454 Y194.533 E2.71968
M73 Q0 S174
G1 X151.343 Y194.807 E0.03590
G1 X150.140 Y194.907 E0.03784
G1 X75.125 Y194.907 E2.35205
G1 X73.949 Y194.811 E0.03701
G1 X72.689 Y194.484 E0.04080
G1 X71.760 Y194.089 E0.03164
G1 X70.776 Y193.480 E0.03629
G1 X69.915 Y192.741 E0.03558
G1 X69.159 Y191.854 E0.03653
G1 X68.563 Y190.879 E0.03582
G1 X68.124 Y189.821 E0.03594
G1 X67.852 Y188.699 E0.03618
G1 X67.761 Y187.614 E0.03415
G1 X65.916 Y62.513 E3.92287
M73 P1 R172
M73 Q1 S174
G1 X65.916 Y17.474 E1.41216
G1 X66.013 Y16.305 E0.03677
G1 X66.339 Y15.046 E0.04080
G1 X66.733 Y14.120 E0.03152
G1 X67.341 Y13.136 E0.03629
G1 X68.080 Y12.274 E0.03558
G1 X68.960 Y11.523 E0.03629
G1 X69.941 Y10.922 E0.03606
G1 X70.996 Y10.483 E0.03582
G1 X72.117 Y10.211 E0.03618
G1 X73.152 Y10.120 E0.03260
G1 X148.297 Y10.116 E2.35611
G1 X233.752 Y13.036 E2.68096
G1 X234.344 Y13.140 E0.01882
G1 X234.887 Y13.386 E0.01870
G1 X235.354 Y13.763 E0.01882
G1 X235.710 Y14.241 E0.01870
G1 X235.939 Y14.804 E0.01906
G1 X236.018 Y15.407 E0.01906
G1 X236.018 Y163.954 E4.65759
G1 X235.852 Y164.794 E0.02684
; printing object body350 id:2 copy 0
;WIPE_START
G1 F8640.000
G1 X235.604 Y165.291 E-0.12831
G1 X235.281 Y165.671 E-0.11500
G1 X234.887 Y165.975 E-0.11500
G1 X234.434 Y166.191 E-0.11588
G1 X233.264 Y166.596 E-0.28580
;WIPE_END
G1 E-0.04000 F2100.000
G1 Z0.600 F10800.000
G1 X120.723 Y164.466
G1 Z0.200
G1 E0.80000 F2100.000
;TYPE:Perimeter
G1 F1200.000
G1 X120.700 Y164.989 E0.01643
G1 X120.597 Y165.471 E0.01544
G1 X120.396 Y165.985 E0.01730
G1 X120.120 Y166.434 E0.01653
G1 X119.774 Y166.827 E0.01643
G1 X119.366 Y167.156 E0.01643
G1 X118.909 Y167.412 E0.01643
G1 X118.415 Y167.586 E0.01643
G1 X117.911 Y167.673 E0.01604
G1 X117.362 Y167.673 E0.01720
G1 X116.858 Y167.586 E0.01604
G1 X116.364 Y167.412 E0.01643
G1 X115.906 Y167.156 E0.01643
G1 X115.499 Y166.827 E0.01643
G1 X115.153 Y166.434 E0.01643
G1 X114.878 Y165.987 E0.01643
G1 X114.694 Y165.530 E0.01544
G1 X114.572 Y164.992 E0.01730
G1 X114.550 Y164.466 E0.01653
G1 X114.616 Y163.946 E0.01643
G1 X114.770 Y163.445 E0.01643
G1 X115.006 Y162.977 E0.01643
G1 X115.317 Y162.556 E0.01643
G1 X115.696 Y162.193 E0.01643
G1 X116.130 Y161.900 E0.01643
G1 X116.607 Y161.684 E0.01643
G1 X117.114 Y161.552 E0.01643
G1 X117.605 Y161.510 E0.01544
G1 X118.155 Y161.551 E0.01730
G1 X118.665 Y161.684 E0.01653
G1 X119.143 Y161.900 E0.01643
G1 X119.577 Y162.193 E0.01643
G1 X119.955 Y162.556 E0.01643
G1 X120.267 Y162.977 E0.01643
G1 X120.503 Y163.445 E0.01643
G1 X120.656 Y163.946 E0.01643
G1 X120.715 Y164.406 E0.01455
G1 X120.341 Y164.454 F10800.000
;TYPE:External perimeter
G1 F1200.000
G1 X120.325 Y164.941 E0.01528
G1 X120.234 Y165.362 E0.01349
G1 X120.057 Y165.816 E0.01529
G1 X119.816 Y166.209 E0.01445
G1 X119.512 Y166.554 E0.01442
G1 X119.154 Y166.843 E0.01442
G1 X118.753 Y167.067 E0.01442
G1 X118.319 Y167.220 E0.01442
G1 X117.871 Y167.297 E0.01428
G1 X117.402 Y167.297 E0.01469
G1 X116.953 Y167.220 E0.01428
G1 X116.520 Y167.067 E0.01442
G1 X116.118 Y166.843 E0.01442
G1 X115.761 Y166.554 E0.01442
G1 X115.457 Y166.209 E0.01442
G1 X115.216 Y165.817 E0.01442
G1 X115.055 Y165.418 E0.01349
G1 X114.948 Y164.942 E0.01529
G1 X114.928 Y164.482 E0.01445
G1 X114.986 Y164.026 E0.01442
G1 X115.121 Y163.586 E0.01442
G1 X115.328 Y163.175 E0.01442
G1 X115.601 Y162.806 E0.01442
G1 X115.933 Y162.488 E0.01442
G1 X116.314 Y162.230 E0.01442
G1 X116.733 Y162.041 E0.01442
G1 X117.178 Y161.925 E0.01442
G1 X117.607 Y161.888 E0.01349
G1 X118.093 Y161.925 E0.01529
G1 X118.539 Y162.041 E0.01445
G1 X118.958 Y162.230 E0.01442
G1 X119.339 Y162.488 E0.01442
G1 X119.671 Y162.806 E0.01442
G1 X119.945 Y163.175 E0.01442
G1 X120.152 Y163.586 E0.01442
G1 X120.286 Y164.026 E0.01442
G1 X120.333 Y164.394 E0.01166
G1 X120.697 Y164.636 F10800.000
;WIPE_START
G1 F8640.000
G1 X120.325 Y164.941 E-0.12622
G1 X120.234 Y165.362 E-0.09938
G1 X120.057 Y165.816 E-0.11260
G1 X119.816 Y166.209 E-0.10642
G1 X119.512 Y166.554 E-0.10616
G1 X119.154 Y166.843 E-0.10616
G1 X118.765 Y167.060 E-0.10305
;WIPE_END
G1 E-0.04000 F2100.000
G1 Z0.600 F10800.000
G1 X129.549 Y159.443
G1 Z0.200
G1 E0.80000 F2100.000
;TYPE:Perimeter
G1 F1200.000
G1 X145.723 Y159.443 E0.50713
G1 X145.723 Y170.184 E0.33677
G1 X129.549 Y170.184 E0.50713
G1 X129.549 Y159.503 E0.33489
G1 X129.926 Y159.820 F10800.000
;TYPE:External perimeter
G1 F1200.000
G1 X145.346 Y159.820 E0.48348
G1 X145.346 Y169.807 E0.31313
G1 X129.926 Y169.807 E0.48348
G1 X129.926 Y159.880 E0.31125
G1 X129.796 Y159.442 F10800.000
;WIPE_START
G1 F8640.000
G1 X133.218 Y159.867 E-0.76000
;WIPE_END
G1 E-0.04000 F2100.000
G1 Z0.600 F10800.000
G1 X114.537 Y151.845
G1 Z0.200
G1 E0.80000 F2100.000
;TYPE:Perimeter
G1 F1200.000
G1 X114.262 Y152.292 E0.01643
G1 X113.916 Y152.685 E0.01643
G1 X113.508 Y153.014 E0.01643
G1 X113.051 Y153.270 E0.01643
G1 X112.557 Y153.444 E0.01643
G1 X112.053 Y153.531 E0.01604
G1 X111.778 Y153.542 E0.00861
G1 X111.504 Y153.531 E0.00861
G1 X111.000 Y153.444 E0.01604
G1 X110.506 Y153.270 E0.01643
G1 X110.049 Y153.014 E0.01643
M73 P1 R171
G1 X109.641 Y152.685 E0.01643
G1 X109.295 Y152.292 E0.01643
G1 X109.020 Y151.845 E0.01643
G1 X108.836 Y151.388 E0.01544
G1 X108.714 Y150.850 E0.01730
G1 X108.692 Y150.323 E0.01653
G1 X108.759 Y149.804 E0.01643
G1 X108.912 Y149.303 E0.01643
G1 X109.148 Y148.835 E0.01643
G1 X109.459 Y148.414 E0.01643
G1 X109.838 Y148.051 E0.01643
G1 X110.272 Y147.758 E0.01643
G1 X110.749 Y147.542 E0.01643
G1 X111.256 Y147.410 E0.01643
G1 X111.747 Y147.368 E0.01544
G1 X112.297 Y147.409 E0.01730
G1 X112.808 Y147.542 E0.01653
G1 X113.285 Y147.758 E0.01643
G1 X113.719 Y148.051 E0.01643
G1 X114.097 Y148.414 E0.01643
G1 X114.409 Y148.835 E0.01643
G1 X114.645 Y149.303 E0.01643
G1 X114.798 Y149.804 E0.01643
G1 X114.865 Y150.323 E0.01643
G1 X114.843 Y150.847 E0.01643
G1 X114.732 Y151.359 E0.01643
G1 X114.559 Y151.790 E0.01455
G1 X114.209 Y151.649 F10800.000
;TYPE:External perimeter
G1 F1200.000
G1 X113.958 Y152.066 E0.01528
G1 X113.654 Y152.412 E0.01442
G1 X113.296 Y152.700 E0.01442
G1 X112.895 Y152.925 E0.01442
G1 X112.461 Y153.078 E0.01442
G1 X112.013 Y153.155 E0.01428
G1 X111.778 Y153.165 E0.00735
G1 X111.544 Y153.155 E0.00735
G1 X111.095 Y153.078 E0.01428
G1 X110.662 Y152.925 E0.01442
G1 X110.260 Y152.700 E0.01442
G1 X109.903 Y152.412 E0.01442
G1 X109.599 Y152.066 E0.01442
G1 X109.358 Y151.675 E0.01442
G1 X109.197 Y151.276 E0.01349
G1 X109.090 Y150.800 E0.01529
G1 X109.070 Y150.340 E0.01445
G1 X109.129 Y149.883 E0.01442
G1 X109.263 Y149.444 E0.01442
G1 X109.470 Y149.033 E0.01442
G1 X109.744 Y148.664 E0.01442
G1 X110.075 Y148.346 E0.01442
G1 X110.456 Y148.088 E0.01442
G1 X110.875 Y147.899 E0.01442
G1 X111.320 Y147.783 E0.01442
G1 X111.749 Y147.746 E0.01349
G1 X112.235 Y147.783 E0.01529
G1 X112.682 Y147.899 E0.01445
G1 X113.100 Y148.088 E0.01442
G1 X113.481 Y148.346 E0.01442
G1 X113.813 Y148.664 E0.01442
G1 X114.087 Y149.033 E0.01442
G1 X114.294 Y149.444 E0.01442
G1 X114.428 Y149.883 E0.01442
G1 X114.487 Y150.340 E0.01442
G1 X114.467 Y150.799 E0.01442
G1 X114.370 Y151.248 E0.01442
G1 X114.232 Y151.593 E0.01166
G1 X114.431 Y151.982 F10800.000
;WIPE_START
G1 F8640.000
G1 X113.958 Y152.066 E-0.12622
G1 X113.654 Y152.412 E-0.10616
G1 X113.296 Y152.700 E-0.10616
G1 X112.895 Y152.925 E-0.10616
G1 X112.461 Y153.078 E-0.10616
G1 X112.013 Y153.155 E-0.10513
G1 X111.778 Y153.165 E-0.05415
G1 X111.563 Y153.156 E-0.04985
;WIPE_END
G1 E-0.04000 F2100.000
G1 Z0.600 F10800.000
G1 X100.395 Y145.987
G1 Z0.200
G1 E0.80000 F2100.000
;TYPE:Perimeter
G1 F1200.000
G1 X100.120 Y146.434 E0.01643
G1 X99.774 Y146.827 E0.01643
G1 X99.366 Y147.156 E0.01643
G1 X98.909 Y147.412 E0.01643
G1 X98.415 Y147.586 E0.01643
G1 X97.911 Y147.673 E0.01604
G1 X97.636 Y147.684 E0.00861
G1 X97.362 Y147.673 E0.00861
G1 X96.858 Y147.586 E0.01604
G1 X96.364 Y147.412 E0.01643
G1 X95.906 Y147.156 E0.01643
G1 X95.499 Y146.827 E0.01643
G1 X95.153 Y146.434 E0.01643
G1 X94.894 Y146.014 E0.01544
G1 X94.683 Y145.504 E0.01730
G1 X94.572 Y144.989 E0.01653
G1 X94.550 Y144.466 E0.01643
G1 X94.616 Y143.946 E0.01643
G1 X94.770 Y143.445 E0.01643
G1 X95.006 Y142.977 E0.01643
G1 X95.317 Y142.556 E0.01643
G1 X95.696 Y142.193 E0.01643
G1 X96.130 Y141.900 E0.01643
G1 X96.607 Y141.684 E0.01643
G1 X97.114 Y141.552 E0.01643
G1 X97.605 Y141.510 E0.01544
G1 X98.155 Y141.551 E0.01730
G1 X98.665 Y141.684 E0.01653
G1 X99.143 Y141.900 E0.01643
G1 X99.577 Y142.193 E0.01643
G1 X99.955 Y142.556 E0.01643
G1 X100.267 Y142.977 E0.01643
G1 X100.503 Y143.445 E0.01643
G1 X100.656 Y143.946 E0.01643
G1 X100.723 Y144.466 E0.01643
G1 X100.700 Y144.989 E0.01643
G1 X100.590 Y145.501 E0.01643
G1 X100.417 Y145.932 E0.01455
G1 X100.067 Y145.791 F10800.000
;TYPE:External perimeter
G1 F1200.000
G1 X99.816 Y146.209 E0.01528
G1 X99.512 Y146.554 E0.01442
G1 X99.154 Y146.843 E0.01442
G1 X98.753 Y147.067 E0.01442
G1 X98.319 Y147.220 E0.01442
G1 X97.871 Y147.297 E0.01428
G1 X97.636 Y147.307 E0.00735
G1 X97.402 Y147.297 E0.00735
G1 X96.953 Y147.220 E0.01428
G1 X96.520 Y147.067 E0.01442
G1 X96.118 Y146.843 E0.01442
G1 X95.761 Y146.554 E0.01442
G1 X95.457 Y146.209 E0.01442
G1 X95.231 Y145.842 E0.01349
G1 X95.045 Y145.392 E0.01529
G1 X94.948 Y144.941 E0.01445
G1 X94.928 Y144.482 E0.01442
G1 X94.986 Y144.026 E0.01442
G1 X95.121 Y143.586 E0.01442
G1 X95.328 Y143.175 E0.01442
G1 X95.601 Y142.806 E0.01442
G1 X95.933 Y142.488 E0.01442
G1 X96.314 Y142.230 E0.01442
G1 X96.733 Y142.041 E0.01442
G1 X97.178 Y141.925 E0.01442
G1 X97.607 Y141.888 E0.01349
G1 X98.093 Y141.925 E0.01529
G1 X98.539 Y142.041 E0.01445
G1 X98.958 Y142.230 E0.01442
G1 X99.339 Y142.488 E0.01442
G1 X99.671 Y142.806 E0.01442
G1 X99.945 Y143.175 E0.01442
G1 X100.152 Y143.586 E0.01442
G1 X100.286 Y144.026 E0.01442
G1 X100.345 Y144.482 E0.01442
G1 X100.325 Y144.941 E0.01442
G1 X100.228 Y145.390 E0.01442
G1 X100.090 Y145.736 E0.01166
G1 X100.289 Y146.124 F10800.000
;WIPE_START
G1 F8640.000
G1 X99.816 Y146.209 E-0.12621
G1 X99.512 Y146.554 E-0.10616
G1 X99.154 Y146.843 E-0.10617
G1 X98.753 Y147.067 E-0.10616
G1 X98.319 Y147.220 E-0.10616
G1 X97.871 Y147.297 E-0.10513
G1 X97.636 Y147.307 E-0.05415
G1 X97.421 Y147.298 E-0.04985
;WIPE_END
G1 E-0.04000 F2100.000
G1 Z0.600 F10800.000
G1 X86.514 Y149.804
G1 Z0.200
G1 E0.80000 F2100.000
;TYPE:Perimeter
G1 F1200.000
G1 X86.581 Y150.323 E0.01643
G1 X86.558 Y150.847 E0.01643
G1 X86.448 Y151.359 E0.01643
G1 X86.253 Y151.845 E0.01643
G1 X85.978 Y152.292 E0.01643
G1 X85.632 Y152.685 E0.01643
G1 X85.224 Y153.014 E0.01643
G1 X84.767 Y153.270 E0.01643
G1 X84.273 Y153.444 E0.01643
G1 X83.768 Y153.531 E0.01604
G1 X83.220 Y153.531 E0.01720
G1 X82.716 Y153.444 E0.01604
G1 X82.222 Y153.270 E0.01643
G1 X81.764 Y153.014 E0.01643
G1 X81.357 Y152.685 E0.01643
G1 X81.010 Y152.292 E0.01643
G1 X80.736 Y151.845 E0.01643
G1 X80.540 Y151.359 E0.01643
G1 X80.430 Y150.847 E0.01643
G1 X80.408 Y150.323 E0.01643
G1 X80.474 Y149.804 E0.01643
G1 X80.628 Y149.303 E0.01643
G1 X80.864 Y148.835 E0.01643
G1 X81.175 Y148.414 E0.01643
G1 X81.553 Y148.051 E0.01643
G1 X81.988 Y147.758 E0.01643
G1 X82.465 Y147.542 E0.01643
G1 X82.972 Y147.410 E0.01643
G1 X83.463 Y147.368 E0.01544
G1 X84.013 Y147.409 E0.01730
G1 X84.523 Y147.542 E0.01653
G1 X85.001 Y147.758 E0.01643
G1 X85.435 Y148.051 E0.01643
G1 X85.813 Y148.414 E0.01643
G1 X86.125 Y148.835 E0.01643
G1 X86.361 Y149.303 E0.01643
G1 X86.496 Y149.746 E0.01455
G1 X86.136 Y149.857 F10800.000
;TYPE:External perimeter
G1 F1200.000
G1 X86.202 Y150.340 E0.01528
G1 X86.183 Y150.799 E0.01442
G1 X86.086 Y151.248 E0.01442
G1 X85.915 Y151.675 E0.01442
G1 X85.674 Y152.066 E0.01442
G1 X85.370 Y152.412 E0.01442
G1 X85.012 Y152.700 E0.01442
