; generated by PrusaSlicer 2.3.3+win64 on 2021-11-24 at 10:18:24 UTC

; 

; external perimeters extrusion width = 0.45mm
; perimeters extrusion width = 0.45mm
; infill extrusion width = 0.45mm
; solid infill extrusion width = 0.45mm
; top infill extrusion width = 0.40mm
; first layer extrusion width = 0.42mm

; external perimeters extrusion width = 0.45mm
; perimeters extrusion width = 0.45mm
; infill extrusion width = 0.45mm
; solid infill extrusion width = 0.45mm
; top infill extrusion width = 0.40mm
; first layer extrusion width = 0.42mm

; external perimeters extrusion width = 0.45mm
; perimeters extrusion width = 0.45mm
; infill extrusion width = 0.45mm
; solid infill extrusion width = 0.45mm
; top infill extrusion width = 0.40mm
; first layer extrusion width = 0.42mm

M73 P0 R126
M73 Q0 S127
M201 X1000 Y1000 Z200 E8000 ; sets maximum accelerations, mm/sec^2
M203 X200 Y200 Z12 E120 ; sets maximum feedrates, mm/sec
M204 P1250 R1250 T1250 ; sets acceleration (P, T) and retract acceleration (R), mm/sec^2
M205 X8.00 Y8.00 Z0.40 E4.50 ; sets the jerk limits, mm/sec
M205 S0 T0 ; sets the minimum extruding and travel feed rate, mm/sec
M107
;TYPE:Custom
M862.3 P "MK3SMMU2S" ; printer model check
M862.1 P0.4 ; nozzle diameter check
M115 U3.10.0 ; tell printer latest fw version
G90 ; use absolute coordinates
M83 ; extruder relative mode
M104 S215 ; set extruder temp
M140 S60 ; set bed temp
M190 S60 ; wait for bed temp
M109 S215 ; wait for extruder temp
G28 W ; home all without mesh bed level
G80 ; mesh bed leveling

; Send the filament type to the MMU2.0 unit.
; E stands for extruder number, F stands for filament type (0: default; 1:flex; 2: PVA)
M403 E0 F0
M403 E1 F0
M403 E2 F0
M403 E3 F0
M403 E4 F0


;go outside print area
G1 Y-3.0 F1000.0
M73 Q0 S126
G1 Z0.4 F1000.0
; select extruder
T1
; initial load
G1 X55.0 E29.0 F1073.0
G1 X5.0 E29.0 F1800.0
G1 X55.0 E8.0 F2000.0
G1 Z0.3 F1000.0
G92 E0.0
G1 X240.0 E25.0 F2200.0
G1 Y-2.0 F1000.0
G1 X55.0 E25 F1400.0
M73 P0 R125
G1 Z0.20 F1000.0
G1 X5.0 E4.0 F1000.0
G92 E0.0


M221 S95
G92 E0.0

; Don't change E values below. Excessive value can damage the printer.
M907 E430 ; set extruder motor current
G21 ; set units to millimeters
G90 ; use absolute coordinates
M83 ; use relative distances for extrusion
T1
M900 K0.05 ; Filament gcode LA 1.5
M900 K30 ; Filament gcode LA 1.0
G1 Z0.200 F10800.000
;LAYER_CHANGE
;Z:0.2
;HEIGHT:0.2
;BEFORE_LAYER_CHANGE
G92 E0.0
;0.2


G1 E-0.80000 F2100.000
G1 Z0.600 F10800.000
G1 Z0.200
;AFTER_LAYER_CHANGE
;0.2
G1 E-1.20000 F2100.000
G1 Z0.600 F10800.000
G1 X233.000 Y125.000
G1 Z0.200
G1 E2.00000 F2100.000
;HEIGHT:0.200000
;TYPE:Wipe tower
;WIDTH:0.500000
;-------------------------------------
; CP WIPE TOWER FIRST LAYER BRIM START
G1  X233.000 Y152.120  E1.5461 F2400
G1  X230.457 Y152.577   F7000
G1  Y124.543  E1.1720 F2100
G1  X169.543  E2.5466
G1  Y152.577  E1.1720
G1  X230.457  E2.5466
G1  X230.914 Y153.034   F7000
G1  Y124.086  E1.2102 F2100
G1  X169.086  E2.5849
G1  Y153.034  E1.2102
G1  X230.914  E2.5849
G1  X231.371 Y153.491   F7000
G1  Y123.629  E1.2485 F2100
G1  X168.629  E2.6231
G1  Y153.491  E1.2485
G1  X231.371  E2.6231
G1  X231.828 Y153.948   F7000
G1  Y123.172  E1.2867 F2100
G1  X168.172  E2.6613
G1  Y153.948  E1.2867
G1  X231.828  E2.6613
; CP WIPE TOWER FIRST LAYER BRIM END
;-----------------------------------

;WIPE_START
G1 F8640.000
G1 X231.371 Y153.491 E-0.14925
G1 X228.726 Y153.491 E-0.61075
;WIPE_END
G1 E-0.04000 F2100.000
G1 Z0.600 F10800.000
G1 X233.302 Y155.379
G1 Z0.200
G1 E0.80000 F2100.000
M204 S1000
;TYPE:Skirt
;WIDTH:0.42
;HEIGHT:0.2
G1 F1200.000
G1 X232.820 Y155.760 E0.01929
G1 X232.251 Y156.006 E0.01941
G1 X231.643 Y156.096 E0.01929
G1 X168.130 Y156.081 E1.99139
G1 X84.575 Y138.015 E2.68037
M73 Q0 S125
G1 X83.918 Y137.766 E0.02201
G1 X83.423 Y137.395 E0.01941
G1 X83.041 Y136.912 E0.01929
G1 X82.796 Y136.348 E0.01929
G1 X82.705 Y135.736 E0.01941
G1 X82.768 Y85.146 E1.58620
G1 X82.928 Y84.297 E0.02708
G1 X83.254 Y83.714 E0.02095
G1 X83.733 Y83.242 E0.02107
G1 X84.325 Y82.924 E0.02107
G1 X84.982 Y82.783 E0.02107
G1 X105.149 Y82.778 E0.63233
G1 X135.431 Y83.323 E0.94961
M73 Q1 S125
G1 X136.068 Y83.424 E0.02024
G1 X232.763 Y121.327 E3.25640
M73 P1 R125
G1 X233.253 Y121.692 E0.01917
G1 X233.634 Y122.171 E0.01917
G1 X233.881 Y122.731 E0.01917
G1 X233.976 Y123.335 E0.01917
G1 X233.977 Y153.743 E0.95342
G1 X233.897 Y154.330 E0.01858
G1 X233.673 Y154.883 E0.01870
G1 X233.338 Y155.330 E0.01753
; printing object body4359943 id:7 copy 0
; stop printing object body4359943 id:7 copy 0
; printing object body4569926 id:6 copy 0
;WIPE_START
G1 F8640.000
G1 X232.820 Y155.760 E-0.15551
G1 X232.251 Y156.006 E-0.14295
G1 X231.643 Y156.096 E-0.14208
G1 X230.259 Y156.096 E-0.31946
;WIPE_END
G1 E-0.04000 F2100.000
G1 Z0.600 F10800.000
G1 X134.167 Y102.486
G1 Z0.200
G1 E0.80000 F2100.000
;TYPE:Perimeter
G1 F1200.000
G1 X116.593 Y102.486 E0.55103
G1 X116.593 Y94.912 E0.23748
G1 X121.593 Y94.912 E0.15677
G1 X121.593 Y88.912 E0.18813
G1 X129.167 Y88.912 E0.23748
G1 X129.167 Y94.912 E0.18813
G1 X134.167 Y94.912 E0.15677
G1 X134.167 Y102.426 E0.23560
G1 X133.790 Y102.109 F10800.000
;TYPE:External perimeter
G1 F1200.000
G1 X116.970 Y102.109 E0.52738
G1 X116.970 Y95.289 E0.21384
G1 X121.970 Y95.289 E0.15677
G1 X121.970 Y89.289 E0.18813
G1 X128.790 Y89.289 E0.21384
G1 X128.790 Y95.289 E0.18813
G1 X133.790 Y95.289 E0.15677
G1 X133.790 Y102.049 E0.21196
G1 X133.874 Y102.500 F10800.000
;WIPE_START
G1 F8640.000
G1 X130.499 Y102.061 E-0.76000
;WIPE_END
G1 E-0.04000 F2100.000
G1 Z0.600 F10800.000
G1 X129.544 Y88.535
G1 Z0.200
G1 E0.80000 F2100.000
;TYPE:Perimeter
G1 F1200.000
G1 X121.216 Y88.535 E0.26113
G1 X121.216 Y94.535 E0.18813
M73 P1 R124
G1 X116.544 Y94.535 E0.14648
G1 X116.544 Y86.863 E0.24054
G1 X134.216 Y86.863 E0.55408
G1 X134.216 Y94.535 E0.24054
G1 X129.544 Y94.535 E0.14648
G1 X129.544 Y88.595 E0.18624
;WIPE_START
G1 F8640.000
G1 X126.253 Y88.571 E-0.76000
;WIPE_END
G1 E-0.04000 F2100.000
G1 Z0.600 F10800.000
G1 X134.216 Y102.863
G1 Z0.200
G1 E0.80000 F2100.000
G1 F1200.000
G1 X134.216 Y104.535 E0.05241
G1 X116.544 Y104.535 E0.55408
G1 X116.544 Y102.863 E0.05241
G1 X134.156 Y102.863 E0.55220
;WIPE_START
G1 F8640.000
G1 X134.216 Y104.535 E-0.38625
G1 X132.597 Y104.535 E-0.37375
;WIPE_END
G1 E-0.04000 F2100.000
G1 Z0.600 F10800.000
G1 X134.593 Y104.912
G1 Z0.200
G1 E0.80000 F2100.000
G1 F1200.000
G1 X116.167 Y104.912 E0.57773
G1 X116.167 Y86.486 E0.57773
G1 X134.593 Y86.486 E0.57773
G1 X134.593 Y104.852 E0.57585
G1 X134.970 Y105.289 F10800.000
;TYPE:External perimeter
G1 F1200.000
G1 X115.790 Y105.289 E0.60138
G1 X115.790 Y86.109 E0.60138
G1 X134.970 Y86.109 E0.60138
G1 X134.970 Y105.229 E0.59949
G1 X134.584 Y105.186 F10800.000
;WIPE_START
G1 F8640.000
G1 X131.679 Y105.240 E-0.76000
;WIPE_END
G1 E-0.04000 F2100.000
G1 Z0.600 F10800.000
G1 X133.328 Y102.977
G1 Z0.200
G1 E0.80000 F2100.000
;TYPE:Solid infill
;WIDTH:0.426098
G1 F1200.000
G1 X133.933 Y103.582 E0.02728
G1 X133.933 Y104.124 E0.01727
G1 X132.955 Y103.146 E0.04406
G1 X132.414 Y103.146 E0.01727
G1 X133.520 Y104.252 E0.04984
G1 X132.978 Y104.252 E0.01727
G1 X131.872 Y103.146 E0.04984
G1 X131.330 Y103.146 E0.01727
G1 X132.436 Y104.252 E0.04984
G1 X131.894 Y104.252 E0.01727
G1 X130.788 Y103.146 E0.04984
G1 X130.246 Y103.146 E0.01727
G1 X131.352 Y104.252 E0.04984
G1 X130.810 Y104.252 E0.01727
G1 X129.704 Y103.146 E0.04984
G1 X129.162 Y103.146 E0.01727
G1 X130.268 Y104.252 E0.04984
G1 X129.726 Y104.252 E0.01727
G1 X128.620 Y103.146 E0.04984
G1 X128.078 Y103.146 E0.01727
G1 X129.185 Y104.252 E0.04984
G1 X128.643 Y104.252 E0.01727
G1 X127.537 Y103.146 E0.04984
G1 X126.995 Y103.146 E0.01727
G1 X128.101 Y104.252 E0.04984
G1 X127.559 Y104.252 E0.01727
G1 X126.453 Y103.146 E0.04984
G1 X125.911 Y103.146 E0.01727
G1 X127.017 Y104.252 E0.04984
G1 X126.475 Y104.252 E0.01727
G1 X125.369 Y103.146 E0.04984
G1 X124.827 Y103.146 E0.01727
G1 X125.933 Y104.252 E0.04984
G1 X125.391 Y104.252 E0.01727
G1 X124.285 Y103.146 E0.04984
G1 X123.743 Y103.146 E0.01727
G1 X124.849 Y104.252 E0.04984
G1 X124.307 Y104.252 E0.01727
G1 X123.201 Y103.146 E0.04984
G1 X122.659 Y103.146 E0.01727
G1 X123.766 Y104.252 E0.04984
G1 X123.224 Y104.252 E0.01727
G1 X122.118 Y103.146 E0.04984
G1 X121.576 Y103.146 E0.01727
G1 X122.682 Y104.252 E0.04984
G1 X122.140 Y104.252 E0.01727
G1 X121.034 Y103.146 E0.04984
G1 X120.492 Y103.146 E0.01727
G1 X121.598 Y104.252 E0.04984
G1 X121.056 Y104.252 E0.01727
G1 X119.950 Y103.146 E0.04984
G1 X119.408 Y103.146 E0.01727
G1 X120.514 Y104.252 E0.04984
G1 X119.972 Y104.252 E0.01727
G1 X118.866 Y103.146 E0.04984
G1 X118.324 Y103.146 E0.01727
G1 X119.430 Y104.252 E0.04984
G1 X118.889 Y104.252 E0.01727
G1 X117.782 Y103.146 E0.04984
G1 X117.241 Y103.146 E0.01727
G1 X118.347 Y104.252 E0.04984
G1 X117.805 Y104.252 E0.01727
G1 X116.827 Y103.275 E0.04405
G1 X116.827 Y103.817 E0.01727
G1 X117.433 Y104.422 E0.02728
;WIPE_START
G1 F8640.000
G1 X116.827 Y103.817 E-0.19769
G1 X116.827 Y103.275 E-0.12513
G1 X117.805 Y104.252 E-0.31924
G1 X118.316 Y104.252 E-0.11794
;WIPE_END
G1 E-0.04000 F2100.000
G1 Z0.600 F10800.000
G1 X134.103 Y87.753
G1 Z0.200
G1 E0.80000 F2100.000
;WIDTH:0.4267
G1 F1200.000
G1 X133.496 Y87.146 E0.02738
G1 X132.953 Y87.146 E0.01732
G1 X133.933 Y88.126 E0.04422
G1 X133.933 Y88.669 E0.01732
G1 X132.411 Y87.146 E0.06871
G1 X131.868 Y87.146 E0.01732
G1 X133.933 Y89.212 E0.09321
G1 X133.933 Y89.754 E0.01732
G1 X131.325 Y87.146 E0.11770
G1 X130.782 Y87.146 E0.01732
G1 X133.933 Y90.297 E0.14220
G1 X133.933 Y90.840 E0.01732
G1 X130.240 Y87.146 E0.16669
G1 X129.697 Y87.146 E0.01732
G1 X133.933 Y91.383 E0.19118
G1 X133.933 Y91.925 E0.01732
G1 X129.154 Y87.146 E0.21568
G1 X128.611 Y87.146 E0.01732
G1 X133.933 Y92.468 E0.24017
G1 X133.933 Y93.011 E0.01732
G1 X129.827 Y88.905 E0.18531
G1 X129.827 Y89.447 E0.01732
G1 X133.933 Y93.554 E0.18531
G1 X133.933 Y94.096 E0.01732
G1 X129.827 Y89.990 E0.18531
G1 X129.827 Y90.533 E0.01732
G1 X133.547 Y94.252 E0.16785
G1 X133.004 Y94.252 E0.01732
G1 X129.827 Y91.076 E0.14336
G1 X129.827 Y91.618 E0.01732
G1 X132.461 Y94.252 E0.11887
G1 X131.918 Y94.252 E0.01732
G1 X129.827 Y92.161 E0.09437
G1 X129.827 Y92.704 E0.01732
G1 X131.376 Y94.252 E0.06988
G1 X130.833 Y94.252 E0.01732
G1 X129.827 Y93.247 E0.04538
G1 X129.827 Y93.789 E0.01732
G1 X130.460 Y94.422 E0.02855
;WIPE_START
G1 F8640.000
G1 X129.827 Y93.789 E-0.20657
G1 X129.827 Y93.247 E-0.12532
G1 X130.833 Y94.252 E-0.32839
G1 X131.265 Y94.252 E-0.09971
;WIPE_END
G1 E-0.04000 F2100.000
G1 Z0.600 F10800.000
G1 X129.344 Y88.422
G1 Z0.200
G1 E0.80000 F2100.000
G1 F1200.000
G1 X128.069 Y87.146 E0.05758
G1 X127.526 Y87.146 E0.01732
G1 X128.632 Y88.252 E0.04992
G1 X128.089 Y88.252 E0.01732
G1 X126.983 Y87.146 E0.04992
G1 X126.440 Y87.146 E0.01732
G1 X127.547 Y88.252 E0.04992
G1 X127.004 Y88.252 E0.01732
G1 X125.898 Y87.146 E0.04992
G1 X125.355 Y87.146 E0.01732
G1 X126.461 Y88.252 E0.04992
G1 X125.918 Y88.252 E0.01732
G1 X124.812 Y87.146 E0.04992
G1 X124.269 Y87.146 E0.01732
G1 X125.376 Y88.252 E0.04992
G1 X124.833 Y88.252 E0.01732
G1 X123.727 Y87.146 E0.04992
G1 X123.184 Y87.146 E0.01732
G1 X124.290 Y88.252 E0.04992
G1 X123.747 Y88.252 E0.01732
G1 X122.641 Y87.146 E0.04992
G1 X122.098 Y87.146 E0.01732
G1 X123.205 Y88.252 E0.04992
G1 X122.662 Y88.252 E0.01732
G1 X121.556 Y87.146 E0.04992
G1 X121.013 Y87.146 E0.01732
G1 X122.119 Y88.252 E0.04992
G1 X121.576 Y88.252 E0.01732
G1 X120.470 Y87.146 E0.04992
G1 X119.927 Y87.146 E0.01732
G1 X121.034 Y88.252 E0.04992
G1 X120.933 Y88.252 E0.00320
G1 X120.933 Y88.695 E0.01412
G1 X119.385 Y87.146 E0.06988
G1 X118.842 Y87.146 E0.01732
G1 X120.933 Y89.238 E0.09438
G1 X120.933 Y89.780 E0.01732
G1 X118.299 Y87.146 E0.11887
G1 X117.756 Y87.146 E0.01732
G1 X120.933 Y90.323 E0.14337
G1 X120.933 Y90.866 E0.01732
G1 X117.214 Y87.146 E0.16786
G1 X116.827 Y87.146 E0.01234
G1 X116.827 Y87.302 E0.00498
G1 X120.933 Y91.409 E0.18531
G1 X120.933 Y91.951 E0.01732
G1 X116.827 Y87.845 E0.18531
G1 X116.827 Y88.388 E0.01732
G1 X120.933 Y92.494 E0.18531
G1 X120.933 Y93.037 E0.01732
G1 X116.827 Y88.931 E0.18531
G1 X116.827 Y89.473 E0.01732
G1 X120.933 Y93.580 E0.18531
G1 X120.933 Y94.122 E0.01732
G1 X116.827 Y90.016 E0.18531
G1 X116.827 Y90.559 E0.01732
G1 X120.521 Y94.252 E0.16668
G1 X119.978 Y94.252 E0.01732
G1 X116.827 Y91.102 E0.14219
G1 X116.827 Y91.644 E0.01732
G1 X119.435 Y94.252 E0.11770
G1 X118.892 Y94.252 E0.01732
G1 X116.827 Y92.187 E0.09320
G1 X116.827 Y92.730 E0.01732
G1 X118.350 Y94.252 E0.06871
G1 X117.807 Y94.252 E0.01732
G1 X116.827 Y93.273 E0.04421
G1 X116.827 Y93.815 E0.01732
G1 X117.434 Y94.422 E0.02738
; stop printing object body4569926 id:6 copy 0
; printing object body5163137 id:4 copy 0
;WIPE_START
G1 F8640.000
G1 X116.827 Y93.815 E-0.19811
G1 X116.827 Y93.273 E-0.12532
G1 X117.807 Y94.252 E-0.31993
G1 X118.312 Y94.252 E-0.11664
;WIPE_END
G1 E-0.04000 F2100.000
G1 Z0.600 F10800.000
G1 X86.481 Y86.490
G1 Z0.200
G1 E0.80000 F2100.000
;TYPE:Perimeter
;WIDTH:0.42
G1 F1200.000
G1 X103.809 Y86.490 E0.54332
G1 X103.809 Y103.819 E0.54332
G1 X86.481 Y103.819 E0.54332
G1 X86.481 Y86.550 E0.54144
G1 X86.858 Y86.868 F10800.000
G1 F1200.000
G1 X103.432 Y86.868 E0.51967
G1 X103.432 Y103.442 E0.51967
G1 X86.858 Y103.442 E0.51967
G1 X86.858 Y86.928 E0.51779
G1 X87.235 Y87.245 F10800.000
;TYPE:External perimeter
G1 F1200.000
G1 X103.055 Y87.245 E0.49602
G1 X103.055 Y103.065 E0.49602
G1 X87.235 Y103.065 E0.49602
M73 Q1 S124
G1 X87.235 Y87.305 E0.49414
G1 X87.132 Y86.858 F10800.000
;WIPE_START
G1 F8640.000
G1 X90.527 Y87.292 E-0.76000
;WIPE_END
G1 E-0.04000 F2100.000
G1 Z0.600 F10800.000
G1 X86.309 Y86.319
G1 Z0.200
G1 E0.80000 F2100.000
;TYPE:Perimeter
G1 F1200.000
G1 X103.981 Y86.319 E0.55408
G1 X103.981 Y103.990 E0.55408
G1 X86.309 Y103.990 E0.55408
G1 X86.309 Y86.379 E0.55220
G1 X85.932 Y85.942 F10800.000
G1 F1200.000
G1 X104.358 Y85.942 E0.57773
G1 X104.358 Y104.368 E0.57773
G1 X85.932 Y104.368 E0.57773
G1 X85.932 Y86.002 E0.57585
G1 X85.555 Y85.565 F10800.000
;TYPE:External perimeter
G1 F1200.000
G1 X104.735 Y85.565 E0.60138
G1 X104.735 Y104.745 E0.60138
G1 X85.555 Y104.745 E0.60138
G1 X85.555 Y85.625 E0.59949
G1 X85.942 Y85.668 F10800.000
; stop printing object body5163137 id:4 copy 0
; printing object body4761651 id:5 copy 0
; stop printing object body4761651 id:5 copy 0
; printing object body3903018 id:0 copy 0
;WIPE_START
G1 F8640.000
G1 X88.847 Y85.614 E-0.76000
;WIPE_END
G1 E-0.04000 F2100.000
G1 Z0.600 F10800.000
G1 X86.245 Y116.857
G1 Z0.200
G1 E0.80000 F2100.000
;TYPE:Perimeter
G1 F1200.000
G1 X90.917 Y116.857 E0.14648
G1 X90.917 Y125.528 E0.27189
G1 X86.275 Y125.528 E0.14555
G1 X86.245 Y125.607 E0.00264
G1 X86.245 Y116.917 E0.27249
;WIPE_START
G1 F8640.000
G1 X89.537 Y116.874 E-0.76000
;WIPE_END
G1 E-0.04000 F2100.000
G1 Z0.600 F10800.000
G1 X91.294 Y116.917
G1 Z0.200
G1 E0.80000 F2100.000
G1 F1200.000
G1 X98.868 Y116.905 E0.23748
G1 X98.868 Y125.905 E0.28219
G1 X103.626 Y125.905 E0.14918
G1 X104.010 Y126.926 E0.03418
G1 X95.081 Y134.738 E0.37198
G1 X86.153 Y126.926 E0.37198
G1 X86.536 Y125.905 E0.03418
G1 X91.294 Y125.905 E0.14918
G1 X91.294 Y116.977 E0.27996
G1 X91.671 Y117.282 F10800.000
;TYPE:External perimeter
G1 F1200.000
G1 X98.491 Y117.282 E0.21384
G1 X98.491 Y126.282 E0.28219
G1 X103.365 Y126.282 E0.15282
G1 X103.565 Y126.814 E0.01781
G1 X95.081 Y134.237 E0.35345
G1 X86.598 Y126.814 E0.35345
G1 X86.797 Y126.282 E0.01781
G1 X91.671 Y126.282 E0.15282
G1 X91.671 Y117.342 E0.28031
M73 P1 R123
M73 Q2 S124
G1 X91.737 Y116.888 F10800.000
;WIPE_START
G1 F8640.000
G1 X94.963 Y117.313 E-0.76000
;WIPE_END
M73 P2 R123
G1 E-0.04000 F2100.000
G1 Z0.600 F10800.000
G1 X99.245 Y116.857
G1 Z0.200
G1 E0.80000 F2100.000
;TYPE:Perimeter
G1 F1200.000
G1 X103.917 Y116.857 E0.14648
G1 X103.917 Y125.607 E0.27437
G1 X103.887 Y125.528 E0.00264
G1 X99.245 Y125.528 E0.14555
G1 X99.245 Y116.917 E0.27001
;WIPE_START
G1 F8640.000
G1 X102.537 Y116.874 E-0.76000
;WIPE_END
G1 E-0.04000 F2100.000
G1 Z0.600 F10800.000
G1 X103.917 Y127.508
G1 Z0.200
G1 E0.80000 F2100.000
G1 F1200.000
