; generated by PrusaSlicer 2.3.3+win64 on 2021-12-14 at 12:31:21 UTC

; 

; external perimeters extrusion width = 0.45mm
; perimeters extrusion width = 0.45mm
; infill extrusion width = 0.45mm
; solid infill extrusion width = 0.45mm
; top infill extrusion width = 0.40mm
; first layer extrusion width = 0.42mm

; external perimeters extrusion width = 0.45mm
; perimeters extrusion width = 0.45mm
; infill extrusion width = 0.45mm
; solid infill extrusion width = 0.45mm
; top infill extrusion width = 0.40mm
; first layer extrusion width = 0.42mm

; external perimeters extrusion width = 0.45mm
; perimeters extrusion width = 0.45mm
; infill extrusion width = 0.45mm
; solid infill extrusion width = 0.45mm
; top infill extrusion width = 0.40mm
; first layer extrusion width = 0.42mm

; external perimeters extrusion width = 0.45mm
; perimeters extrusion width = 0.45mm
; infill extrusion width = 0.45mm
; solid infill extrusion width = 0.45mm
; top infill extrusion width = 0.40mm
; first layer extrusion width = 0.42mm

; external perimeters extrusion width = 0.45mm
; perimeters extrusion width = 0.45mm
; infill extrusion width = 0.45mm
; solid infill extrusion width = 0.45mm
; top infill extrusion width = 0.40mm
; first layer extrusion width = 0.42mm

; external perimeters extrusion width = 0.45mm
; perimeters extrusion width = 0.45mm
; infill extrusion width = 0.45mm
; solid infill extrusion width = 0.45mm
; top infill extrusion width = 0.40mm
; first layer extrusion width = 0.42mm

M73 P0 R183
M73 Q0 S184
M201 X1000 Y1000 Z200 E8000 ; sets maximum accelerations, mm/sec^2
M203 X200 Y200 Z12 E120 ; sets maximum feedrates, mm/sec
M204 P1250 R1250 T1250 ; sets acceleration (P, T) and retract acceleration (R), mm/sec^2
M205 X8.00 Y8.00 Z0.40 E4.50 ; sets the jerk limits, mm/sec
M205 S0 T0 ; sets the minimum extruding and travel feed rate, mm/sec
M107
;TYPE:Custom
M862.3 P "MK3SMMU2S" ; printer model check
M862.1 P0.4 ; nozzle diameter check
M115 U3.10.0 ; tell printer latest fw version
G90 ; use absolute coordinates
M83 ; extruder relative mode
M104 S215 ; set extruder temp
M140 S60 ; set bed temp
M190 S60 ; wait for bed temp
M109 S215 ; wait for extruder temp
G28 W ; home all without mesh bed level
G80 ; mesh bed leveling

; Send the filament type to the MMU2.0 unit.
; E stands for extruder number, F stands for filament type (0: default; 1:flex; 2: PVA)
M403 E0 F0
M403 E1 F0
M403 E2 F0
M403 E3 F0
M403 E4 F0


;go outside print area
G1 Y-3.0 F1000.0
G1 Z0.4 F1000.0
; select extruder
T1
; initial load
G1 X55.0 E29.0 F1073.0
G1 X5.0 E29.0 F1800.0
G1 X55.0 E8.0 F2000.0
G1 Z0.3 F1000.0
G92 E0.0
G1 X240.0 E25.0 F2200.0
G1 Y-2.0 F1000.0
G1 X55.0 E25 F1400.0
G1 Z0.20 F1000.0
G1 X5.0 E4.0 F1000.0
G92 E0.0


M221 S95
G92 E0.0

; Don't change E values below. Excessive value can damage the printer.
M907 E430 ; set extruder motor current
G21 ; set units to millimeters
G90 ; use absolute coordinates
M83 ; use relative distances for extrusion
T1
M900 K0.05 ; Filament gcode LA 1.5
M900 K30 ; Filament gcode LA 1.0
G1 Z0.200 F10800.000
;LAYER_CHANGE
;Z:0.2
;HEIGHT:0.2
;BEFORE_LAYER_CHANGE
G92 E0.0
;0.2


G1 E-0.80000 F2100.000
G1 Z0.600 F10800.000
G1 Z0.200
;AFTER_LAYER_CHANGE
;0.2
G1 E-1.20000 F2100.000
G1 Z0.600 F10800.000
G1 X233.000 Y125.000
G1 Z0.200
G1 E2.00000 F2100.000
;HEIGHT:0.200000
;TYPE:Wipe tower
;WIDTH:0.500000
;-------------------------------------
; CP WIPE TOWER FIRST LAYER BRIM START
G1  X233.000 Y152.120  E1.5461 F2400
G1  X230.457 Y152.577   F7000
G1  Y124.543  E1.1720 F2100
M73 P0 R182
G1  X169.543  E2.5466
M73 Q0 S183
G1  Y152.577  E1.1720
G1  X230.457  E2.5466
G1  X230.914 Y153.034   F7000
G1  Y124.086  E1.2102 F2100
G1  X169.086  E2.5849
G1  Y153.034  E1.2102
G1  X230.914  E2.5849
G1  X231.371 Y153.491   F7000
G1  Y123.629  E1.2485 F2100
G1  X168.629  E2.6231
G1  Y153.491  E1.2485
G1  X231.371  E2.6231
G1  X231.828 Y153.948   F7000
G1  Y123.172  E1.2867 F2100
G1  X168.172  E2.6613
G1  Y153.948  E1.2867
G1  X231.828  E2.6613
; CP WIPE TOWER FIRST LAYER BRIM END
;-----------------------------------

;WIPE_START
G1 F8640.000
G1 X231.371 Y153.491 E-0.14925
G1 X228.726 Y153.491 E-0.61075
;WIPE_END
G1 E-0.04000 F2100.000
G1 Z0.600 F10800.000
G1 X233.812 Y154.590
G1 Z0.200
G1 E0.80000 F2100.000
M204 S1000
;TYPE:Skirt
;WIDTH:0.42
;HEIGHT:0.2
G1 F1200.000
G1 X233.339 Y155.340 E0.02778
G1 X232.723 Y155.814 E0.02437
G1 X231.991 Y156.064 E0.02426
G1 X126.363 Y173.152 E3.35495
G1 X125.387 Y173.221 E0.03070
G1 X50.322 Y173.221 E2.35360
G1 X49.187 Y173.124 E0.03570
G1 X47.932 Y172.797 E0.04068
G1 X47.034 Y172.417 E0.03057
G1 X46.192 Y171.910 E0.03081
G1 X45.227 Y171.119 E0.03914
G1 X44.403 Y170.165 E0.03951
G1 X43.737 Y169.038 E0.04104
G1 X43.367 Y168.124 E0.03093
G1 X43.128 Y167.159 E0.03117
G1 X43.006 Y165.848 E0.04128
G1 X43.008 Y120.745 E1.41417
G1 X43.130 Y119.518 E0.03866
G1 X43.367 Y118.565 E0.03081
G1 X43.733 Y117.661 E0.03057
G1 X44.388 Y116.545 E0.04056
G1 X45.108 Y115.688 E0.03510
G1 X46.025 Y114.892 E0.03808
G1 X46.953 Y114.314 E0.03427
G1 X140.588 Y62.287 E3.35862
G1 X142.285 Y61.540 E0.05813
G1 X144.045 Y60.982 E0.05788
G1 X145.805 Y60.621 E0.05633
G1 X148.419 Y60.423 E0.08220
G1 X151.145 Y60.640 E0.08575
G1 X152.840 Y60.996 E0.05431
G1 X154.480 Y61.517 E0.05395
G1 X156.282 Y62.308 E0.06169
G1 X157.741 Y63.138 E0.05264
G1 X159.117 Y64.112 E0.05287
G1 X233.372 Y121.816 E2.94855
G1 X233.811 Y122.529 E0.02626
G1 X233.976 Y123.354 E0.02637
G1 X233.977 Y153.724 E0.95223
G1 X233.823 Y154.531 E0.02578
; printing object body1748626 id:1 copy 0
;WIPE_START
G1 F8640.000
G1 X233.339 Y155.340 E-0.21756
G1 X232.723 Y155.814 E-0.17949
G1 X231.991 Y156.064 E-0.17862
G1 X231.203 Y156.192 E-0.18433
;WIPE_END
G1 E-0.04000 F2100.000
G1 Z0.600 F10800.000
G1 X96.347 Y143.925
G1 Z0.200
G1 E0.80000 F2100.000
;TYPE:Perimeter
G1 F1200.000
G1 X96.272 Y144.508 E0.01844
G1 X96.100 Y145.071 E0.01844
G1 X95.835 Y145.596 E0.01844
G1 X95.486 Y146.069 E0.01844
G1 X95.061 Y146.476 E0.01844
G1 X94.574 Y146.805 E0.01844
G1 X94.038 Y147.047 E0.01844
G1 X93.469 Y147.195 E0.01844
G1 X92.883 Y147.245 E0.01844
G1 X92.297 Y147.195 E0.01844
G1 X91.727 Y147.047 E0.01844
G1 X91.192 Y146.805 E0.01844
G1 X90.704 Y146.476 E0.01844
G1 X90.280 Y146.069 E0.01844
G1 X89.930 Y145.596 E0.01844
G1 X89.665 Y145.071 E0.01844
G1 X89.493 Y144.508 E0.01844
G1 X89.418 Y143.925 E0.01844
G1 X89.443 Y143.337 E0.01844
G1 X89.567 Y142.762 E0.01844
G1 X89.786 Y142.216 E0.01844
G1 X90.095 Y141.716 E0.01844
G1 X90.483 Y141.274 E0.01844
G1 X90.941 Y140.905 E0.01844
G1 X91.454 Y140.618 E0.01844
G1 X92.009 Y140.422 E0.01844
G1 X92.568 Y140.326 E0.01780
G1 X92.866 Y140.313 E0.00934
G1 X93.194 Y140.325 E0.01031
G1 X93.756 Y140.422 E0.01788
G1 X94.311 Y140.618 E0.01844
G1 X94.824 Y140.905 E0.01844
G1 X95.282 Y141.274 E0.01844
G1 X95.671 Y141.716 E0.01844
G1 X95.979 Y142.216 E0.01844
G1 X96.186 Y142.731 E0.01739
G1 X96.322 Y143.332 E0.01932
G1 X96.345 Y143.865 E0.01672
G1 X95.968 Y143.881 F10800.000
G1 F1200.000
G1 X95.903 Y144.428 E0.01729
G1 X95.749 Y144.929 E0.01643
G1 X95.513 Y145.397 E0.01643
G1 X95.202 Y145.819 E0.01643
G1 X94.823 Y146.181 E0.01643
G1 X94.389 Y146.475 E0.01643
G1 X93.912 Y146.690 E0.01643
G1 X93.405 Y146.822 E0.01643
G1 X92.883 Y146.867 E0.01643
G1 X92.361 Y146.822 E0.01643
G1 X91.854 Y146.690 E0.01643
G1 X91.376 Y146.475 E0.01643
G1 X90.942 Y146.181 E0.01643
G1 X90.564 Y145.819 E0.01643
G1 X90.252 Y145.397 E0.01643
G1 X90.016 Y144.929 E0.01643
G1 X89.863 Y144.428 E0.01643
G1 X89.796 Y143.909 E0.01643
G1 X89.818 Y143.385 E0.01643
G1 X89.929 Y142.873 E0.01643
G1 X90.124 Y142.387 E0.01643
G1 X90.399 Y141.941 E0.01643
G1 X90.745 Y141.547 E0.01643
G1 X91.153 Y141.218 E0.01643
G1 X91.610 Y140.963 E0.01643
G1 X92.104 Y140.788 E0.01643
G1 X92.608 Y140.702 E0.01604
G1 X92.867 Y140.691 E0.00812
G1 X93.155 Y140.701 E0.00905
G1 X93.661 Y140.788 E0.01608
G1 X94.155 Y140.963 E0.01643
G1 X94.613 Y141.218 E0.01643
G1 X95.020 Y141.547 E0.01643
G1 X95.366 Y141.941 E0.01643
G1 X95.641 Y142.387 E0.01643
G1 X95.825 Y142.844 E0.01544
G1 X95.947 Y143.382 E0.01730
G1 X95.965 Y143.821 E0.01377
G1 X95.589 Y143.837 F10800.000
;TYPE:External perimeter
G1 F1200.000
G1 X95.533 Y144.349 E0.01614
G1 X95.398 Y144.788 E0.01442
G1 X95.191 Y145.199 E0.01442
G1 X94.918 Y145.569 E0.01442
G1 X94.586 Y145.887 E0.01442
G1 X94.205 Y146.144 E0.01442
G1 X93.786 Y146.334 E0.01442
G1 X93.341 Y146.449 E0.01442
G1 X92.883 Y146.488 E0.01442
G1 X92.425 Y146.449 E0.01442
G1 X91.980 Y146.334 E0.01442
G1 X91.561 Y146.144 E0.01442
G1 X91.180 Y145.887 E0.01442
G1 X90.848 Y145.569 E0.01442
G1 X90.574 Y145.199 E0.01442
G1 X90.367 Y144.788 E0.01442
G1 X90.233 Y144.349 E0.01442
G1 X90.174 Y143.893 E0.01442
G1 X90.194 Y143.433 E0.01442
G1 X90.291 Y142.984 E0.01442
G1 X90.462 Y142.557 E0.01442
G1 X90.703 Y142.166 E0.01442
G1 X91.007 Y141.821 E0.01442
G1 X91.365 Y141.532 E0.01442
G1 X91.766 Y141.307 E0.01442
G1 X92.200 Y141.154 E0.01442
G1 X92.648 Y141.077 E0.01428
G1 X92.868 Y141.068 E0.00689
G1 X93.116 Y141.077 E0.00780
G1 X93.566 Y141.154 E0.01429
G1 X93.999 Y141.307 E0.01442
G1 X94.401 Y141.532 E0.01442
G1 X94.758 Y141.821 E0.01442
G1 X95.062 Y142.166 E0.01442
G1 X95.303 Y142.557 E0.01442
G1 X95.464 Y142.957 E0.01349
G1 X95.571 Y143.432 E0.01529
G1 X95.586 Y143.777 E0.01082
G1 X95.930 Y144.046 F10800.000
;WIPE_START
G1 F8640.000
G1 X95.533 Y144.349 E-0.13260
G1 X95.398 Y144.788 E-0.10616
G1 X95.191 Y145.199 E-0.10616
G1 X94.918 Y145.569 E-0.10616
G1 X94.586 Y145.887 E-0.10616
G1 X94.205 Y146.144 E-0.10616
G1 X93.824 Y146.316 E-0.09658
;WIPE_END
G1 E-0.04000 F2100.000
G1 Z0.600 F10800.000
G1 X104.419 Y137.813
G1 Z0.200
G1 E0.80000 F2100.000
;TYPE:Perimeter
G1 F1200.000
G1 X121.347 Y137.813 E0.53078
G1 X121.347 Y149.308 E0.36042
G1 X104.419 Y149.308 E0.53078
G1 X104.419 Y137.873 E0.35854
G1 X104.796 Y138.191 F10800.000
G1 F1200.000
G1 X120.970 Y138.191 E0.50713
G1 X120.970 Y148.931 E0.33677
G1 X104.796 Y148.931 E0.50713
G1 X104.796 Y138.251 E0.33489
G1 X105.173 Y138.568 F10800.000
;TYPE:External perimeter
G1 F1200.000
G1 X120.593 Y138.568 E0.48348
G1 X120.593 Y148.554 E0.31313
G1 X105.173 Y148.554 E0.48348
G1 X105.173 Y138.628 E0.31125
G1 X105.042 Y138.189 F10800.000
;WIPE_START
G1 F8640.000
G1 X108.464 Y138.615 E-0.76000
;WIPE_END
G1 E-0.04000 F2100.000
G1 Z0.600 F10800.000
G1 X90.242 Y130.928
M73 P0 R181
G1 Z0.200
G1 E0.80000 F2100.000
;TYPE:Perimeter
G1 F1200.000
G1 X89.978 Y131.454 E0.01844
G1 X89.628 Y131.926 E0.01844
G1 X89.203 Y132.333 E0.01844
G1 X88.716 Y132.663 E0.01844
G1 X88.180 Y132.905 E0.01844
G1 X87.611 Y133.053 E0.01844
G1 X87.025 Y133.103 E0.01844
G1 X86.439 Y133.053 E0.01844
G1 X85.870 Y132.905 E0.01844
G1 X85.334 Y132.663 E0.01844
G1 X84.846 Y132.333 E0.01844
G1 X84.422 Y131.926 E0.01844
G1 X84.072 Y131.454 E0.01844
G1 X83.807 Y130.928 E0.01844
G1 X83.635 Y130.366 E0.01844
G1 X83.560 Y129.783 E0.01844
G1 X83.585 Y129.195 E0.01844
G1 X83.709 Y128.620 E0.01844
G1 X83.928 Y128.074 E0.01844
G1 X84.237 Y127.573 E0.01844
G1 X84.625 Y127.132 E0.01844
G1 X85.083 Y126.762 E0.01844
G1 X85.596 Y126.476 E0.01844
G1 X86.151 Y126.280 E0.01844
G1 X86.710 Y126.184 E0.01780
G1 X87.337 Y126.183 E0.01963
G1 X87.899 Y126.280 E0.01788
G1 X88.453 Y126.476 E0.01844
G1 X88.967 Y126.762 E0.01844
G1 X89.424 Y127.132 E0.01844
G1 X89.813 Y127.573 E0.01844
G1 X90.121 Y128.074 E0.01844
G1 X90.328 Y128.589 E0.01739
G1 X90.464 Y129.190 E0.01932
G1 X90.489 Y129.783 E0.01860
G1 X90.415 Y130.366 E0.01844
G1 X90.260 Y130.871 E0.01656
G1 X89.899 Y130.761 F10800.000
G1 F1200.000
G1 X89.655 Y131.255 E0.01729
G1 X89.344 Y131.676 E0.01643
G1 X88.965 Y132.039 E0.01643
M73 Q0 S182
G1 X88.531 Y132.332 E0.01643
G1 X88.054 Y132.548 E0.01643
G1 X87.547 Y132.680 E0.01643
G1 X87.025 Y132.725 E0.01643
G1 X86.503 Y132.680 E0.01643
G1 X85.996 Y132.548 E0.01643
G1 X85.518 Y132.332 E0.01643
G1 X85.084 Y132.039 E0.01643
G1 X84.706 Y131.676 E0.01643
G1 X84.394 Y131.255 E0.01643
G1 X84.158 Y130.787 E0.01643
G1 X84.005 Y130.286 E0.01643
G1 X83.938 Y129.767 E0.01643
G1 X83.961 Y129.243 E0.01643
G1 X84.071 Y128.731 E0.01643
G1 X84.266 Y128.245 E0.01643
G1 X84.541 Y127.799 E0.01643
G1 X84.887 Y127.405 E0.01643
G1 X85.295 Y127.076 E0.01643
G1 X85.752 Y126.820 E0.01643
G1 X86.246 Y126.646 E0.01643
G1 X86.750 Y126.559 E0.01604
G1 X87.298 Y126.559 E0.01715
G1 X87.803 Y126.646 E0.01608
G1 X88.297 Y126.820 E0.01643
G1 X88.755 Y127.076 E0.01643
G1 X89.162 Y127.405 E0.01643
G1 X89.509 Y127.799 E0.01643
G1 X89.783 Y128.245 E0.01643
G1 X89.967 Y128.702 E0.01544
G1 X90.089 Y129.240 E0.01730
G1 X90.111 Y129.767 E0.01653
G1 X90.045 Y130.286 E0.01643
G1 X89.917 Y130.703 E0.01367
G1 X89.556 Y130.593 F10800.000
;TYPE:External perimeter
G1 F1200.000
G1 X89.333 Y131.057 E0.01614
G1 X89.060 Y131.426 E0.01442
G1 X88.728 Y131.745 E0.01442
G1 X88.347 Y132.002 E0.01442
G1 X87.928 Y132.191 E0.01442
G1 X87.483 Y132.307 E0.01442
G1 X87.025 Y132.346 E0.01442
G1 X86.567 Y132.307 E0.01442
G1 X86.122 Y132.191 E0.01442
G1 X85.703 Y132.002 E0.01442
G1 X85.322 Y131.745 E0.01442
G1 X84.990 Y131.426 E0.01442
G1 X84.717 Y131.057 E0.01442
G1 X84.510 Y130.646 E0.01442
G1 X84.375 Y130.207 E0.01442
G1 X84.316 Y129.751 E0.01442
G1 X84.336 Y129.291 E0.01442
G1 X84.433 Y128.842 E0.01442
G1 X84.604 Y128.415 E0.01442
G1 X84.845 Y128.024 E0.01442
G1 X85.149 Y127.678 E0.01442
G1 X85.507 Y127.390 E0.01442
G1 X85.908 Y127.165 E0.01442
G1 X86.342 Y127.012 E0.01442
G1 X86.790 Y126.935 E0.01428
G1 X87.259 Y126.935 E0.01468
G1 X87.708 Y127.012 E0.01429
G1 X88.141 Y127.165 E0.01442
G1 X88.543 Y127.390 E0.01442
G1 X88.900 Y127.678 E0.01442
G1 X89.204 Y128.024 E0.01442
G1 X89.445 Y128.415 E0.01442
G1 X89.606 Y128.814 E0.01349
G1 X89.714 Y129.290 E0.01529
G1 X89.733 Y129.751 E0.01445
G1 X89.675 Y130.207 E0.01442
G1 X89.574 Y130.535 E0.01078
G1 X89.808 Y130.904 F10800.000
;WIPE_START
G1 F8640.000
G1 X89.333 Y131.057 E-0.13260
G1 X89.060 Y131.426 E-0.10616
G1 X88.728 Y131.745 E-0.10616
G1 X88.347 Y132.002 E-0.10616
G1 X87.928 Y132.191 E-0.10616
G1 X87.483 Y132.307 E-0.10616
G1 X87.066 Y132.343 E-0.09658
;WIPE_END
G1 E-0.04000 F2100.000
G1 Z0.600 F10800.000
G1 X76.100 Y125.071
G1 Z0.200
G1 E0.80000 F2100.000
;TYPE:Perimeter
G1 F1200.000
G1 X75.835 Y125.596 E0.01844
G1 X75.486 Y126.069 E0.01844
G1 X75.061 Y126.476 E0.01844
G1 X74.574 Y126.805 E0.01844
G1 X74.038 Y127.047 E0.01844
G1 X73.501 Y127.187 E0.01739
G1 X72.888 Y127.246 E0.01932
G1 X72.297 Y127.195 E0.01860
G1 X71.727 Y127.047 E0.01844
G1 X71.192 Y126.805 E0.01844
G1 X70.704 Y126.476 E0.01844
G1 X70.280 Y126.069 E0.01844
G1 X69.930 Y125.596 E0.01844
G1 X69.665 Y125.071 E0.01844
G1 X69.493 Y124.508 E0.01844
G1 X69.418 Y123.925 E0.01844
G1 X69.443 Y123.337 E0.01844
G1 X69.567 Y122.762 E0.01844
G1 X69.786 Y122.216 E0.01844
G1 X70.095 Y121.716 E0.01844
G1 X70.483 Y121.274 E0.01844
G1 X70.941 Y120.905 E0.01844
G1 X71.454 Y120.618 E0.01844
G1 X72.009 Y120.422 E0.01844
G1 X72.568 Y120.326 E0.01780
G1 X73.195 Y120.325 E0.01963
G1 X73.756 Y120.422 E0.01788
G1 X74.311 Y120.618 E0.01844
G1 X74.824 Y120.905 E0.01844
G1 X75.282 Y121.274 E0.01844
G1 X75.671 Y121.716 E0.01844
G1 X75.979 Y122.216 E0.01844
G1 X76.198 Y122.762 E0.01844
G1 X76.322 Y123.337 E0.01844
G1 X76.347 Y123.925 E0.01844
G1 X76.272 Y124.508 E0.01844
G1 X76.118 Y125.013 E0.01656
G1 X75.757 Y124.903 F10800.000
G1 F1200.000
G1 X75.513 Y125.397 E0.01729
G1 X75.202 Y125.819 E0.01643
G1 X74.823 Y126.181 E0.01643
G1 X74.389 Y126.475 E0.01643
G1 X73.912 Y126.690 E0.01643
G1 X73.435 Y126.814 E0.01544
G1 X72.886 Y126.867 E0.01730
G1 X72.361 Y126.822 E0.01653
G1 X71.854 Y126.690 E0.01643
G1 X71.376 Y126.475 E0.01643
G1 X70.942 Y126.181 E0.01643
G1 X70.564 Y125.819 E0.01643
G1 X70.252 Y125.397 E0.01643
G1 X70.016 Y124.929 E0.01643
G1 X69.863 Y124.428 E0.01643
G1 X69.796 Y123.909 E0.01643
G1 X69.818 Y123.385 E0.01643
G1 X69.929 Y122.873 E0.01643
G1 X70.124 Y122.387 E0.01643
G1 X70.399 Y121.941 E0.01643
G1 X70.745 Y121.547 E0.01643
G1 X71.153 Y121.218 E0.01643
G1 X71.610 Y120.963 E0.01643
G1 X72.104 Y120.788 E0.01643
G1 X72.608 Y120.702 E0.01604
G1 X73.155 Y120.701 E0.01716
G1 X73.661 Y120.788 E0.01608
