; generated by PrusaSlicer 2.3.3+win64 on 2022-01-19 at 10:50:11 UTC

; 

; external perimeters extrusion width = 0.45mm
; perimeters extrusion width = 0.45mm
; infill extrusion width = 0.45mm
; solid infill extrusion width = 0.45mm
; top infill extrusion width = 0.40mm
; first layer extrusion width = 0.42mm

; external perimeters extrusion width = 0.45mm
; perimeters extrusion width = 0.45mm
; infill extrusion width = 0.45mm
; solid infill extrusion width = 0.45mm
; top infill extrusion width = 0.40mm
; first layer extrusion width = 0.42mm

; external perimeters extrusion width = 0.45mm
; perimeters extrusion width = 0.45mm
; infill extrusion width = 0.45mm
; solid infill extrusion width = 0.45mm
; top infill extrusion width = 0.40mm
; first layer extrusion width = 0.42mm

; external perimeters extrusion width = 0.45mm
; perimeters extrusion width = 0.45mm
; infill extrusion width = 0.45mm
; solid infill extrusion width = 0.45mm
; top infill extrusion width = 0.40mm
; first layer extrusion width = 0.42mm

; external perimeters extrusion width = 0.45mm
; perimeters extrusion width = 0.45mm
; infill extrusion width = 0.45mm
; solid infill extrusion width = 0.45mm
; top infill extrusion width = 0.40mm
; first layer extrusion width = 0.42mm

; external perimeters extrusion width = 0.45mm
; perimeters extrusion width = 0.45mm
; infill extrusion width = 0.45mm
; solid infill extrusion width = 0.45mm
; top infill extrusion width = 0.40mm
; first layer extrusion width = 0.42mm

M73 P0 R63
M73 Q0 S63
M201 X1000 Y1000 Z200 E8000 ; sets maximum accelerations, mm/sec^2
M203 X200 Y200 Z12 E120 ; sets maximum feedrates, mm/sec
M204 P1250 R1250 T1250 ; sets acceleration (P, T) and retract acceleration (R), mm/sec^2
M205 X8.00 Y8.00 Z0.40 E4.50 ; sets the jerk limits, mm/sec
M205 S0 T0 ; sets the minimum extruding and travel feed rate, mm/sec
M107
;TYPE:Custom
M862.3 P "MK3SMMU2S" ; printer model check
M862.1 P0.4 ; nozzle diameter check
M115 U3.10.0 ; tell printer latest fw version
G90 ; use absolute coordinates
M83 ; extruder relative mode
M104 S215 ; set extruder temp
M140 S60 ; set bed temp
M190 S60 ; wait for bed temp
M109 S215 ; wait for extruder temp
G28 W ; home all without mesh bed level
G80 ; mesh bed leveling

; Send the filament type to the MMU2.0 unit.
; E stands for extruder number, F stands for filament type (0: default; 1:flex; 2: PVA)
M403 E0 F0
M403 E1 F0
M403 E2 F0
M403 E3 F0
M403 E4 F0


;go outside print area
G1 Y-3.0 F1000.0
G1 Z0.4 F1000.0
; select extruder
T1
; initial load
G1 X55.0 E29.0 F1073.0
G1 X5.0 E29.0 F1800.0
G1 X55.0 E8.0 F2000.0
M73 P0 R62
G1 Z0.3 F1000.0
G92 E0.0
G1 X240.0 E25.0 F2200.0
G1 Y-2.0 F1000.0
G1 X55.0 E25 F1400.0
G1 Z0.20 F1000.0
G1 X5.0 E4.0 F1000.0
G92 E0.0


M221 S95
G92 E0.0

; Don't change E values below. Excessive value can damage the printer.

M907 E538 ; set extruder motor current
G21 ; set units to millimeters
G90 ; use absolute coordinates
M83 ; use relative distances for extrusion
T1
M900 K0.05 ; Filament gcode LA 1.5
M900 K30 ; Filament gcode LA 1.0
M73 P1 R62
G1 Z0.200 F10800.000
;LAYER_CHANGE
;Z:0.2
;HEIGHT:0.2
;BEFORE_LAYER_CHANGE
G92 E0.0
;0.2


G1 E-0.80000 F2100.000
G1 Z0.600 F10800.000
G1 Z0.200
;AFTER_LAYER_CHANGE
;0.2
G1 E-1.20000 F2100.000
G1 Z0.600 F10800.000
M73 Q1 S63
G1 X231.112 Y34.660
G1 Z0.200
G1 E2.00000 F2100.000
;HEIGHT:0.200000
;TYPE:Wipe tower
;WIDTH:0.500000
;-------------------------------------
; CP WIPE TOWER FIRST LAYER BRIM START
G1  X231.112 Y146.220  E6.3600 F2400
G1  X228.569 Y146.677   F7000
G1  Y34.203  E4.7022 F2100
G1  X167.655  E2.5466
G1  Y146.677  E4.7022
G1  X228.569  E2.5466
G1  X229.026 Y147.134   F7000
G1  Y33.746  E4.7404 F2100
M73 Q1 S62
G1  X167.198  E2.5849
G1  Y147.134  E4.7404
G1  X229.026  E2.5849
G1  X229.483 Y147.591   F7000
G1  Y33.289  E4.7786 F2100
G1  X166.741  E2.6231
G1  Y147.591  E4.7786
G1  X229.483  E2.6231
G1  X229.940 Y148.048   F7000
G1  Y32.832  E4.8169 F2100
M73 P2 R62
M73 Q2 S62
G1  X166.284  E2.6613
G1  Y148.048  E4.8169
M73 P2 R61
G1  X229.940  E2.6613
; CP WIPE TOWER FIRST LAYER BRIM END
;-----------------------------------

;WIPE_START
G1 F8640.000
G1 X229.483 Y147.592 E-0.14926
G1 X226.838 Y147.592 E-0.61074
;WIPE_END
G1 E-0.04000 F2100.000
G1 Z0.600 F10800.000
G1 X230.617 Y30.863
G1 Z0.200
G1 E0.80000 F2100.000
M204 S1000
;TYPE:Skirt
;WIDTH:0.42
;HEIGHT:0.2
G1 F1200.000
G1 X231.386 Y31.374 E0.02896
G1 X231.901 Y32.136 E0.02884
G1 X232.088 Y33.037 E0.02884
G1 X232.088 Y147.843 E3.59967
G1 X232.005 Y148.445 E0.01906
G1 X231.769 Y149.009 E0.01917
G1 X231.398 Y149.495 E0.01917
G1 X230.918 Y149.868 E0.01906
G1 X230.341 Y150.112 E0.01965
G1 X229.724 Y150.197 E0.01953
G1 X166.151 Y150.170 E1.99327
G1 X73.750 Y128.652 E2.97469
G1 X72.542 Y128.168 E0.04081
G1 X71.443 Y127.477 E0.04069
G1 X70.548 Y126.674 E0.03771
G1 X69.921 Y125.928 E0.03057
G1 X69.388 Y125.071 E0.03165
G1 X68.832 Y123.725 E0.04567
G1 X68.602 Y122.734 E0.03188
G1 X68.514 Y121.637 E0.03451
G1 X68.517 Y76.466 E1.41632
G1 X68.605 Y75.441 E0.03224
G1 X68.836 Y74.447 E0.03200
G1 X69.407 Y73.086 E0.04626
G1 X69.939 Y72.238 E0.03140
G1 X70.677 Y71.376 E0.03558
G1 X71.539 Y70.638 E0.03558
G1 X72.415 Y70.092 E0.03236
G1 X165.933 Y30.755 E3.18103
G1 X166.510 Y30.683 E0.01823
G1 X229.715 Y30.683 E1.98176
G1 X230.558 Y30.851 E0.02696
; printing object body350 id:0 copy 0
;WIPE_START
G1 F8640.000
G1 X231.386 Y31.374 E-0.22611
G1 X231.901 Y32.136 E-0.21237
G1 X232.088 Y33.037 E-0.21237
G1 X232.088 Y33.509 E-0.10914
;WIPE_END
G1 E-0.04000 F2100.000
G1 Z0.600 F10800.000
G1 X121.022 Y97.042
G1 Z0.200
G1 E0.80000 F2100.000
;TYPE:Perimeter
G1 F1200.000
G1 X121.257 Y97.510 E0.01643
G1 X121.411 Y98.011 E0.01643
G1 X121.477 Y98.531 E0.01643
G1 X121.455 Y99.054 E0.01643
G1 X121.351 Y99.536 E0.01544
G1 X121.151 Y100.050 E0.01730
G1 X120.875 Y100.499 E0.01653
G1 X120.529 Y100.892 E0.01643
G1 X120.121 Y101.221 E0.01643
G1 X119.663 Y101.477 E0.01643
G1 X119.169 Y101.651 E0.01643
G1 X118.665 Y101.738 E0.01604
G1 X118.117 Y101.738 E0.01720
G1 X117.613 Y101.651 E0.01604
G1 X117.119 Y101.477 E0.01643
G1 X116.661 Y101.221 E0.01643
G1 X116.253 Y100.892 E0.01643
G1 X115.907 Y100.499 E0.01643
G1 X115.633 Y100.053 E0.01643
G1 X115.449 Y99.596 E0.01544
G1 X115.327 Y99.057 E0.01730
G1 X115.305 Y98.531 E0.01653
G1 X115.371 Y98.011 E0.01643
G1 X115.525 Y97.510 E0.01643
G1 X115.760 Y97.042 E0.01643
G1 X116.072 Y96.621 E0.01643
G1 X116.450 Y96.258 E0.01643
G1 X116.884 Y95.965 E0.01643
G1 X117.362 Y95.749 E0.01643
G1 X117.869 Y95.617 E0.01643
G1 X118.360 Y95.575 E0.01544
G1 X118.910 Y95.616 E0.01730
G1 X119.420 Y95.749 E0.01653
G1 X119.898 Y95.965 E0.01643
G1 X120.332 Y96.258 E0.01643
G1 X120.710 Y96.621 E0.01643
G1 X120.986 Y96.994 E0.01455
G1 X120.683 Y97.218 F10800.000
;TYPE:External perimeter
G1 F1200.000
G1 X120.906 Y97.651 E0.01528
G1 X121.041 Y98.091 E0.01442
G1 X121.099 Y98.547 E0.01442
G1 X121.080 Y99.006 E0.01442
G1 X120.989 Y99.427 E0.01349
G1 X120.812 Y99.881 E0.01529
G1 X120.570 Y100.274 E0.01445
G1 X120.267 Y100.619 E0.01442
G1 X119.909 Y100.908 E0.01442
G1 X119.508 Y101.132 E0.01442
G1 X119.074 Y101.285 E0.01442
G1 X118.625 Y101.362 E0.01428
G1 X118.157 Y101.362 E0.01469
G1 X117.708 Y101.285 E0.01428
G1 X117.274 Y101.132 E0.01442
G1 X116.873 Y100.908 E0.01442
G1 X116.515 Y100.619 E0.01442
G1 X116.212 Y100.274 E0.01442
M73 Q3 S62
G1 X115.970 Y99.882 E0.01442
G1 X115.810 Y99.483 E0.01349
G1 X115.702 Y99.007 E0.01529
G1 X115.683 Y98.547 E0.01445
G1 X115.741 Y98.091 E0.01442
G1 X115.876 Y97.651 E0.01442
G1 X116.083 Y97.241 E0.01442
G1 X116.356 Y96.871 E0.01442
G1 X116.688 Y96.553 E0.01442
G1 X117.069 Y96.295 E0.01442
G1 X117.488 Y96.106 E0.01442
G1 X117.933 Y95.990 E0.01442
G1 X118.362 Y95.954 E0.01349
G1 X118.848 Y95.990 E0.01529
G1 X119.294 Y96.106 E0.01445
G1 X119.713 Y96.295 E0.01442
G1 X120.094 Y96.553 E0.01442
G1 X120.426 Y96.871 E0.01442
G1 X120.647 Y97.170 E0.01166
G1 X121.082 Y97.204 F10800.000
;WIPE_START
G1 F8640.000
G1 X120.906 Y97.651 E-0.12622
G1 X121.041 Y98.091 E-0.10616
G1 X121.099 Y98.547 E-0.10616
G1 X121.080 Y99.006 E-0.10616
G1 X120.989 Y99.427 E-0.09938
G1 X120.812 Y99.881 E-0.11260
G1 X120.577 Y100.262 E-0.10331
;WIPE_END
G1 E-0.04000 F2100.000
G1 Z0.600 F10800.000
G1 X130.304 Y93.508
M73 P3 R61
G1 Z0.200
M73 Q3 S61
G1 E0.80000 F2100.000
;TYPE:Perimeter
G1 F1200.000
G1 X146.478 Y93.508 E0.50713
G1 X146.478 Y104.249 E0.33677
G1 X130.304 Y104.249 E0.50713
G1 X130.304 Y93.568 E0.33489
G1 X130.681 Y93.885 F10800.000
;TYPE:External perimeter
G1 F1200.000
G1 X146.101 Y93.885 E0.48348
G1 X146.101 Y103.872 E0.31313
G1 X130.681 Y103.872 E0.48348
G1 X130.681 Y93.945 E0.31125
G1 X130.551 Y93.507 F10800.000
;WIPE_START
G1 F8640.000
G1 X133.972 Y93.932 E-0.76000
;WIPE_END
G1 E-0.04000 F2100.000
G1 Z0.600 F10800.000
G1 X115.292 Y85.910
G1 Z0.200
G1 E0.80000 F2100.000
;TYPE:Perimeter
G1 F1200.000
G1 X115.017 Y86.357 E0.01643
G1 X114.671 Y86.750 E0.01643
G1 X114.263 Y87.079 E0.01643
G1 X113.806 Y87.335 E0.01643
G1 X113.312 Y87.509 E0.01643
G1 X112.807 Y87.596 E0.01604
G1 X112.533 Y87.607 E0.00861
G1 X112.259 Y87.596 E0.00861
G1 X111.755 Y87.509 E0.01604
G1 X111.261 Y87.335 E0.01643
G1 X110.803 Y87.079 E0.01643
G1 X110.396 Y86.750 E0.01643
G1 X110.049 Y86.357 E0.01643
G1 X109.775 Y85.910 E0.01643
G1 X109.591 Y85.453 E0.01544
G1 X109.469 Y84.915 E0.01730
G1 X109.447 Y84.389 E0.01653
G1 X109.513 Y83.869 E0.01643
G1 X109.667 Y83.368 E0.01643
G1 X109.903 Y82.900 E0.01643
G1 X110.214 Y82.479 E0.01643
G1 X110.592 Y82.116 E0.01643
G1 X111.027 Y81.823 E0.01643
G1 X111.504 Y81.607 E0.01643
G1 X112.011 Y81.475 E0.01643
G1 X112.502 Y81.433 E0.01544
G1 X113.052 Y81.474 E0.01730
G1 X113.562 Y81.607 E0.01653
G1 X114.040 Y81.823 E0.01643
G1 X114.474 Y82.116 E0.01643
G1 X114.852 Y82.479 E0.01643
G1 X115.164 Y82.900 E0.01643
G1 X115.400 Y83.368 E0.01643
G1 X115.553 Y83.869 E0.01643
G1 X115.620 Y84.389 E0.01643
G1 X115.597 Y84.912 E0.01643
G1 X115.487 Y85.424 E0.01643
G1 X115.314 Y85.855 E0.01455
G1 X114.964 Y85.714 F10800.000
;TYPE:External perimeter
G1 F1200.000
G1 X114.713 Y86.132 E0.01528
G1 X114.409 Y86.477 E0.01442
G1 X114.051 Y86.766 E0.01442
G1 X113.650 Y86.990 E0.01442
G1 X113.216 Y87.143 E0.01442
G1 X112.767 Y87.220 E0.01428
G1 X112.533 Y87.230 E0.00735
G1 X112.299 Y87.220 E0.00735
G1 X111.850 Y87.143 E0.01428
G1 X111.417 Y86.990 E0.01442
G1 X111.015 Y86.766 E0.01442
G1 X110.657 Y86.477 E0.01442
G1 X110.354 Y86.132 E0.01442
G1 X110.113 Y85.740 E0.01442
G1 X109.952 Y85.341 E0.01349
G1 X109.844 Y84.865 E0.01529
G1 X109.825 Y84.405 E0.01445
G1 X109.883 Y83.949 E0.01442
G1 X110.018 Y83.509 E0.01442
G1 X110.225 Y83.098 E0.01442
G1 X110.498 Y82.729 E0.01442
G1 X110.830 Y82.411 E0.01442
G1 X111.211 Y82.153 E0.01442
G1 X111.630 Y81.964 E0.01442
G1 X112.075 Y81.848 E0.01442
G1 X112.504 Y81.811 E0.01349
G1 X112.990 Y81.848 E0.01529
G1 X113.436 Y81.964 E0.01445
G1 X113.855 Y82.153 E0.01442
G1 X114.236 Y82.411 E0.01442
G1 X114.568 Y82.729 E0.01442
G1 X114.841 Y83.098 E0.01442
G1 X115.048 Y83.509 E0.01442
G1 X115.183 Y83.949 E0.01442
G1 X115.241 Y84.405 E0.01442
G1 X115.222 Y84.864 E0.01442
G1 X115.125 Y85.313 E0.01442
G1 X114.986 Y85.659 E0.01166
G1 X115.186 Y86.047 F10800.000
;WIPE_START
G1 F8640.000
G1 X114.713 Y86.132 E-0.12622
G1 X114.409 Y86.477 E-0.10616
G1 X114.051 Y86.766 E-0.10616
G1 X113.650 Y86.990 E-0.10616
G1 X113.216 Y87.143 E-0.10616
G1 X112.767 Y87.220 E-0.10513
G1 X112.533 Y87.230 E-0.05415
G1 X112.317 Y87.221 E-0.04985
;WIPE_END
G1 E-0.04000 F2100.000
G1 Z0.600 F10800.000
G1 X101.149 Y80.053
G1 Z0.200
G1 E0.80000 F2100.000
;TYPE:Perimeter
G1 F1200.000
G1 X100.875 Y80.499 E0.01643
G1 X100.529 Y80.892 E0.01643
G1 X100.121 Y81.221 E0.01643
G1 X99.663 Y81.477 E0.01643
G1 X99.169 Y81.651 E0.01643
G1 X98.665 Y81.738 E0.01604
G1 X98.391 Y81.749 E0.00861
G1 X98.117 Y81.738 E0.00861
G1 X97.613 Y81.651 E0.01604
G1 X97.119 Y81.477 E0.01643
G1 X96.661 Y81.221 E0.01643
G1 X96.253 Y80.892 E0.01643
G1 X95.907 Y80.499 E0.01643
G1 X95.649 Y80.079 E0.01544
G1 X95.438 Y79.569 E0.01730
G1 X95.327 Y79.054 E0.01653
G1 X95.305 Y78.531 E0.01643
G1 X95.371 Y78.011 E0.01643
G1 X95.525 Y77.510 E0.01643
G1 X95.760 Y77.042 E0.01643
G1 X96.072 Y76.621 E0.01643
G1 X96.450 Y76.258 E0.01643
G1 X96.884 Y75.965 E0.01643
G1 X97.362 Y75.749 E0.01643
G1 X97.869 Y75.617 E0.01643
G1 X98.360 Y75.575 E0.01544
G1 X98.910 Y75.616 E0.01730
G1 X99.420 Y75.749 E0.01653
G1 X99.898 Y75.965 E0.01643
G1 X100.332 Y76.258 E0.01643
G1 X100.710 Y76.621 E0.01643
G1 X101.022 Y77.042 E0.01643
G1 X101.257 Y77.510 E0.01643
G1 X101.411 Y78.011 E0.01643
G1 X101.477 Y78.531 E0.01643
G1 X101.455 Y79.054 E0.01643
G1 X101.345 Y79.566 E0.01643
G1 X101.172 Y79.997 E0.01455
G1 X100.822 Y79.856 F10800.000
;TYPE:External perimeter
G1 F1200.000
G1 X100.570 Y80.274 E0.01528
G1 X100.267 Y80.619 E0.01442
G1 X99.909 Y80.908 E0.01442
G1 X99.508 Y81.132 E0.01442
G1 X99.074 Y81.285 E0.01442
G1 X98.625 Y81.362 E0.01428
G1 X98.391 Y81.372 E0.00735
G1 X98.157 Y81.362 E0.00735
G1 X97.708 Y81.285 E0.01428
G1 X97.274 Y81.132 E0.01442
G1 X96.873 Y80.908 E0.01442
G1 X96.515 Y80.619 E0.01442
G1 X96.212 Y80.274 E0.01442
G1 X95.986 Y79.907 E0.01349
G1 X95.799 Y79.457 E0.01529
G1 X95.702 Y79.006 E0.01445
G1 X95.683 Y78.547 E0.01442
G1 X95.741 Y78.091 E0.01442
G1 X95.876 Y77.651 E0.01442
G1 X96.083 Y77.241 E0.01442
G1 X96.356 Y76.871 E0.01442
G1 X96.688 Y76.553 E0.01442
G1 X97.069 Y76.295 E0.01442
G1 X97.488 Y76.106 E0.01442
G1 X97.933 Y75.990 E0.01442
G1 X98.362 Y75.954 E0.01349
G1 X98.848 Y75.990 E0.01529
G1 X99.294 Y76.106 E0.01445
G1 X99.713 Y76.295 E0.01442
G1 X100.094 Y76.553 E0.01442
G1 X100.426 Y76.871 E0.01442
G1 X100.699 Y77.241 E0.01442
G1 X100.906 Y77.651 E0.01442
G1 X101.041 Y78.091 E0.01442
G1 X101.099 Y78.547 E0.01442
G1 X101.080 Y79.006 E0.01442
G1 X100.983 Y79.456 E0.01442
G1 X100.844 Y79.801 E0.01166
G1 X101.044 Y80.189 F10800.000
;WIPE_START
G1 F8640.000
G1 X100.570 Y80.274 E-0.12621
G1 X100.267 Y80.619 E-0.10616
G1 X99.909 Y80.908 E-0.10617
G1 X99.508 Y81.132 E-0.10616
G1 X99.074 Y81.285 E-0.10616
G1 X98.625 Y81.362 E-0.10513
G1 X98.391 Y81.372 E-0.05415
G1 X98.175 Y81.363 E-0.04985
;WIPE_END
G1 E-0.04000 F2100.000
G1 Z0.600 F10800.000
G1 X87.269 Y83.869
G1 Z0.200
G1 E0.80000 F2100.000
;TYPE:Perimeter
G1 F1200.000
G1 X87.335 Y84.389 E0.01643
G1 X87.313 Y84.912 E0.01643
G1 X87.203 Y85.424 E0.01643
G1 X87.007 Y85.910 E0.01643
G1 X86.733 Y86.357 E0.01643
G1 X86.386 Y86.750 E0.01643
G1 X85.979 Y87.079 E0.01643
G1 X85.521 Y87.335 E0.01643
G1 X85.027 Y87.509 E0.01643
G1 X84.523 Y87.596 E0.01604
G1 X83.975 Y87.596 E0.01720
G1 X83.470 Y87.509 E0.01604
G1 X82.976 Y87.335 E0.01643
G1 X82.519 Y87.079 E0.01643
G1 X82.111 Y86.750 E0.01643
G1 X81.765 Y86.357 E0.01643
G1 X81.490 Y85.910 E0.01643
G1 X81.295 Y85.424 E0.01643
G1 X81.185 Y84.912 E0.01643
G1 X81.162 Y84.389 E0.01643
G1 X81.229 Y83.869 E0.01643
G1 X81.382 Y83.368 E0.01643
G1 X81.618 Y82.900 E0.01643
G1 X81.930 Y82.479 E0.01643
G1 X82.308 Y82.116 E0.01643
G1 X82.742 Y81.823 E0.01643
G1 X83.220 Y81.607 E0.01643
G1 X83.727 Y81.475 E0.01643
G1 X84.218 Y81.433 E0.01544
G1 X84.768 Y81.474 E0.01730
G1 X85.278 Y81.607 E0.01653
G1 X85.755 Y81.823 E0.01643
G1 X86.190 Y82.116 E0.01643
G1 X86.568 Y82.479 E0.01643
G1 X86.879 Y82.900 E0.01643
G1 X87.115 Y83.368 E0.01643
G1 X87.251 Y83.812 E0.01455
G1 X86.891 Y83.922 F10800.000
;TYPE:External perimeter
G1 F1200.000
G1 X86.957 Y84.405 E0.01528
G1 X86.938 Y84.864 E0.01442
G1 X86.841 Y85.313 E0.01442
G1 X86.669 Y85.740 E0.01442
G1 X86.428 Y86.132 E0.01442
G1 X86.125 Y86.477 E0.01442
G1 X85.767 Y86.766 E0.01442
G1 X85.365 Y86.990 E0.01442
G1 X84.932 Y87.143 E0.01442
G1 X84.483 Y87.220 E0.01428
G1 X84.015 Y87.220 E0.01469
G1 X83.566 Y87.143 E0.01428
G1 X83.132 Y86.990 E0.01442
G1 X82.731 Y86.766 E0.01442
G1 X82.373 Y86.477 E0.01442
G1 X82.069 Y86.132 E0.01442
G1 X81.828 Y85.740 E0.01442
G1 X81.657 Y85.313 E0.01442
G1 X81.560 Y84.864 E0.01442
G1 X81.541 Y84.405 E0.01442
G1 X81.599 Y83.949 E0.01442
G1 X81.734 Y83.509 E0.01442
G1 X81.941 Y83.098 E0.01442
G1 X82.214 Y82.729 E0.01442
G1 X82.546 Y82.411 E0.01442
G1 X82.927 Y82.153 E0.01442
