; generated by PrusaSlicer 2.3.3+win64 on 2022-02-08 at 11:10:17 UTC

; 

; external perimeters extrusion width = 0.45mm
; perimeters extrusion width = 0.45mm
; infill extrusion width = 0.45mm
; solid infill extrusion width = 0.45mm
; top infill extrusion width = 0.40mm
; first layer extrusion width = 0.42mm

; external perimeters extrusion width = 0.45mm
; perimeters extrusion width = 0.45mm
; infill extrusion width = 0.45mm
; solid infill extrusion width = 0.45mm
; top infill extrusion width = 0.40mm
; first layer extrusion width = 0.42mm

; external perimeters extrusion width = 0.60mm
; perimeters extrusion width = 0.50mm
; infill extrusion width = 0.50mm
; solid infill extrusion width = 0.50mm
; top infill extrusion width = 0.45mm
; first layer extrusion width = 0.42mm

; external perimeters extrusion width = 0.60mm
; perimeters extrusion width = 0.50mm
; infill extrusion width = 0.50mm
; solid infill extrusion width = 0.50mm
; top infill extrusion width = 0.45mm
; first layer extrusion width = 0.42mm

; external perimeters extrusion width = 0.60mm
; perimeters extrusion width = 0.50mm
; infill extrusion width = 0.50mm
; solid infill extrusion width = 0.50mm
; top infill extrusion width = 0.45mm
; first layer extrusion width = 0.42mm

; external perimeters extrusion width = 0.60mm
; perimeters extrusion width = 0.50mm
; infill extrusion width = 0.50mm
; solid infill extrusion width = 0.50mm
; top infill extrusion width = 0.45mm
; first layer extrusion width = 0.42mm

M73 P0 R239
M73 Q0 S241
M201 X1000 Y1000 Z200 E8000 ; sets maximum accelerations, mm/sec^2
M203 X200 Y200 Z12 E120 ; sets maximum feedrates, mm/sec
M204 P1250 R1250 T1250 ; sets acceleration (P, T) and retract acceleration (R), mm/sec^2
M205 X8.00 Y8.00 Z0.40 E4.50 ; sets the jerk limits, mm/sec
M205 S0 T0 ; sets the minimum extruding and travel feed rate, mm/sec
M107
;TYPE:Custom
M862.3 P "MK3SMMU2S" ; printer model check
M862.1 P0.4 ; nozzle diameter check
M115 U3.10.0 ; tell printer latest fw version
G90 ; use absolute coordinates
M83 ; extruder relative mode
M104 S215 ; set extruder temp
M140 S60 ; set bed temp
M190 S60 ; wait for bed temp
M109 S215 ; wait for extruder temp
G28 W ; home all without mesh bed level
G80 ; mesh bed leveling

; Send the filament type to the MMU2.0 unit.
; E stands for extruder number, F stands for filament type (0: default; 1:flex; 2: PVA)
M403 E0 F0
M403 E1 F0
M403 E2 F0
M403 E3 F0
M403 E4 F0


;go outside print area
G1 Y-3.0 F1000.0
M73 Q0 S240
G1 Z0.4 F1000.0
; select extruder
T1
; initial load
G1 X55.0 E29.0 F1073.0
G1 X5.0 E29.0 F1800.0
G1 X55.0 E8.0 F2000.0
G1 Z0.3 F1000.0
G92 E0.0
G1 X240.0 E25.0 F2200.0
G1 Y-2.0 F1000.0
G1 X55.0 E25 F1400.0
G1 Z0.20 F1000.0
G1 X5.0 E4.0 F1000.0
G92 E0.0


M221 S95
G92 E0.0

; Don't change E values below. Excessive value can damage the printer.
M907 E430 ; set extruder motor current
G21 ; set units to millimeters
G90 ; use absolute coordinates
M83 ; use relative distances for extrusion
T1
M900 K0.05 ; Filament gcode LA 1.5
M900 K30 ; Filament gcode LA 1.0
G1 Z0.200 F10800.000
;LAYER_CHANGE
;Z:0.2
;HEIGHT:0.2
;BEFORE_LAYER_CHANGE
G92 E0.0
;0.2


G1 E-0.80000 F2100.000
G1 Z0.600 F10800.000
G1 Z0.200
;AFTER_LAYER_CHANGE
;0.2
G1 E-1.20000 F2100.000
G1 Z0.600 F10800.000
G1 X246.433 Y11.908
G1 Z0.200
G1 E2.00000 F2100.000
;HEIGHT:0.200000
;TYPE:Wipe tower
;WIDTH:0.500000
;-------------------------------------
; CP WIPE TOWER FIRST LAYER BRIM START
G1  X246.433 Y129.248  E6.6895 F2400
G1  X243.890 Y129.705   F7000
G1  Y11.451  E4.9438 F2100
G1  X142.976  E4.2189
G1  Y129.705  E4.9438
G1  X243.890  E4.2189
G1  X244.347 Y130.162   F7000
G1  Y10.994  E4.9821 F2100
M73 P0 R238
G1  X142.519  E4.2571
G1  Y130.162  E4.9821
G1  X244.347  E4.2571
G1  X244.804 Y130.619   F7000
G1  Y10.537  E5.0203 F2100
M73 Q0 S239
G1  X142.062  E4.2954
G1  Y130.619  E5.0203
G1  X244.804  E4.2954
G1  X245.261 Y131.076   F7000
G1  Y10.080  E5.0585 F2100
G1  X141.605  E4.3336
G1  Y131.076  E5.0585
G1  X245.261  E4.3336
; CP WIPE TOWER FIRST LAYER BRIM END
;-----------------------------------

; printing object body352 id:0 copy 0
;WIPE_START
G1 F8640.000
G1 X244.804 Y130.619 E-0.14926
G1 X242.159 Y130.619 E-0.61074
;WIPE_END
G1 E-0.04000 F2100.000
G1 Z0.600 F10800.000
G1 X98.283 Y41.425
G1 Z0.200
G1 E0.80000 F2100.000
M204 S1000
;TYPE:Perimeter
;WIDTH:0.42
;HEIGHT:0.2
G1 F1200.000
G1 X97.933 Y41.898 E0.01844
G1 X97.508 Y42.305 E0.01844
G1 X97.021 Y42.635 E0.01844
G1 X96.485 Y42.877 E0.01844
G1 X95.916 Y43.025 E0.01844
G1 X95.330 Y43.075 E0.01844
G1 X94.744 Y43.025 E0.01844
G1 X94.175 Y42.877 E0.01844
G1 X93.639 Y42.635 E0.01844
G1 X93.151 Y42.305 E0.01844
G1 X92.739 Y41.910 E0.01791
G1 X92.378 Y41.428 E0.01888
G1 X92.112 Y40.900 E0.01852
G1 X91.940 Y40.338 E0.01844
G1 X91.865 Y39.754 E0.01844
G1 X91.890 Y39.167 E0.01844
G1 X92.014 Y38.592 E0.01844
G1 X92.233 Y38.046 E0.01844
G1 X92.533 Y37.560 E0.01792
G1 X92.928 Y37.105 E0.01888
G1 X93.388 Y36.734 E0.01852
G1 X93.901 Y36.447 E0.01844
G1 X94.456 Y36.251 E0.01844
G1 X95.015 Y36.156 E0.01780
G1 X95.321 Y36.143 E0.00960
G1 X95.643 Y36.155 E0.01009
G1 X96.203 Y36.251 E0.01784
G1 X96.758 Y36.447 E0.01844
G1 X97.272 Y36.734 E0.01844
G1 X97.729 Y37.104 E0.01844
G1 X98.118 Y37.545 E0.01844
G1 X98.426 Y38.046 E0.01844
G1 X98.639 Y38.576 E0.01791
G1 X98.769 Y39.164 E0.01888
G1 X98.794 Y39.754 E0.01852
G1 X98.720 Y40.338 E0.01844
G1 X98.547 Y40.900 E0.01844
G1 X98.310 Y41.372 E0.01656
G1 X97.973 Y41.202 F10800.000
G1 F1200.000
G1 X97.649 Y41.648 E0.01729
G1 X97.270 Y42.011 E0.01643
G1 X96.836 Y42.304 E0.01643
G1 X96.359 Y42.520 E0.01643
G1 X95.852 Y42.652 E0.01643
G1 X95.330 Y42.696 E0.01643
G1 X94.808 Y42.652 E0.01643
G1 X94.301 Y42.520 E0.01643
G1 X93.823 Y42.304 E0.01643
G1 X93.389 Y42.011 E0.01643
G1 X93.022 Y41.659 E0.01593
G1 X92.700 Y41.228 E0.01687
G1 X92.463 Y40.759 E0.01648
G1 X92.310 Y40.258 E0.01643
G1 X92.243 Y39.738 E0.01643
G1 X92.266 Y39.215 E0.01643
G1 X92.376 Y38.703 E0.01643
G1 X92.571 Y38.216 E0.01643
G1 X92.838 Y37.784 E0.01593
G1 X93.191 Y37.378 E0.01687
G1 X93.600 Y37.048 E0.01648
G1 X94.057 Y36.792 E0.01643
G1 X94.551 Y36.618 E0.01643
G1 X95.055 Y36.531 E0.01604
G1 X95.322 Y36.520 E0.00836
G1 X95.603 Y36.531 E0.00883
G1 X96.108 Y36.618 E0.01606
G1 X96.602 Y36.792 E0.01643
G1 X97.060 Y37.048 E0.01643
G1 X97.467 Y37.377 E0.01643
G1 X97.813 Y37.770 E0.01643
G1 X98.088 Y38.216 E0.01643
G1 X98.278 Y38.688 E0.01593
G1 X98.394 Y39.213 E0.01687
G1 X98.416 Y39.738 E0.01648
G1 X98.350 Y40.258 E0.01643
G1 X98.196 Y40.759 E0.01643
G1 X98.000 Y41.148 E0.01367
G1 X97.663 Y40.979 F10800.000
;TYPE:External perimeter
G1 F1200.000
G1 X97.365 Y41.398 E0.01614
G1 X97.033 Y41.716 E0.01442
G1 X96.652 Y41.974 E0.01442
G1 X96.233 Y42.163 E0.01442
G1 X95.788 Y42.279 E0.01442
G1 X95.330 Y42.318 E0.01442
G1 X94.872 Y42.279 E0.01442
G1 X94.427 Y42.163 E0.01442
G1 X94.008 Y41.974 E0.01442
G1 X93.627 Y41.716 E0.01442
G1 X93.305 Y41.408 E0.01395
G1 X93.022 Y41.029 E0.01485
G1 X92.814 Y40.618 E0.01443
G1 X92.680 Y40.178 E0.01442
G1 X92.621 Y39.722 E0.01442
G1 X92.641 Y39.263 E0.01442
G1 X92.738 Y38.813 E0.01442
G1 X92.909 Y38.387 E0.01442
G1 X93.143 Y38.008 E0.01395
G1 X93.454 Y37.651 E0.01485
G1 X93.812 Y37.361 E0.01443
G1 X94.213 Y37.137 E0.01442
G1 X94.647 Y36.984 E0.01442
G1 X95.095 Y36.907 E0.01428
G1 X95.564 Y36.907 E0.01468
G1 X96.013 Y36.984 E0.01428
G1 X96.446 Y37.137 E0.01442
G1 X96.848 Y37.361 E0.01442
G1 X97.205 Y37.650 E0.01442
G1 X97.509 Y37.995 E0.01442
G1 X97.750 Y38.387 E0.01442
G1 X97.916 Y38.800 E0.01395
G1 X98.019 Y39.262 E0.01485
G1 X98.038 Y39.722 E0.01443
G1 X97.980 Y40.178 E0.01442
G1 X97.845 Y40.618 E0.01442
G1 X97.690 Y40.925 E0.01078
G1 X97.858 Y41.328 F10800.000
;WIPE_START
G1 F8640.000
G1 X97.365 Y41.398 E-0.13260
G1 X97.033 Y41.716 E-0.10616
G1 X96.652 Y41.974 E-0.10616
G1 X96.233 Y42.163 E-0.10616
G1 X95.788 Y42.279 E-0.10616
G1 X95.330 Y42.318 E-0.10616
G1 X94.913 Y42.282 E-0.09658
;WIPE_END
G1 E-0.04000 F2100.000
G1 Z0.600 F10800.000
G1 X106.865 Y42.047
G1 Z0.200
G1 E0.80000 F2100.000
;TYPE:Perimeter
G1 F1200.000
G1 X106.929 Y41.549 E0.01577
G1 X107.076 Y41.067 E0.01578
G1 X107.303 Y40.618 E0.01578
G1 X107.602 Y40.213 E0.01578
G1 X107.965 Y39.865 E0.01578
G1 X108.382 Y39.583 E0.01578
G1 X108.841 Y39.376 E0.01578
G1 X109.328 Y39.249 E0.01578
G1 X109.802 Y39.209 E0.01491
G1 X110.326 Y39.248 E0.01648
G1 X110.818 Y39.376 E0.01594
G1 X111.277 Y39.583 E0.01578
G1 X111.694 Y39.865 E0.01578
G1 X112.057 Y40.213 E0.01578
G1 X112.357 Y40.618 E0.01578
G1 X112.571 Y41.043 E0.01491
G1 X112.730 Y41.544 E0.01648
G1 X112.795 Y42.048 E0.01594
G1 X112.773 Y42.551 E0.01578
G1 X112.667 Y43.043 E0.01578
G1 X112.480 Y43.510 E0.01578
G1 X112.216 Y43.939 E0.01578
G1 X111.883 Y44.316 E0.01578
G1 X111.492 Y44.633 E0.01578
G1 X111.052 Y44.878 E0.01578
G1 X110.578 Y45.046 E0.01578
G1 X110.081 Y45.131 E0.01578
G1 X109.578 Y45.131 E0.01578
G1 X109.082 Y45.046 E0.01578
G1 X108.607 Y44.878 E0.01578
G1 X108.168 Y44.633 E0.01578
G1 X107.776 Y44.316 E0.01578
G1 X107.444 Y43.939 E0.01578
G1 X107.180 Y43.510 E0.01578
G1 X106.991 Y43.040 E0.01589
G1 X106.885 Y42.530 E0.01633
G1 X106.867 Y42.107 E0.01326
G1 X107.244 Y42.092 F10800.000
G1 F1200.000
G1 X107.299 Y41.628 E0.01463
G1 X107.427 Y41.209 E0.01377
G1 X107.625 Y40.816 E0.01377
G1 X107.886 Y40.463 E0.01377
G1 X108.203 Y40.159 E0.01377
G1 X108.567 Y39.914 E0.01377
G1 X108.967 Y39.733 E0.01377
G1 X109.392 Y39.622 E0.01377
G1 X109.804 Y39.587 E0.01296
G1 X110.264 Y39.621 E0.01447
G1 X110.692 Y39.733 E0.01387
G1 X111.092 Y39.914 E0.01377
G1 X111.456 Y40.159 E0.01377
G1 X111.773 Y40.463 E0.01377
G1 X112.035 Y40.816 E0.01377
G1 X112.221 Y41.186 E0.01296
G1 X112.360 Y41.625 E0.01447
G1 X112.417 Y42.064 E0.01387
G1 X112.398 Y42.503 E0.01377
G1 X112.305 Y42.932 E0.01377
G1 X112.142 Y43.340 E0.01377
G1 X111.911 Y43.714 E0.01377
G1 X111.621 Y44.043 E0.01377
G1 X111.280 Y44.319 E0.01377
G1 X110.896 Y44.533 E0.01377
G1 X110.482 Y44.680 E0.01377
G1 X110.049 Y44.754 E0.01377
G1 X109.610 Y44.754 E0.01377
G1 X109.177 Y44.680 E0.01377
G1 X108.763 Y44.533 E0.01377
G1 X108.380 Y44.319 E0.01377
G1 X108.038 Y44.043 E0.01377
G1 X107.748 Y43.714 E0.01377
G1 X107.518 Y43.340 E0.01377
G1 X107.353 Y42.930 E0.01383
G1 X107.260 Y42.483 E0.01431
G1 X107.247 Y42.152 E0.01041
G1 X107.623 Y42.136 F10800.000
;TYPE:External perimeter
G1 F1200.000
G1 X107.669 Y41.708 E0.01349
G1 X107.778 Y41.350 E0.01176
G1 X107.947 Y41.015 E0.01176
G1 X108.170 Y40.713 E0.01176
G1 X108.441 Y40.454 E0.01176
G1 X108.752 Y40.244 E0.01176
G1 X109.093 Y40.089 E0.01176
G1 X109.456 Y39.995 E0.01176
G1 X109.806 Y39.965 E0.01101
G1 X110.202 Y39.995 E0.01246
G1 X110.566 Y40.089 E0.01179
G1 X110.908 Y40.244 E0.01176
G1 X111.219 Y40.454 E0.01176
G1 X111.489 Y40.713 E0.01176
G1 X111.712 Y41.015 E0.01176
G1 X111.870 Y41.328 E0.01101
G1 X111.991 Y41.707 E0.01246
G1 X112.038 Y42.080 E0.01179
G1 X112.023 Y42.455 E0.01176
G1 X111.944 Y42.821 E0.01176
G1 X111.804 Y43.169 E0.01176
G1 X111.607 Y43.489 E0.01176
G1 X111.359 Y43.770 E0.01176
G1 X111.068 Y44.006 E0.01176
G1 X110.740 Y44.188 E0.01176
G1 X110.387 Y44.313 E0.01176
G1 X110.017 Y44.377 E0.01176
G1 X109.642 Y44.377 E0.01176
G1 X109.273 Y44.313 E0.01176
G1 X108.919 Y44.188 E0.01176
G1 X108.592 Y44.006 E0.01176
G1 X108.300 Y43.770 E0.01176
G1 X108.052 Y43.489 E0.01176
G1 X107.856 Y43.169 E0.01176
G1 X107.716 Y42.821 E0.01178
G1 X107.636 Y42.437 E0.01229
G1 X107.626 Y42.196 E0.00756
G1 X107.282 Y41.927 F10800.000
;WIPE_START
G1 F8640.000
G1 X107.669 Y41.708 E-0.11310
G1 X107.778 Y41.350 E-0.08658
G1 X107.947 Y41.015 E-0.08658
G1 X108.170 Y40.713 E-0.08658
G1 X108.441 Y40.454 E-0.08658
G1 X108.752 Y40.244 E-0.08658
G1 X109.093 Y40.089 E-0.08658
G1 X109.456 Y39.995 E-0.08658
G1 X109.632 Y39.980 E-0.04083
;WIPE_END
G1 E-0.04000 F2100.000
G1 Z0.600 F10800.000
G1 X118.180 Y37.943
G1 Z0.200
G1 E0.80000 F2100.000
;TYPE:Perimeter
G1 F1200.000
G1 X117.992 Y37.476 E0.01578
G1 X117.886 Y36.984 E0.01578
G1 X117.865 Y36.481 E0.01578
G1 X117.929 Y35.982 E0.01578
G1 X118.076 Y35.501 E0.01578
G1 X118.303 Y35.051 E0.01578
G1 X118.602 Y34.647 E0.01578
G1 X118.965 Y34.298 E0.01578
G1 X119.382 Y34.016 E0.01578
G1 X119.841 Y33.809 E0.01578
G1 X120.328 Y33.682 E0.01578
G1 X120.802 Y33.642 E0.01491
G1 X121.326 Y33.681 E0.01648
G1 X121.818 Y33.809 E0.01594
G1 X122.277 Y34.016 E0.01578
G1 X122.694 Y34.298 E0.01578
G1 X123.057 Y34.647 E0.01578
G1 X123.357 Y35.051 E0.01578
G1 X123.571 Y35.476 E0.01491
G1 X123.730 Y35.977 E0.01648
G1 X123.795 Y36.481 E0.01594
G1 X123.773 Y36.984 E0.01578
G1 X123.667 Y37.476 E0.01578
G1 X123.480 Y37.943 E0.01578
G1 X123.216 Y38.372 E0.01578
G1 X122.883 Y38.750 E0.01578
G1 X122.492 Y39.066 E0.01578
G1 X122.052 Y39.311 E0.01578
G1 X121.578 Y39.479 E0.01578
G1 X121.081 Y39.564 E0.01578
G1 X120.578 Y39.564 E0.01578
G1 X120.082 Y39.479 E0.01578
G1 X119.607 Y39.311 E0.01578
G1 X119.168 Y39.066 E0.01578
G1 X118.798 Y38.767 E0.01491
G1 X118.446 Y38.376 E0.01648
G1 X118.211 Y37.994 E0.01406
G1 X118.532 Y37.797 F10800.000
G1 F1200.000
G1 X118.354 Y37.365 E0.01463
G1 X118.261 Y36.936 E0.01377
G1 X118.243 Y36.497 E0.01377
G1 X118.299 Y36.062 E0.01377
G1 X118.427 Y35.642 E0.01377
G1 X118.625 Y35.250 E0.01377
G1 X118.886 Y34.897 E0.01377
G1 X119.203 Y34.593 E0.01377
G1 X119.567 Y34.347 E0.01377
G1 X119.967 Y34.166 E0.01377
G1 X120.392 Y34.055 E0.01377
G1 X120.804 Y34.020 E0.01296
G1 X121.264 Y34.054 E0.01447
G1 X121.692 Y34.166 E0.01387
G1 X122.092 Y34.347 E0.01377
G1 X122.456 Y34.593 E0.01377
G1 X122.773 Y34.897 E0.01377
G1 X123.035 Y35.250 E0.01377
G1 X123.221 Y35.619 E0.01296
G1 X123.360 Y36.059 E0.01447
G1 X123.417 Y36.497 E0.01387
G1 X123.398 Y36.936 E0.01377
G1 X123.305 Y37.365 E0.01377
G1 X123.142 Y37.773 E0.01377
G1 X122.911 Y38.147 E0.01377
G1 X122.621 Y38.477 E0.01377
G1 X122.280 Y38.752 E0.01377
G1 X121.896 Y38.967 E0.01377
G1 X121.482 Y39.113 E0.01377
G1 X121.049 Y39.187 E0.01377
G1 X120.610 Y39.187 E0.01377
G1 X120.177 Y39.113 E0.01377
G1 X119.763 Y38.967 E0.01377
G1 X119.380 Y38.752 E0.01377
G1 X119.058 Y38.493 E0.01296
G1 X118.750 Y38.149 E0.01447
G1 X118.564 Y37.848 E0.01111
G1 X119.053 Y37.923 F10800.000
;TYPE:External perimeter
G1 F1200.000
G1 X118.856 Y37.603 E0.01179
G1 X118.716 Y37.255 E0.01176
G1 X118.637 Y36.888 E0.01176
G1 X118.621 Y36.513 E0.01176
G1 X118.669 Y36.141 E0.01176
G1 X118.778 Y35.783 E0.01176
G1 X118.947 Y35.448 E0.01176
G1 X119.170 Y35.147 E0.01176
G1 X119.441 Y34.887 E0.01176
G1 X119.752 Y34.677 E0.01176
G1 X120.093 Y34.523 E0.01176
G1 X120.456 Y34.428 E0.01176
G1 X120.806 Y34.398 E0.01101
G1 X121.202 Y34.428 E0.01246
G1 X121.566 Y34.523 E0.01179
G1 X121.908 Y34.677 E0.01176
G1 X122.219 Y34.887 E0.01176
G1 X122.489 Y35.147 E0.01176
G1 X122.712 Y35.448 E0.01176
G1 X122.870 Y35.762 E0.01101
G1 X122.991 Y36.140 E0.01246
G1 X123.038 Y36.513 E0.01179
G1 X123.023 Y36.888 E0.01176
G1 X122.944 Y37.255 E0.01176
G1 X122.804 Y37.603 E0.01176
G1 X122.607 Y37.922 E0.01176
G1 X122.359 Y38.203 E0.01176
G1 X122.068 Y38.439 E0.01176
G1 X121.740 Y38.622 E0.01176
G1 X121.387 Y38.747 E0.01176
G1 X121.017 Y38.810 E0.01176
G1 X120.642 Y38.810 E0.01176
G1 X120.273 Y38.747 E0.01176
G1 X119.919 Y38.622 E0.01176
G1 X119.592 Y38.439 E0.01176
G1 X119.318 Y38.218 E0.01101
G1 X119.093 Y37.967 E0.01058
G1 X118.679 Y37.965 F10800.000
;WIPE_START
G1 F8640.000
G1 X118.856 Y37.603 E-0.10050
G1 X118.716 Y37.255 E-0.08658
G1 X118.637 Y36.888 E-0.08658
G1 X118.621 Y36.513 E-0.08658
G1 X118.669 Y36.141 E-0.08658
G1 X118.778 Y35.783 E-0.08658
G1 X118.947 Y35.448 E-0.08658
G1 X119.170 Y35.147 E-0.08658
G1 X119.337 Y34.987 E-0.05343
;WIPE_END
G1 E-0.04000 F2100.000
G1 Z0.600 F10800.000
G1 X92.689 Y26.758
G1 Z0.200
G1 E0.80000 F2100.000
;TYPE:Perimeter
G1 F1200.000
G1 X92.425 Y27.283 E0.01844
G1 X92.075 Y27.756 E0.01844
G1 X91.650 Y28.163 E0.01844
G1 X91.163 Y28.492 E0.01844
G1 X90.642 Y28.728 E0.01792
G1 X90.061 Y28.883 E0.01888
G1 X89.472 Y28.933 E0.01852
G1 X88.886 Y28.883 E0.01844
G1 X88.317 Y28.735 E0.01844
G1 X87.781 Y28.492 E0.01844
G1 X87.293 Y28.163 E0.01844
G1 X86.881 Y27.768 E0.01791
G1 X86.520 Y27.286 E0.01888
