; generated by PrusaSlicer 2.3.3+win64 on 2022-01-28 at 09:14:29 UTC

; 

; external perimeters extrusion width = 0.45mm
; perimeters extrusion width = 0.45mm
; infill extrusion width = 0.45mm
; solid infill extrusion width = 0.45mm
; top infill extrusion width = 0.40mm
; first layer extrusion width = 0.42mm

; external perimeters extrusion width = 0.45mm
; perimeters extrusion width = 0.45mm
; infill extrusion width = 0.45mm
; solid infill extrusion width = 0.45mm
; top infill extrusion width = 0.40mm
; first layer extrusion width = 0.42mm

; external perimeters extrusion width = 0.45mm
; perimeters extrusion width = 0.45mm
; infill extrusion width = 0.45mm
; solid infill extrusion width = 0.45mm
; top infill extrusion width = 0.40mm
; first layer extrusion width = 0.42mm

; external perimeters extrusion width = 0.45mm
; perimeters extrusion width = 0.45mm
; infill extrusion width = 0.45mm
; solid infill extrusion width = 0.45mm
; top infill extrusion width = 0.40mm
; first layer extrusion width = 0.42mm

; external perimeters extrusion width = 0.45mm
; perimeters extrusion width = 0.45mm
; infill extrusion width = 0.45mm
; solid infill extrusion width = 0.45mm
; top infill extrusion width = 0.40mm
; first layer extrusion width = 0.42mm

; external perimeters extrusion width = 0.45mm
; perimeters extrusion width = 0.45mm
; infill extrusion width = 0.45mm
; solid infill extrusion width = 0.45mm
; top infill extrusion width = 0.40mm
; first layer extrusion width = 0.42mm

M73 P0 R113
M73 Q0 S114
M201 X1000 Y1000 Z200 E8000 ; sets maximum accelerations, mm/sec^2
M203 X200 Y200 Z12 E120 ; sets maximum feedrates, mm/sec
M204 P1250 R1250 T1250 ; sets acceleration (P, T) and retract acceleration (R), mm/sec^2
M205 X8.00 Y8.00 Z0.40 E4.50 ; sets the jerk limits, mm/sec
M205 S0 T0 ; sets the minimum extruding and travel feed rate, mm/sec
M107
;TYPE:Custom
M862.3 P "MK3SMMU2S" ; printer model check
M862.1 P0.4 ; nozzle diameter check
M115 U3.10.0 ; tell printer latest fw version
G90 ; use absolute coordinates
M83 ; extruder relative mode
M104 S215 ; set extruder temp
M140 S60 ; set bed temp
M190 S60 ; wait for bed temp
M109 S215 ; wait for extruder temp
G28 W ; home all without mesh bed level
G80 ; mesh bed leveling

; Send the filament type to the MMU2.0 unit.
; E stands for extruder number, F stands for filament type (0: default; 1:flex; 2: PVA)
M403 E0 F0
M403 E1 F0
M403 E2 F0
M403 E3 F0
M403 E4 F0


;go outside print area
G1 Y-3.0 F1000.0
G1 Z0.4 F1000.0
; select extruder
T1
; initial load
G1 X55.0 E29.0 F1073.0
G1 X5.0 E29.0 F1800.0
G1 X55.0 E8.0 F2000.0
G1 Z0.3 F1000.0
G92 E0.0
G1 X240.0 E25.0 F2200.0
G1 Y-2.0 F1000.0
G1 X55.0 E25 F1400.0
M73 P0 R112
G1 Z0.20 F1000.0
G1 X5.0 E4.0 F1000.0
G92 E0.0


M221 S95
G92 E0.0

; Don't change E values below. Excessive value can damage the printer.

M907 E538 ; set extruder motor current
G21 ; set units to millimeters
G90 ; use absolute coordinates
M83 ; use relative distances for extrusion
T1
M900 K0.05 ; Filament gcode LA 1.5
M900 K30 ; Filament gcode LA 1.0
G1 Z0.200 F10800.000
;LAYER_CHANGE
;Z:0.2
;HEIGHT:0.2
;BEFORE_LAYER_CHANGE
G92 E0.0
;0.2


G1 E-0.80000 F2100.000
G1 Z0.600 F10800.000
G1 Z0.200
;AFTER_LAYER_CHANGE
;0.2
G1 E-1.20000 F2100.000
G1 Z0.600 F10800.000
G1 X233.150 Y29.188
G1 Z0.200
G1 E2.00000 F2100.000
;HEIGHT:0.200000
;TYPE:Wipe tower
;WIDTH:0.500000
;-------------------------------------
; CP WIPE TOWER FIRST LAYER BRIM START
G1  X233.150 Y150.528  E6.9175 F2400
G1  X230.607 Y150.985   F7000
M73 Q0 S113
G1  Y28.731  E5.1111 F2100
G1  X169.693  E2.5466
G1  Y150.985  E5.1111
G1  X230.607  E2.5466
G1  X231.064 Y151.442   F7000
G1  Y28.274  E5.1493 F2100
G1  X169.236  E2.5849
G1  Y151.442  E5.1493
G1  X231.064  E2.5849
G1  X231.521 Y151.899   F7000
G1  Y27.817  E5.1875 F2100
M73 Q1 S113
G1  X168.779  E2.6231
M73 P1 R112
G1  Y151.899  E5.1875
G1  X231.521  E2.6231
G1  X231.978 Y152.356   F7000
G1  Y27.360  E5.2257 F2100
G1  X168.322  E2.6613
G1  Y152.356  E5.2257
G1  X231.978  E2.6613
; CP WIPE TOWER FIRST LAYER BRIM END
;-----------------------------------

;WIPE_START
G1 F8640.000
G1 X231.521 Y151.899 E-0.14926
G1 X228.876 Y151.899 E-0.61074
;WIPE_END
G1 E-0.04000 F2100.000
G1 Z0.600 F10800.000
G1 X233.425 Y25.902
G1 Z0.200
G1 E0.80000 F2100.000
M204 S1000
;TYPE:Skirt
;WIDTH:0.42
;HEIGHT:0.2
G1 F1200.000
G1 X233.941 Y26.667 E0.02896
G1 X234.127 Y27.568 E0.02884
G1 X234.126 Y152.151 E3.90620
M73 P1 R111
G1 X234.038 Y152.771 E0.01965
G1 X233.792 Y153.343 E0.01953
G1 X233.406 Y153.832 E0.01953
G1 X232.903 Y154.206 E0.01965
G1 X232.350 Y154.428 E0.01870
G1 X231.758 Y154.505 E0.01870
G1 X168.114 Y154.465 E1.99551
G1 X62.392 Y125.248 E3.43909
G1 X61.252 Y124.780 E0.03864
G1 X60.153 Y124.083 E0.04081
G1 X59.402 Y123.432 E0.03117
G1 X58.758 Y122.689 E0.03081
M73 Q1 S112
G1 X58.085 Y121.638 E0.03914
G1 X57.556 Y120.334 E0.04413
G1 X57.330 Y119.354 E0.03152
G1 X57.242 Y118.257 E0.03451
G1 X57.245 Y73.082 E1.41644
G1 X57.335 Y72.043 E0.03272
G1 X57.600 Y70.943 E0.03546
G1 X58.033 Y69.890 E0.03570
G1 X58.550 Y69.028 E0.03152
G1 X59.504 Y67.902 E0.04626
G1 X60.288 Y67.243 E0.03212
G1 X61.195 Y66.682 E0.03344
G1 X167.989 Y25.278 E3.59129
G1 X168.547 Y25.211 E0.01763
G1 X231.753 Y25.211 E1.98178
G1 X232.655 Y25.391 E0.02884
G1 X233.375 Y25.868 E0.02707
; printing object body352 id:0 copy 0
;WIPE_START
G1 F8640.000
G1 X233.941 Y26.667 E-0.22611
G1 X234.127 Y27.568 E-0.21237
G1 X234.127 Y28.961 E-0.32152
;WIPE_END
G1 E-0.04000 F2100.000
G1 Z0.600 F10800.000
G1 X109.749 Y93.662
G1 Z0.200
G1 E0.80000 F2100.000
;TYPE:Perimeter
G1 F1200.000
G1 X109.975 Y94.112 E0.01577
G1 X110.138 Y94.629 E0.01701
G1 X110.205 Y95.151 E0.01650
G1 X110.182 Y95.674 E0.01643
G1 X110.072 Y96.187 E0.01643
G1 X109.884 Y96.653 E0.01577
G1 X109.603 Y97.117 E0.01701
G1 X109.256 Y97.512 E0.01650
G1 X108.848 Y97.842 E0.01643
G1 X108.391 Y98.097 E0.01643
G1 X107.897 Y98.272 E0.01643
G1 X107.393 Y98.358 E0.01604
G1 X106.844 Y98.358 E0.01720
G1 X106.340 Y98.272 E0.01604
G1 X105.846 Y98.097 E0.01643
G1 X105.388 Y97.842 E0.01643
G1 X104.981 Y97.512 E0.01643
G1 X104.635 Y97.119 E0.01643
G1 X104.360 Y96.673 E0.01643
G1 X104.164 Y96.187 E0.01643
G1 X104.058 Y95.695 E0.01577
G1 X104.032 Y95.153 E0.01701
G1 X104.098 Y94.631 E0.01650
G1 X104.252 Y94.130 E0.01643
G1 X104.488 Y93.662 E0.01643
G1 X104.799 Y93.241 E0.01643
G1 X105.178 Y92.879 E0.01643
G1 X105.612 Y92.585 E0.01643
G1 X106.089 Y92.369 E0.01643
G1 X106.596 Y92.237 E0.01643
G1 X107.097 Y92.195 E0.01577
G1 X107.638 Y92.237 E0.01701
G1 X108.147 Y92.369 E0.01650
G1 X108.625 Y92.585 E0.01643
G1 X109.059 Y92.879 E0.01643
G1 X109.437 Y93.241 E0.01643
G1 X109.713 Y93.614 E0.01455
G1 X109.410 Y93.838 F10800.000
;TYPE:External perimeter
G1 F1200.000
G1 X109.625 Y94.254 E0.01466
G1 X109.768 Y94.710 E0.01500
G1 X109.827 Y95.167 E0.01444
G1 X109.807 Y95.626 E0.01442
G1 X109.710 Y96.076 E0.01442
G1 X109.546 Y96.484 E0.01380
G1 X109.298 Y96.893 E0.01500
G1 X108.994 Y97.239 E0.01444
G1 X108.636 Y97.528 E0.01442
G1 X108.235 Y97.752 E0.01442
G1 X107.801 Y97.905 E0.01442
G1 X107.353 Y97.982 E0.01428
G1 X106.884 Y97.982 E0.01469
G1 X106.435 Y97.905 E0.01428
G1 X106.002 Y97.752 E0.01442
G1 X105.600 Y97.528 E0.01442
G1 X105.243 Y97.239 E0.01442
G1 X104.939 Y96.894 E0.01442
G1 X104.698 Y96.502 E0.01442
G1 X104.526 Y96.076 E0.01442
G1 X104.434 Y95.646 E0.01380
G1 X104.410 Y95.168 E0.01500
G1 X104.468 Y94.711 E0.01444
G1 X104.603 Y94.271 E0.01442
G1 X104.810 Y93.861 E0.01442
G1 X105.083 Y93.491 E0.01442
G1 X105.415 Y93.173 E0.01442
G1 X105.796 Y92.916 E0.01442
G1 X106.215 Y92.726 E0.01442
G1 X106.660 Y92.610 E0.01442
G1 X107.099 Y92.573 E0.01380
G1 X107.576 Y92.610 E0.01500
G1 X108.021 Y92.726 E0.01444
G1 X108.440 Y92.916 E0.01442
G1 X108.821 Y93.173 E0.01442
G1 X109.153 Y93.491 E0.01442
G1 X109.374 Y93.790 E0.01166
G1 X109.810 Y93.824 F10800.000
;WIPE_START
G1 F8640.000
G1 X109.625 Y94.254 E-0.12169
G1 X109.768 Y94.710 E-0.11046
G1 X109.827 Y95.167 E-0.10634
G1 X109.807 Y95.626 E-0.10616
G1 X109.710 Y96.076 E-0.10616
G1 X109.546 Y96.484 E-0.10164
G1 X109.305 Y96.883 E-0.10755
;WIPE_END
G1 E-0.04000 F2100.000
G1 Z0.600 F10800.000
G1 X119.031 Y90.128
G1 Z0.200
G1 E0.80000 F2100.000
;TYPE:Perimeter
G1 F1200.000
G1 X135.205 Y90.128 E0.50713
G1 X135.205 Y100.869 E0.33677
G1 X119.031 Y100.869 E0.50713
G1 X119.031 Y90.188 E0.33489
G1 X119.408 Y90.505 F10800.000
;TYPE:External perimeter
G1 F1200.000
G1 X134.828 Y90.505 E0.48348
G1 X134.828 Y100.492 E0.31313
G1 X119.408 Y100.492 E0.48348
G1 X119.408 Y90.565 E0.31125
G1 X119.278 Y90.127 F10800.000
;WIPE_START
G1 F8640.000
G1 X122.700 Y90.553 E-0.76000
;WIPE_END
G1 E-0.04000 F2100.000
G1 Z0.600 F10800.000
G1 X104.019 Y82.531
G1 Z0.200
G1 E0.80000 F2100.000
;TYPE:Perimeter
G1 F1200.000
G1 X103.744 Y82.977 E0.01643
G1 X103.398 Y83.370 E0.01643
G1 X102.990 Y83.699 E0.01643
G1 X102.533 Y83.955 E0.01643
G1 X102.039 Y84.129 E0.01643
G1 X101.535 Y84.216 E0.01604
G1 X101.260 Y84.228 E0.00861
G1 X100.986 Y84.216 E0.00861
G1 X100.482 Y84.129 E0.01604
G1 X99.988 Y83.955 E0.01643
G1 X99.531 Y83.699 E0.01643
G1 X99.123 Y83.370 E0.01643
G1 X98.777 Y82.977 E0.01643
G1 X98.502 Y82.531 E0.01643
G1 X98.307 Y82.045 E0.01643
G1 X98.196 Y81.532 E0.01643
G1 X98.174 Y81.009 E0.01643
G1 X98.241 Y80.489 E0.01643
G1 X98.394 Y79.988 E0.01643
G1 X98.630 Y79.520 E0.01643
G1 X98.941 Y79.099 E0.01643
G1 X99.320 Y78.736 E0.01643
G1 X99.754 Y78.443 E0.01643
G1 X100.231 Y78.227 E0.01643
G1 X100.738 Y78.095 E0.01643
G1 X101.239 Y78.053 E0.01577
G1 X101.780 Y78.095 E0.01701
G1 X102.290 Y78.227 E0.01650
G1 X102.767 Y78.443 E0.01643
G1 X103.201 Y78.736 E0.01643
G1 X103.579 Y79.099 E0.01643
G1 X103.891 Y79.520 E0.01643
G1 X104.117 Y79.969 E0.01577
G1 X104.280 Y80.487 E0.01701
G1 X104.347 Y81.009 E0.01650
G1 X104.325 Y81.532 E0.01643
G1 X104.214 Y82.045 E0.01643
G1 X104.041 Y82.475 E0.01455
G1 X103.691 Y82.334 F10800.000
;TYPE:External perimeter
G1 F1200.000
G1 X103.440 Y82.752 E0.01528
G1 X103.136 Y83.097 E0.01442
G1 X102.778 Y83.386 E0.01442
G1 X102.377 Y83.610 E0.01442
G1 X101.943 Y83.763 E0.01442
G1 X101.495 Y83.840 E0.01428
G1 X101.260 Y83.850 E0.00735
G1 X101.026 Y83.840 E0.00735
G1 X100.577 Y83.763 E0.01428
G1 X100.144 Y83.610 E0.01442
G1 X99.742 Y83.386 E0.01442
G1 X99.385 Y83.097 E0.01442
G1 X99.081 Y82.752 E0.01442
G1 X98.840 Y82.360 E0.01442
G1 X98.668 Y81.934 E0.01442
G1 X98.572 Y81.484 E0.01442
G1 X98.552 Y81.025 E0.01442
G1 X98.610 Y80.569 E0.01442
G1 X98.745 Y80.129 E0.01442
G1 X98.952 Y79.719 E0.01442
G1 X99.225 Y79.349 E0.01442
G1 X99.557 Y79.031 E0.01442
G1 X99.938 Y78.773 E0.01442
G1 X100.357 Y78.584 E0.01442
G1 X100.802 Y78.468 E0.01442
G1 X101.241 Y78.431 E0.01380
G1 X101.718 Y78.468 E0.01500
G1 X102.163 Y78.584 E0.01444
G1 X102.582 Y78.773 E0.01442
G1 X102.963 Y79.031 E0.01442
G1 X103.295 Y79.349 E0.01442
G1 X103.569 Y79.719 E0.01442
G1 X103.767 Y80.112 E0.01380
G1 X103.910 Y80.568 E0.01500
G1 X103.969 Y81.025 E0.01444
G1 X103.949 Y81.484 E0.01442
G1 X103.852 Y81.934 E0.01442
G1 X103.714 Y82.279 E0.01166
G1 X103.913 Y82.667 F10800.000
;WIPE_START
G1 F8640.000
G1 X103.440 Y82.752 E-0.12622
G1 X103.136 Y83.097 E-0.10616
G1 X102.778 Y83.386 E-0.10616
G1 X102.377 Y83.610 E-0.10616
G1 X101.943 Y83.763 E-0.10616
G1 X101.495 Y83.840 E-0.10513
G1 X101.260 Y83.850 E-0.05415
G1 X101.045 Y83.841 E-0.04985
;WIPE_END
G1 E-0.04000 F2100.000
G1 Z0.600 F10800.000
G1 X89.877 Y76.673
G1 Z0.200
G1 E0.80000 F2100.000
;TYPE:Perimeter
G1 F1200.000
G1 X89.602 Y77.119 E0.01643
G1 X89.256 Y77.512 E0.01643
G1 X88.848 Y77.842 E0.01643
G1 X88.391 Y78.097 E0.01643
G1 X87.897 Y78.272 E0.01643
G1 X87.393 Y78.358 E0.01604
G1 X87.118 Y78.370 E0.00861
G1 X86.844 Y78.358 E0.00861
G1 X86.340 Y78.272 E0.01604
G1 X85.846 Y78.097 E0.01643
G1 X85.388 Y77.842 E0.01643
G1 X84.981 Y77.512 E0.01643
G1 X84.635 Y77.119 E0.01643
G1 X84.371 Y76.691 E0.01577
G1 X84.165 Y76.189 E0.01701
G1 X84.054 Y75.674 E0.01650
G1 X84.032 Y75.151 E0.01643
G1 X84.098 Y74.631 E0.01643
G1 X84.252 Y74.130 E0.01643
G1 X84.488 Y73.662 E0.01643
G1 X84.799 Y73.241 E0.01643
G1 X85.178 Y72.879 E0.01643
G1 X85.612 Y72.585 E0.01643
G1 X86.089 Y72.369 E0.01643
G1 X86.596 Y72.237 E0.01643
G1 X87.097 Y72.195 E0.01577
G1 X87.638 Y72.237 E0.01701
G1 X88.147 Y72.369 E0.01650
G1 X88.625 Y72.585 E0.01643
G1 X89.059 Y72.879 E0.01643
G1 X89.437 Y73.241 E0.01643
G1 X89.749 Y73.662 E0.01643
G1 X89.985 Y74.130 E0.01643
G1 X90.138 Y74.631 E0.01643
G1 X90.205 Y75.151 E0.01643
G1 X90.182 Y75.674 E0.01643
G1 X90.072 Y76.187 E0.01643
G1 X89.899 Y76.617 E0.01455
G1 X89.549 Y76.477 F10800.000
;TYPE:External perimeter
G1 F1200.000
G1 X89.298 Y76.894 E0.01528
G1 X88.994 Y77.239 E0.01442
G1 X88.636 Y77.528 E0.01442
G1 X88.235 Y77.752 E0.01442
G1 X87.801 Y77.905 E0.01442
G1 X87.353 Y77.982 E0.01428
G1 X87.118 Y77.992 E0.00735
G1 X86.884 Y77.982 E0.00735
G1 X86.435 Y77.905 E0.01428
G1 X86.002 Y77.752 E0.01442
G1 X85.600 Y77.528 E0.01442
G1 X85.243 Y77.239 E0.01442
G1 X84.939 Y76.894 E0.01442
G1 X84.708 Y76.519 E0.01380
G1 X84.526 Y76.077 E0.01500
G1 X84.429 Y75.626 E0.01444
G1 X84.410 Y75.167 E0.01442
G1 X84.468 Y74.711 E0.01442
G1 X84.603 Y74.271 E0.01442
G1 X84.810 Y73.861 E0.01442
G1 X85.083 Y73.491 E0.01442
G1 X85.415 Y73.173 E0.01442
G1 X85.796 Y72.916 E0.01442
G1 X86.215 Y72.726 E0.01442
G1 X86.660 Y72.610 E0.01442
G1 X87.099 Y72.573 E0.01380
G1 X87.576 Y72.610 E0.01500
G1 X88.021 Y72.726 E0.01444
G1 X88.440 Y72.916 E0.01442
G1 X88.821 Y73.173 E0.01442
G1 X89.153 Y73.491 E0.01442
G1 X89.427 Y73.861 E0.01442
G1 X89.634 Y74.271 E0.01442
G1 X89.768 Y74.711 E0.01442
G1 X89.827 Y75.167 E0.01442
G1 X89.807 Y75.626 E0.01442
G1 X89.710 Y76.076 E0.01442
G1 X89.572 Y76.421 E0.01166
G1 X89.771 Y76.809 F10800.000
;WIPE_START
G1 F8640.000
G1 X89.298 Y76.894 E-0.12621
G1 X88.994 Y77.239 E-0.10616
G1 X88.636 Y77.528 E-0.10617
G1 X88.235 Y77.752 E-0.10616
G1 X87.801 Y77.905 E-0.10616
G1 X87.353 Y77.982 E-0.10513
G1 X87.118 Y77.992 E-0.05415
G1 X86.903 Y77.983 E-0.04985
;WIPE_END
G1 E-0.04000 F2100.000
G1 Z0.600 F10800.000
G1 X75.996 Y80.487
G1 Z0.200
G1 E0.80000 F2100.000
;TYPE:Perimeter
G1 F1200.000
G1 X76.063 Y81.009 E0.01650
G1 X76.040 Y81.532 E0.01643
G1 X75.930 Y82.045 E0.01643
G1 X75.742 Y82.511 E0.01577
G1 X75.461 Y82.975 E0.01701
G1 X75.114 Y83.370 E0.01650
G1 X74.706 Y83.699 E0.01643
G1 X74.249 Y83.955 E0.01643
G1 X73.755 Y84.129 E0.01643
G1 X73.250 Y84.216 E0.01604
G1 X72.702 Y84.216 E0.01720
G1 X72.198 Y84.129 E0.01604
G1 X71.704 Y83.955 E0.01643
G1 X71.246 Y83.699 E0.01643
G1 X70.839 Y83.370 E0.01643
G1 X70.492 Y82.977 E0.01643
G1 X70.218 Y82.531 E0.01643
G1 X70.022 Y82.045 E0.01643
G1 X69.912 Y81.532 E0.01643
G1 X69.890 Y81.009 E0.01643
G1 X69.956 Y80.489 E0.01643
G1 X70.110 Y79.988 E0.01643
G1 X70.346 Y79.520 E0.01643
G1 X70.657 Y79.099 E0.01643
G1 X71.035 Y78.736 E0.01643
G1 X71.470 Y78.443 E0.01643
G1 X71.947 Y78.227 E0.01643
G1 X72.454 Y78.095 E0.01643
G1 X72.955 Y78.053 E0.01577
G1 X73.496 Y78.095 E0.01701
G1 X74.005 Y78.227 E0.01650
G1 X74.483 Y78.443 E0.01643
G1 X74.917 Y78.736 E0.01643
G1 X75.295 Y79.099 E0.01643
G1 X75.607 Y79.520 E0.01643
G1 X75.833 Y79.969 E0.01577
G1 X75.978 Y80.430 E0.01513
G1 X75.618 Y80.543 F10800.000
;TYPE:External perimeter
G1 F1200.000
G1 X75.684 Y81.025 E0.01526
G1 X75.665 Y81.484 E0.01442
G1 X75.568 Y81.934 E0.01442
G1 X75.404 Y82.342 E0.01380
G1 X75.156 Y82.751 E0.01500
G1 X74.852 Y83.097 E0.01444
G1 X74.494 Y83.386 E0.01442
G1 X74.093 Y83.610 E0.01442
G1 X73.659 Y83.763 E0.01442
G1 X73.210 Y83.840 E0.01428
G1 X72.742 Y83.840 E0.01469
G1 X72.293 Y83.763 E0.01428
G1 X71.860 Y83.610 E0.01442
G1 X71.458 Y83.386 E0.01442
G1 X71.100 Y83.097 E0.01442
G1 X70.797 Y82.752 E0.01442
G1 X70.556 Y82.360 E0.01442
G1 X70.384 Y81.934 E0.01442
G1 X70.287 Y81.484 E0.01442
G1 X70.268 Y81.025 E0.01442
G1 X70.326 Y80.569 E0.01442
G1 X70.461 Y80.129 E0.01442
G1 X70.668 Y79.719 E0.01442
G1 X70.941 Y79.349 E0.01442
G1 X71.273 Y79.031 E0.01442
G1 X71.654 Y78.773 E0.01442
G1 X72.073 Y78.584 E0.01442
G1 X72.518 Y78.468 E0.01442
G1 X72.957 Y78.431 E0.01380
G1 X73.434 Y78.468 E0.01500
G1 X73.879 Y78.584 E0.01444
