; generated by PrusaSlicer 2.3.3+win64 on 2022-01-18 at 12:57:02 UTC

; 

; external perimeters extrusion width = 0.45mm
; perimeters extrusion width = 0.45mm
; infill extrusion width = 0.45mm
; solid infill extrusion width = 0.45mm
; top infill extrusion width = 0.40mm
; first layer extrusion width = 0.42mm

; external perimeters extrusion width = 0.45mm
; perimeters extrusion width = 0.45mm
; infill extrusion width = 0.45mm
; solid infill extrusion width = 0.45mm
; top infill extrusion width = 0.40mm
; first layer extrusion width = 0.42mm

; external perimeters extrusion width = 0.45mm
; perimeters extrusion width = 0.45mm
; infill extrusion width = 0.45mm
; solid infill extrusion width = 0.45mm
; top infill extrusion width = 0.40mm
; first layer extrusion width = 0.42mm

; external perimeters extrusion width = 0.45mm
; perimeters extrusion width = 0.45mm
; infill extrusion width = 0.45mm
; solid infill extrusion width = 0.45mm
; top infill extrusion width = 0.40mm
; first layer extrusion width = 0.42mm

; external perimeters extrusion width = 0.45mm
; perimeters extrusion width = 0.45mm
; infill extrusion width = 0.45mm
; solid infill extrusion width = 0.45mm
; top infill extrusion width = 0.40mm
; first layer extrusion width = 0.42mm

; external perimeters extrusion width = 0.45mm
; perimeters extrusion width = 0.45mm
; infill extrusion width = 0.45mm
; solid infill extrusion width = 0.45mm
; top infill extrusion width = 0.40mm
; first layer extrusion width = 0.42mm

M73 P0 R120
M73 Q0 S121
M201 X1000 Y1000 Z200 E8000 ; sets maximum accelerations, mm/sec^2
M203 X200 Y200 Z12 E120 ; sets maximum feedrates, mm/sec
M204 P1250 R1250 T1250 ; sets acceleration (P, T) and retract acceleration (R), mm/sec^2
M205 X8.00 Y8.00 Z0.40 E4.50 ; sets the jerk limits, mm/sec
M205 S0 T0 ; sets the minimum extruding and travel feed rate, mm/sec
M107
;TYPE:Custom
M862.3 P "MK3SMMU2S" ; printer model check
M862.1 P0.4 ; nozzle diameter check
M115 U3.10.0 ; tell printer latest fw version
G90 ; use absolute coordinates
M83 ; extruder relative mode
M104 S215 ; set extruder temp
M140 S60 ; set bed temp
M190 S60 ; wait for bed temp
M109 S215 ; wait for extruder temp
G28 W ; home all without mesh bed level
G80 ; mesh bed leveling

; Send the filament type to the MMU2.0 unit.
; E stands for extruder number, F stands for filament type (0: default; 1:flex; 2: PVA)
M403 E0 F0
M403 E1 F0
M403 E2 F0
M403 E3 F0
M403 E4 F0


;go outside print area
G1 Y-3.0 F1000.0
M73 P0 R119
M73 Q0 S120
G1 Z0.4 F1000.0
; select extruder
T1
; initial load
G1 X55.0 E29.0 F1073.0
G1 X5.0 E29.0 F1800.0
G1 X55.0 E8.0 F2000.0
G1 Z0.3 F1000.0
G92 E0.0
G1 X240.0 E25.0 F2200.0
G1 Y-2.0 F1000.0
G1 X55.0 E25 F1400.0
G1 Z0.20 F1000.0
G1 X5.0 E4.0 F1000.0
G92 E0.0


M221 S95
G92 E0.0

; Don't change E values below. Excessive value can damage the printer.

M907 E538 ; set extruder motor current
G21 ; set units to millimeters
G90 ; use absolute coordinates
M83 ; use relative distances for extrusion
T1
M900 K0.05 ; Filament gcode LA 1.5
M900 K30 ; Filament gcode LA 1.0
G1 Z0.200 F10800.000
;LAYER_CHANGE
;Z:0.2
;HEIGHT:0.2
;BEFORE_LAYER_CHANGE
G92 E0.0
;0.2


G1 E-0.80000 F2100.000
G1 Z0.600 F10800.000
G1 Z0.200
;AFTER_LAYER_CHANGE
;0.2
G1 E-1.20000 F2100.000
G1 Z0.600 F10800.000
G1 X237.473 Y41.042
G1 Z0.200
G1 E2.00000 F2100.000
;HEIGHT:0.200000
;TYPE:Wipe tower
;WIDTH:0.500000
;-------------------------------------
; CP WIPE TOWER FIRST LAYER BRIM START
G1  X237.473 Y143.102  E5.8184 F2400
G1  X234.930 Y143.559   F7000
G1  Y40.585  E4.3050 F2100
G1  X174.016  E2.5466
G1  Y143.559  E4.3050
G1  X234.930  E2.5466
G1  X235.387 Y144.016   F7000
G1  Y40.128  E4.3433 F2100
G1  X173.559  E2.5849
G1  Y144.016  E4.3433
G1  X235.387  E2.5849
G1  X235.844 Y144.473   F7000
G1  Y39.671  E4.3815 F2100
M73 Q0 S119
G1  X173.102  E2.6231
M73 P0 R118
G1  Y144.473  E4.3815
G1  X235.844  E2.6231
G1  X236.301 Y144.930   F7000
G1  Y39.214  E4.4197 F2100
M73 P1 R118
M73 Q1 S119
G1  X172.645  E2.6613
G1  Y144.930  E4.4197
G1  X236.301  E2.6613
; CP WIPE TOWER FIRST LAYER BRIM END
;-----------------------------------

;WIPE_START
G1 F8640.000
G1 X235.845 Y144.474 E-0.14926
G1 X233.200 Y144.474 E-0.61074
;WIPE_END
G1 E-0.04000 F2100.000
G1 Z0.600 F10800.000
G1 X236.979 Y37.245
G1 Z0.200
G1 E0.80000 F2100.000
M204 S1000
;TYPE:Skirt
;WIDTH:0.42
;HEIGHT:0.2
G1 F1200.000
G1 X237.748 Y37.756 E0.02896
G1 X238.263 Y38.518 E0.02884
G1 X238.450 Y39.419 E0.02884
G1 X238.450 Y144.729 E3.30193
G1 X238.358 Y145.356 E0.01989
G1 X238.104 Y145.937 E0.01989
G1 X237.705 Y146.430 E0.01989
G1 X237.190 Y146.800 E0.01989
G1 X236.725 Y146.988 E0.01572
G1 X125.213 Y178.797 E3.63584
G1 X123.445 Y179.167 E0.05664
G1 X121.673 Y179.351 E0.05586
G1 X119.884 Y179.352 E0.05610
G1 X118.218 Y179.183 E0.05251
G1 X116.236 Y178.770 E0.06348
G1 X114.634 Y178.255 E0.05275
G1 X113.012 Y177.546 E0.05550
G1 X111.347 Y176.594 E0.06015
G1 X109.984 Y175.621 E0.05252
G1 X108.687 Y174.484 E0.05407
G1 X65.018 Y130.595 E1.94124
G1 X64.281 Y129.730 E0.03563
G1 X63.693 Y128.777 E0.03510
G1 X63.184 Y127.506 E0.04294
G1 X62.958 Y126.530 E0.03140
G1 X62.870 Y125.433 E0.03451
G1 X62.874 Y80.254 E1.41656
G1 X62.964 Y79.218 E0.03260
G1 X63.230 Y78.115 E0.03558
G1 X63.664 Y77.062 E0.03570
G1 X64.183 Y76.197 E0.03164
G1 X65.139 Y75.073 E0.04626
G1 X65.923 Y74.414 E0.03212
G1 X66.861 Y73.837 E0.03451
G1 X67.922 Y73.390 E0.03610
G1 X172.368 Y37.120 E3.46669
G1 X172.871 Y37.066 E0.01585
G1 X236.077 Y37.066 E1.98178
G1 X236.920 Y37.233 E0.02696
; printing object body458 id:1 copy 0
;WIPE_START
G1 F8640.000
G1 X237.748 Y37.756 E-0.22611
G1 X238.263 Y38.518 E-0.21237
G1 X238.450 Y39.419 E-0.21237
G1 X238.450 Y39.891 E-0.10914
;WIPE_END
G1 E-0.04000 F2100.000
G1 Z0.600 F10800.000
G1 X126.358 Y156.410
G1 Z0.200
G1 E0.80000 F2100.000
;TYPE:Perimeter
G1 F1200.000
G1 X126.358 Y167.585 E0.35036
G1 X115.183 Y167.585 E0.35036
G1 X115.183 Y156.410 E0.35036
G1 X126.298 Y156.410 E0.34848
G1 X125.981 Y156.787 F10800.000
;TYPE:External perimeter
G1 F1200.000
G1 X125.981 Y167.207 E0.32671
G1 X115.561 Y167.207 E0.32671
G1 X115.561 Y156.787 E0.32671
G1 X125.921 Y156.787 E0.32483
G1 X126.367 Y156.684 F10800.000
;WIPE_START
G1 F8640.000
G1 X125.940 Y160.079 E-0.76000
;WIPE_END
G1 E-0.04000 F2100.000
G1 Z0.600 F10800.000
G1 X131.200 Y152.344
G1 Z0.200
G1 E0.80000 F2100.000
;TYPE:Perimeter
G1 F1200.000
G1 X132.138 Y153.467 E0.04588
G1 X132.955 Y154.681 E0.04588
G1 X133.642 Y155.973 E0.04588
G1 X134.194 Y157.328 E0.04588
G1 X134.602 Y158.733 E0.04588
G1 X134.865 Y160.173 E0.04588
G1 X134.978 Y161.632 E0.04588
G1 X134.940 Y163.094 E0.04588
G1 X134.752 Y164.545 E0.04588
G1 X134.416 Y165.969 E0.04588
G1 X133.935 Y167.351 E0.04588
G1 X133.315 Y168.677 E0.04588
G1 X132.562 Y169.931 E0.04588
G1 X131.684 Y171.101 E0.04588
G1 X130.690 Y172.175 E0.04588
G1 X129.591 Y173.141 E0.04588
G1 X128.398 Y173.989 E0.04588
G1 X127.125 Y174.710 E0.04588
G1 X125.784 Y175.296 E0.04588
G1 X124.390 Y175.741 E0.04588
G1 X122.958 Y176.040 E0.04588
G1 X121.492 Y176.192 E0.04620
G1 X120.771 Y176.210 E0.02263
G1 X120.049 Y176.192 E0.02263
G1 X118.583 Y176.040 E0.04620
G1 X117.151 Y175.741 E0.04588
G1 X115.757 Y175.296 E0.04588
G1 X114.417 Y174.710 E0.04588
G1 X113.143 Y173.989 E0.04588
G1 X111.951 Y173.141 E0.04588
G1 X110.851 Y172.175 E0.04588
G1 X109.858 Y171.101 E0.04588
G1 X108.979 Y169.931 E0.04588
G1 X108.226 Y168.677 E0.04588
G1 X107.606 Y167.351 E0.04588
G1 X107.125 Y165.969 E0.04588
G1 X106.789 Y164.545 E0.04588
G1 X106.601 Y163.094 E0.04588
G1 X106.563 Y161.632 E0.04588
G1 X106.676 Y160.173 E0.04588
G1 X106.939 Y158.733 E0.04588
G1 X107.348 Y157.328 E0.04588
G1 X107.899 Y155.973 E0.04588
G1 X108.587 Y154.681 E0.04588
G1 X109.403 Y153.467 E0.04588
G1 X110.341 Y152.344 E0.04588
G1 X111.389 Y151.322 E0.04588
G1 X112.536 Y150.414 E0.04588
G1 X113.771 Y149.629 E0.04588
G1 X115.079 Y148.975 E0.04588
G1 X116.449 Y148.459 E0.04588
G1 X117.864 Y148.086 E0.04588
G1 X119.309 Y147.861 E0.04588
G1 X120.771 Y147.786 E0.04588
G1 X122.232 Y147.861 E0.04588
G1 X123.678 Y148.086 E0.04588
G1 X125.093 Y148.459 E0.04588
G1 X126.462 Y148.975 E0.04588
G1 X127.771 Y149.629 E0.04588
G1 X129.005 Y150.414 E0.04588
G1 X130.153 Y151.322 E0.04588
G1 X131.157 Y152.302 E0.04400
G1 X131.421 Y152.032 F10800.000
;TYPE:External perimeter
G1 F1200.000
G1 X132.440 Y153.241 E0.04958
G1 X133.278 Y154.487 E0.04710
G1 X133.984 Y155.813 E0.04710
G1 X134.550 Y157.204 E0.04710
G1 X134.970 Y158.646 E0.04710
G1 X135.239 Y160.124 E0.04710
G1 X135.355 Y161.622 E0.04710
G1 X135.317 Y163.123 E0.04710
G1 X135.124 Y164.613 E0.04710
G1 X134.779 Y166.075 E0.04710
G1 X134.285 Y167.494 E0.04710
G1 X133.648 Y168.854 E0.04710
G1 X132.875 Y170.142 E0.04710
G1 X131.974 Y171.343 E0.04710
G1 X130.953 Y172.446 E0.04710
G1 X129.825 Y173.437 E0.04710
G1 X128.601 Y174.308 E0.04710
G1 X127.293 Y175.048 E0.04710
G1 X125.917 Y175.649 E0.04710
G1 X124.486 Y176.106 E0.04710
G1 X123.016 Y176.413 E0.04710
G1 X121.516 Y176.568 E0.04726
G1 X120.771 Y176.587 E0.02339
M73 Q1 S118
G1 X120.025 Y176.568 E0.02339
G1 X118.525 Y176.413 E0.04726
G1 X117.055 Y176.106 E0.04710
G1 X115.624 Y175.649 E0.04710
G1 X114.248 Y175.048 E0.04710
G1 X112.940 Y174.308 E0.04710
G1 X111.716 Y173.437 E0.04710
G1 X110.588 Y172.446 E0.04710
G1 X109.568 Y171.343 E0.04710
G1 X108.666 Y170.142 E0.04710
G1 X107.893 Y168.854 E0.04710
G1 X107.256 Y167.494 E0.04710
G1 X106.763 Y166.075 E0.04710
G1 X106.417 Y164.613 E0.04710
G1 X106.225 Y163.123 E0.04710
G1 X106.186 Y161.622 E0.04710
G1 X106.302 Y160.124 E0.04710
G1 X106.571 Y158.646 E0.04710
G1 X106.991 Y157.204 E0.04710
G1 X107.557 Y155.813 E0.04710
G1 X108.263 Y154.487 E0.04710
G1 X109.101 Y153.241 E0.04710
G1 X110.064 Y152.087 E0.04710
G1 X111.139 Y151.039 E0.04710
G1 X112.317 Y150.107 E0.04710
G1 X113.585 Y149.300 E0.04710
G1 X114.928 Y148.629 E0.04710
G1 X116.334 Y148.099 E0.04710
G1 X117.786 Y147.716 E0.04710
G1 X119.270 Y147.485 E0.04710
G1 X120.771 Y147.408 E0.04710
G1 X122.271 Y147.485 E0.04710
G1 X123.755 Y147.716 E0.04710
G1 X125.207 Y148.099 E0.04710
G1 X126.613 Y148.629 E0.04710
G1 X127.957 Y149.300 E0.04710
G1 X129.224 Y150.107 E0.04710
G1 X130.402 Y151.039 E0.04710
G1 X131.378 Y151.990 E0.04273
G1 X131.304 Y152.414 F10800.000
;WIPE_START
G1 F8640.000
G1 X132.440 Y153.241 E-0.37888
G1 X133.278 Y154.487 E-0.34684
G1 X133.348 Y154.618 E-0.03428
;WIPE_END
G1 E-0.04000 F2100.000
G1 Z0.600 F10800.000
G1 X129.039 Y150.585
G1 Z0.200
G1 E0.80000 F2100.000
;TYPE:Solid infill
;WIDTH:0.424315
G1 F1200.000
G1 X131.008 Y152.554 E0.08829
G1 X131.911 Y153.637 E0.04474
M73 P1 R117
G1 X132.651 Y154.737 E0.04204
G1 X128.067 Y150.153 E0.20560
G1 X127.631 Y149.876 E0.01638
G1 X126.870 Y149.495 E0.02699
G1 X133.293 Y155.918 E0.28805
G1 X133.386 Y156.093 E0.00630
G1 X133.699 Y156.864 E0.02640
G1 X125.901 Y149.066 E0.34974
G1 X125.036 Y148.739 E0.02934
G1 X134.012 Y157.716 E0.40258
G1 X134.233 Y158.477 E0.02513
G1 X124.299 Y148.542 E0.44555
G1 X123.573 Y148.356 E0.02375
G1 X134.396 Y159.179 E0.48539
G1 X134.516 Y159.838 E0.02126
G1 X122.935 Y148.257 E0.51944
G1 X122.296 Y148.157 E0.02051
G1 X134.604 Y160.465 E0.55201
G1 X134.649 Y161.050 E0.01860
G1 X121.717 Y148.118 E0.58000
G1 X121.148 Y148.088 E0.01806
G1 X134.694 Y161.634 E0.60754
G1 X134.681 Y162.161 E0.01669
G1 X120.598 Y148.078 E0.63161
G1 X120.085 Y148.104 E0.01629
G1 X134.668 Y162.687 E0.65401
G1 X134.641 Y163.200 E0.01629
G1 X119.572 Y148.131 E0.67583
G1 X119.338 Y148.143 E0.00743
G1 X119.085 Y148.182 E0.00815
G1 X134.579 Y163.677 E0.69493
G1 X134.518 Y164.155 E0.01527
G1 X118.618 Y148.255 E0.71309
G1 X118.151 Y148.328 E0.01498
G1 X125.951 Y156.128 E0.34983
G1 X125.412 Y156.128 E0.01711
G1 X117.705 Y148.420 E0.34566
G1 X117.278 Y148.533 E0.01400
G1 X124.872 Y156.128 E0.34062
G1 X124.333 Y156.128 E0.01711
G1 X116.851 Y148.645 E0.33558
G1 X116.433 Y148.767 E0.01380
G1 X123.794 Y156.128 E0.33012
G1 X123.254 Y156.128 E0.01711
G1 X116.041 Y148.914 E0.32350
G1 X115.650 Y149.062 E0.01328
G1 X122.715 Y156.128 E0.31688
G1 X122.176 Y156.128 E0.01711
G1 X115.258 Y149.210 E0.31026
G1 X114.893 Y149.384 E0.01283
G1 X121.636 Y156.128 E0.30243
M73 Q2 S118
G1 X121.097 Y156.128 E0.01711
G1 X114.533 Y149.564 E0.29437
M73 P2 R117
G1 X114.174 Y149.744 E0.01275
G1 X120.557 Y156.128 E0.28631
G1 X120.018 Y156.128 E0.01711
G1 X113.822 Y149.931 E0.27789
G1 X113.492 Y150.141 E0.01239
G1 X119.479 Y156.128 E0.26848
G1 X118.939 Y156.128 E0.01711
G1 X113.163 Y150.351 E0.25908
G1 X112.833 Y150.561 E0.01239
G1 X118.400 Y156.128 E0.24967
G1 X117.861 Y156.128 E0.01711
G1 X112.520 Y150.787 E0.23950
G1 X112.219 Y151.026 E0.01218
G1 X117.321 Y156.128 E0.22882
G1 X116.782 Y156.128 E0.01711
G1 X111.918 Y151.264 E0.21813
G1 X111.617 Y151.502 E0.01218
G1 X116.242 Y156.128 E0.20744
G1 X115.703 Y156.128 E0.01711
G1 X111.340 Y151.765 E0.19568
G1 X111.067 Y152.031 E0.01210
G1 X115.164 Y156.128 E0.18374
G1 X114.901 Y156.128 E0.00834
G1 X114.901 Y156.404 E0.00876
G1 X110.794 Y152.297 E0.18419
G1 X110.523 Y152.566 E0.01210
G1 X114.901 Y156.943 E0.19631
G1 X114.901 Y157.483 E0.01711
G1 X110.278 Y152.860 E0.20732
G1 X110.033 Y153.154 E0.01214
G1 X114.901 Y158.022 E0.21832
G1 X114.901 Y158.561 E0.01711
G1 X109.788 Y153.448 E0.22932
G1 X109.552 Y153.752 E0.01219
G1 X114.901 Y159.101 E0.23987
G1 X114.901 Y159.640 E0.01711
G1 X109.335 Y154.075 E0.24960
G1 X109.118 Y154.397 E0.01232
G1 X114.901 Y160.180 E0.25933
G1 X114.901 Y160.719 E0.01711
G1 X108.902 Y154.720 E0.26906
G1 X108.704 Y155.062 E0.01252
G1 X114.901 Y161.258 E0.27790
G1 X114.901 Y161.798 E0.01711
G1 X108.517 Y155.414 E0.28631
G1 X108.329 Y155.766 E0.01265
G1 X114.901 Y162.337 E0.29471
G1 X114.901 Y162.876 E0.01711
G1 X108.144 Y156.120 E0.30302
G1 X107.988 Y156.503 E0.01313
G1 X114.901 Y163.416 E0.31001
G1 X114.901 Y163.955 E0.01711
G1 X107.832 Y156.887 E0.31701
G1 X107.676 Y157.270 E0.01313
G1 X114.901 Y164.495 E0.32400
G1 X114.901 Y165.034 E0.01711
G1 X107.541 Y157.675 E0.33006
G1 X107.420 Y158.092 E0.01380
G1 X114.901 Y165.573 E0.33551
G1 X114.901 Y166.113 E0.01711
G1 X107.298 Y158.510 E0.34097
G1 X107.214 Y158.798 E0.00952
G1 X107.188 Y158.940 E0.00456
G1 X114.901 Y166.652 E0.34589
G1 X114.901 Y167.191 E0.01711
G1 X106.959 Y159.250 E0.35616
;WIPE_START
G1 F8640.000
G1 X109.287 Y161.578 E-0.76000
;WIPE_END
G1 E-0.04000 F2100.000
G1 Z0.600 F10800.000
G1 X126.471 Y156.647
G1 Z0.200
G1 E0.80000 F2100.000
G1 F1200.000
G1 X134.444 Y164.620 E0.35759
G1 X134.341 Y165.057 E0.01422
G1 X126.640 Y157.356 E0.34536
G1 X126.640 Y157.896 E0.01711
G1 X134.238 Y165.493 E0.34074
G1 X134.132 Y165.926 E0.01414
G1 X126.640 Y158.435 E0.33598
G1 X126.640 Y158.974 E0.01711
G1 X133.993 Y166.326 E0.32973
G1 X133.853 Y166.727 E0.01344
G1 X126.640 Y159.514 E0.32349
G1 X126.640 Y160.053 E0.01711
G1 X133.714 Y167.127 E0.31725
G1 X133.552 Y167.504 E0.01302
G1 X126.640 Y160.592 E0.30997
G1 X126.640 Y161.132 E0.01711
G1 X133.380 Y167.871 E0.30226
G1 X133.208 Y168.239 E0.01286
G1 X126.640 Y161.671 E0.29454
G1 X126.640 Y162.211 E0.01711
G1 X133.031 Y168.601 E0.28660
G1 X132.828 Y168.938 E0.01247
G1 X126.640 Y162.750 E0.27752
G1 X126.640 Y163.289 E0.01711
G1 X132.626 Y169.275 E0.26845
G1 X132.424 Y169.612 E0.01247
G1 X126.640 Y163.829 E0.25937
G1 X126.640 Y164.368 E0.01711
G1 X132.206 Y169.934 E0.24962
G1 X131.975 Y170.242 E0.01222
G1 X126.640 Y164.907 E0.23925
G1 X126.640 Y165.447 E0.01711
G1 X131.744 Y170.550 E0.22888
G1 X131.513 Y170.858 E0.01222
G1 X126.640 Y165.986 E0.21851
G1 X126.640 Y166.526 E0.01711
G1 X131.259 Y171.144 E0.20713
G1 X131.000 Y171.424 E0.01210
G1 X126.640 Y167.065 E0.19551
G1 X126.640 Y167.604 E0.01711
G1 X130.740 Y171.704 E0.18388
G1 X130.492 Y171.973 E0.01159
G1 X130.480 Y171.983 E0.00051
G1 X126.364 Y167.867 E0.18459
G1 X125.825 Y167.867 E0.01711
G1 X130.193 Y172.235 E0.19591
G1 X129.906 Y172.488 E0.01212
G1 X125.285 Y167.867 E0.20722
G1 X124.746 Y167.867 E0.01711
G1 X129.619 Y172.740 E0.21854
G1 X129.323 Y172.984 E0.01215
G1 X124.207 Y167.867 E0.22949
G1 X123.667 Y167.867 E0.01711
G1 X129.008 Y173.208 E0.23954
G1 X128.693 Y173.432 E0.01227
G1 X123.128 Y167.867 E0.24959
