; generated by PrusaSlicer 2.3.3+win64 on 2022-01-18 at 14:43:27 UTC

; 

; external perimeters extrusion width = 0.45mm
; perimeters extrusion width = 0.45mm
; infill extrusion width = 0.45mm
; solid infill extrusion width = 0.45mm
; top infill extrusion width = 0.40mm
; first layer extrusion width = 0.42mm

; external perimeters extrusion width = 0.45mm
; perimeters extrusion width = 0.45mm
; infill extrusion width = 0.45mm
; solid infill extrusion width = 0.45mm
; top infill extrusion width = 0.40mm
; first layer extrusion width = 0.42mm

; external perimeters extrusion width = 0.45mm
; perimeters extrusion width = 0.45mm
; infill extrusion width = 0.45mm
; solid infill extrusion width = 0.45mm
; top infill extrusion width = 0.40mm
; first layer extrusion width = 0.42mm

; external perimeters extrusion width = 0.45mm
; perimeters extrusion width = 0.45mm
; infill extrusion width = 0.45mm
; solid infill extrusion width = 0.45mm
; top infill extrusion width = 0.40mm
; first layer extrusion width = 0.42mm

; external perimeters extrusion width = 0.45mm
; perimeters extrusion width = 0.45mm
; infill extrusion width = 0.45mm
; solid infill extrusion width = 0.45mm
; top infill extrusion width = 0.40mm
; first layer extrusion width = 0.42mm

; external perimeters extrusion width = 0.45mm
; perimeters extrusion width = 0.45mm
; infill extrusion width = 0.45mm
; solid infill extrusion width = 0.45mm
; top infill extrusion width = 0.40mm
; first layer extrusion width = 0.42mm

M73 P0 R122
M73 Q0 S123
M201 X1000 Y1000 Z200 E8000 ; sets maximum accelerations, mm/sec^2
M203 X200 Y200 Z12 E120 ; sets maximum feedrates, mm/sec
M204 P1250 R1250 T1250 ; sets acceleration (P, T) and retract acceleration (R), mm/sec^2
M205 X8.00 Y8.00 Z0.40 E4.50 ; sets the jerk limits, mm/sec
M205 S0 T0 ; sets the minimum extruding and travel feed rate, mm/sec
M107
;TYPE:Custom
M862.3 P "MK3SMMU2S" ; printer model check
M862.1 P0.4 ; nozzle diameter check
M115 U3.10.0 ; tell printer latest fw version
G90 ; use absolute coordinates
M83 ; extruder relative mode
M104 S215 ; set extruder temp
M140 S60 ; set bed temp
M190 S60 ; wait for bed temp
M109 S215 ; wait for extruder temp
G28 W ; home all without mesh bed level
G80 ; mesh bed leveling

; Send the filament type to the MMU2.0 unit.
; E stands for extruder number, F stands for filament type (0: default; 1:flex; 2: PVA)
M403 E0 F0
M403 E1 F0
M403 E2 F0
M403 E3 F0
M403 E4 F0


;go outside print area
G1 Y-3.0 F1000.0
G1 Z0.4 F1000.0
; select extruder
T1
; initial load
G1 X55.0 E29.0 F1073.0
G1 X5.0 E29.0 F1800.0
G1 X55.0 E8.0 F2000.0
G1 Z0.3 F1000.0
G92 E0.0
G1 X240.0 E25.0 F2200.0
G1 Y-2.0 F1000.0
G1 X55.0 E25 F1400.0
G1 Z0.20 F1000.0
G1 X5.0 E4.0 F1000.0
G92 E0.0


M221 S95
G92 E0.0

; Don't change E values below. Excessive value can damage the printer.

M907 E538 ; set extruder motor current
G21 ; set units to millimeters
G90 ; use absolute coordinates
M83 ; use relative distances for extrusion
T1
M900 K0.05 ; Filament gcode LA 1.5
M900 K30 ; Filament gcode LA 1.0
G1 Z0.200 F10800.000
;LAYER_CHANGE
;Z:0.2
;HEIGHT:0.2
;BEFORE_LAYER_CHANGE
G92 E0.0
;0.2


G1 E-0.80000 F2100.000
G1 Z0.600 F10800.000
G1 Z0.200
;AFTER_LAYER_CHANGE
;0.2
G1 E-1.20000 F2100.000
G1 Z0.600 F10800.000
G1 X234.882 Y27.819
G1 Z0.200
G1 E2.00000 F2100.000
;HEIGHT:0.200000
;TYPE:Wipe tower
;WIDTH:0.500000
;-------------------------------------
; CP WIPE TOWER FIRST LAYER BRIM START
G1  X234.882 Y129.879  E5.8184 F2400
G1  X232.339 Y130.336   F7000
G1  Y27.362  E4.3050 F2100
G1  X171.425  E2.5466
G1  Y130.336  E4.3050
G1  X232.339  E2.5466
G1  X232.796 Y130.793   F7000
G1  Y26.905  E4.3433 F2100
M73 Q0 S122
G1  X170.968  E2.5849
M73 P0 R121
G1  Y130.793  E4.3433
G1  X232.796  E2.5849
G1  X233.253 Y131.250   F7000
G1  Y26.448  E4.3815 F2100
G1  X170.511  E2.6231
G1  Y131.250  E4.3815
G1  X233.253  E2.6231
G1  X233.710 Y131.707   F7000
G1  Y25.991  E4.4197 F2100
M73 P1 R121
M73 Q1 S122
G1  X170.054  E2.6613
G1  Y131.707  E4.4197
G1  X233.710  E2.6613
; CP WIPE TOWER FIRST LAYER BRIM END
;-----------------------------------

;WIPE_START
G1 F8640.000
G1 X233.253 Y131.250 E-0.14926
G1 X230.608 Y131.250 E-0.61074
;WIPE_END
G1 E-0.04000 F2100.000
G1 Z0.600 F10800.000
G1 X234.586 Y133.584
G1 Z0.200
G1 E0.80000 F2100.000
M204 S1000
;TYPE:Skirt
;WIDTH:0.42
;HEIGHT:0.2
G1 F1200.000
G1 X233.836 Y133.829 E0.02473
G1 X118.485 Y151.043 E3.65680
G1 X115.833 Y151.246 E0.08338
G1 X113.160 Y151.039 E0.08409
G1 X111.419 Y150.676 E0.05574
G1 X109.823 Y150.170 E0.05252
G1 X108.061 Y149.410 E0.06014
G1 X106.514 Y148.534 E0.05574
G1 X105.144 Y147.564 E0.05263
G1 X103.640 Y146.244 E0.06276
G1 X102.479 Y144.984 E0.05371
G1 X73.417 Y109.283 E1.44338
G1 X72.749 Y108.222 E0.03930
G1 X72.244 Y106.957 E0.04271
G1 X72.019 Y105.981 E0.03140
G1 X71.931 Y104.884 E0.03451
G1 X71.935 Y59.709 E1.41644
G1 X72.025 Y58.673 E0.03260
G1 X72.291 Y57.570 E0.03558
G1 X72.725 Y56.517 E0.03570
G1 X73.244 Y55.652 E0.03164
G1 X74.203 Y54.526 E0.04638
G1 X74.984 Y53.869 E0.03200
G1 X75.932 Y53.287 E0.03487
G1 X77.055 Y52.822 E0.03812
G1 X169.848 Y23.882 E3.04766
G1 X233.486 Y23.842 E1.99533
G1 X234.388 Y24.022 E0.02884
G1 X235.157 Y24.533 E0.02896
G1 X235.672 Y25.295 E0.02884
G1 X235.859 Y26.195 E0.02884
G1 X235.859 Y131.505 E3.30193
G1 X235.766 Y132.137 E0.02000
G1 X235.509 Y132.720 E0.02000
G1 X235.106 Y133.215 E0.02000
G1 X234.634 Y133.549 E0.01812
; printing object body350 id:1 copy 0
;WIPE_START
G1 F8640.000
G1 X233.836 Y133.829 E-0.19537
G1 X231.417 Y134.190 E-0.56463
;WIPE_END
G1 E-0.04000 F2100.000
G1 Z0.600 F10800.000
G1 X124.629 Y83.169
G1 Z0.200
G1 E0.80000 F2100.000
;TYPE:Perimeter
G1 F1200.000
G1 X124.482 Y83.457 E0.01013
G1 X124.301 Y83.737 E0.01047
G1 X123.947 Y84.142 E0.01687
G1 X123.537 Y84.473 E0.01649
G1 X123.074 Y84.730 E0.01662
G1 X122.762 Y84.850 E0.01046
G1 X122.450 Y84.933 E0.01013
G1 X122.131 Y84.984 E0.01013
G1 X121.808 Y85.001 E0.01013
G1 X121.486 Y84.984 E0.01013
G1 X121.166 Y84.933 E0.01013
G1 X120.854 Y84.850 E0.01013
G1 X120.543 Y84.730 E0.01046
G1 X120.079 Y84.473 E0.01662
G1 X119.670 Y84.142 E0.01649
G1 X119.316 Y83.737 E0.01687
G1 X119.134 Y83.457 E0.01047
G1 X118.987 Y83.169 E0.01013
G1 X118.872 Y82.867 E0.01013
G1 X118.788 Y82.555 E0.01013
G1 X118.737 Y82.236 E0.01013
G1 X118.720 Y81.913 E0.01013
G1 X118.737 Y81.590 E0.01013
G1 X118.789 Y81.261 E0.01045
G1 X118.942 Y80.761 E0.01637
G1 X119.178 Y80.292 E0.01649
G1 X119.506 Y79.855 E0.01712
G1 X119.742 Y79.618 E0.01049
G1 X119.993 Y79.415 E0.01013
G1 X120.264 Y79.239 E0.01013
G1 X120.552 Y79.092 E0.01013
G1 X120.854 Y78.976 E0.01013
G1 X121.166 Y78.892 E0.01013
G1 X121.486 Y78.842 E0.01013
G1 X121.799 Y78.825 E0.00984
G1 X122.329 Y78.868 E0.01667
G1 X122.839 Y79.001 E0.01654
G1 X123.342 Y79.232 E0.01736
G1 X123.623 Y79.415 E0.01050
G1 X123.874 Y79.618 E0.01013
G1 X124.103 Y79.847 E0.01013
G1 X124.306 Y80.098 E0.01013
G1 X124.482 Y80.369 E0.01013
G1 X124.629 Y80.657 E0.01013
G1 X124.745 Y80.959 E0.01013
G1 X124.829 Y81.271 E0.01013
G1 X124.879 Y81.590 E0.01013
G1 X124.896 Y81.913 E0.01013
G1 X124.879 Y82.236 E0.01013
G1 X124.829 Y82.555 E0.01013
G1 X124.745 Y82.867 E0.01013
G1 X124.651 Y83.113 E0.00825
G1 X124.299 Y82.978 F10800.000
;TYPE:External perimeter
G1 F1200.000
G1 X124.155 Y83.268 E0.01015
G1 X123.999 Y83.509 E0.00902
G1 X123.684 Y83.870 E0.01500
G1 X123.326 Y84.159 E0.01444
G1 X122.914 Y84.387 E0.01477
G1 X122.646 Y84.490 E0.00901
G1 X122.372 Y84.564 E0.00889
G1 X122.092 Y84.608 E0.00889
G1 X121.808 Y84.623 E0.00889
G1 X121.525 Y84.608 E0.00889
G1 X121.245 Y84.564 E0.00889
G1 X120.971 Y84.490 E0.00889
G1 X120.702 Y84.387 E0.00901
G1 X120.291 Y84.159 E0.01477
G1 X119.932 Y83.870 E0.01444
G1 X119.618 Y83.509 E0.01500
G1 X119.461 Y83.268 E0.00902
G1 X119.332 Y83.015 E0.00889
G1 X119.231 Y82.750 E0.00889
G1 X119.157 Y82.476 E0.00889
G1 X119.113 Y82.196 E0.00889
G1 X119.098 Y81.913 E0.00889
G1 X119.113 Y81.630 E0.00889
G1 X119.158 Y81.346 E0.00901
G1 X119.293 Y80.902 E0.01454
G1 X119.500 Y80.491 E0.01444
G1 X119.791 Y80.102 E0.01523
G1 X119.995 Y79.899 E0.00902
G1 X120.215 Y79.720 E0.00889
G1 X120.453 Y79.566 E0.00889
G1 X120.706 Y79.437 E0.00889
G1 X120.971 Y79.335 E0.00889
G1 X121.245 Y79.262 E0.00889
G1 X121.525 Y79.217 E0.00889
G1 X121.794 Y79.203 E0.00844
G1 X122.266 Y79.241 E0.01485
G1 X122.712 Y79.357 E0.01446
G1 X123.160 Y79.563 E0.01546
G1 X123.401 Y79.720 E0.00903
G1 X123.622 Y79.899 E0.00889
G1 X123.822 Y80.099 E0.00889
G1 X124.001 Y80.320 E0.00889
G1 X124.155 Y80.558 E0.00889
G1 X124.284 Y80.810 E0.00889
G1 X124.386 Y81.075 E0.00889
G1 X124.459 Y81.349 E0.00889
G1 X124.504 Y81.630 E0.00889
G1 X124.519 Y81.913 E0.00889
G1 X124.504 Y82.196 E0.00889
G1 X124.459 Y82.476 E0.00889
G1 X124.320 Y82.922 E0.01463
G1 X124.496 Y83.234 F10800.000
;WIPE_START
G1 F8640.000
G1 X124.155 Y83.268 E-0.08856
G1 X123.999 Y83.509 E-0.06640
G1 X123.684 Y83.870 E-0.11046
G1 X123.326 Y84.159 E-0.10634
G1 X122.914 Y84.387 E-0.10876
G1 X122.646 Y84.490 E-0.06637
G1 X122.372 Y84.564 E-0.06550
G1 X122.092 Y84.608 E-0.06551
G1 X121.808 Y84.623 E-0.06550
G1 X121.736 Y84.619 E-0.01660
;WIPE_END
G1 E-0.04000 F2100.000
G1 Z0.600 F10800.000
G1 X133.721 Y76.759
G1 Z0.200
G1 E0.80000 F2100.000
;TYPE:Perimeter
G1 F1200.000
G1 X149.895 Y76.759 E0.50713
G1 X149.895 Y87.500 E0.33677
G1 X133.721 Y87.500 E0.50713
G1 X133.721 Y76.819 E0.33489
G1 X134.098 Y77.136 F10800.000
;TYPE:External perimeter
G1 F1200.000
G1 X149.518 Y77.136 E0.48348
M73 Q1 S121
G1 X149.518 Y87.123 E0.31313
G1 X134.098 Y87.123 E0.48348
G1 X134.098 Y77.196 E0.31125
G1 X133.968 Y76.758 F10800.000
;WIPE_START
M73 P1 R120
G1 F8640.000
G1 X137.390 Y77.183 E-0.76000
;WIPE_END
G1 E-0.04000 F2100.000
G1 Z0.600 F10800.000
G1 X118.089 Y70.000
G1 Z0.200
G1 E0.80000 F2100.000
;TYPE:Perimeter
G1 F1200.000
G1 X117.680 Y70.331 E0.01649
G1 X117.216 Y70.588 E0.01662
G1 X116.905 Y70.707 E0.01046
G1 X116.592 Y70.791 E0.01013
G1 X116.273 Y70.842 E0.01013
G1 X115.950 Y70.859 E0.01013
G1 X115.628 Y70.842 E0.01013
G1 X115.308 Y70.791 E0.01013
G1 X114.996 Y70.707 E0.01013
G1 X114.685 Y70.588 E0.01046
G1 X114.221 Y70.331 E0.01662
G1 X113.812 Y70.000 E0.01649
G1 X113.458 Y69.595 E0.01687
G1 X113.276 Y69.315 E0.01047
G1 X113.129 Y69.027 E0.01013
G1 X113.014 Y68.725 E0.01013
G1 X112.930 Y68.413 E0.01013
G1 X112.879 Y68.093 E0.01013
G1 X112.863 Y67.771 E0.01013
G1 X112.879 Y67.448 E0.01013
G1 X112.932 Y67.119 E0.01045
G1 X113.084 Y66.619 E0.01637
G1 X113.321 Y66.150 E0.01649
G1 X113.648 Y65.712 E0.01712
G1 X113.884 Y65.476 E0.01049
G1 X114.135 Y65.273 E0.01013
G1 X114.406 Y65.096 E0.01013
G1 X114.694 Y64.950 E0.01013
G1 X114.996 Y64.834 E0.01013
G1 X115.308 Y64.750 E0.01013
G1 X115.628 Y64.700 E0.01013
G1 X115.941 Y64.683 E0.00984
G1 X116.471 Y64.726 E0.01667
G1 X116.982 Y64.858 E0.01654
G1 X117.485 Y65.090 E0.01736
G1 X117.765 Y65.273 E0.01050
G1 X118.017 Y65.476 E0.01013
G1 X118.245 Y65.704 E0.01013
G1 X118.449 Y65.956 E0.01013
G1 X118.625 Y66.227 E0.01013
G1 X118.771 Y66.515 E0.01013
G1 X118.887 Y66.816 E0.01013
G1 X118.971 Y67.129 E0.01013
G1 X119.021 Y67.448 E0.01013
G1 X119.038 Y67.771 E0.01013
G1 X119.021 Y68.093 E0.01013
G1 X118.971 Y68.413 E0.01013
G1 X118.887 Y68.725 E0.01013
G1 X118.771 Y69.027 E0.01013
G1 X118.625 Y69.315 E0.01013
G1 X118.443 Y69.595 E0.01047
G1 X118.128 Y69.955 E0.01499
G1 X117.844 Y69.707 F10800.000
;TYPE:External perimeter
G1 F1200.000
G1 X117.468 Y70.017 E0.01528
G1 X117.056 Y70.245 E0.01477
G1 X116.788 Y70.348 E0.00901
G1 X116.514 Y70.422 E0.00889
G1 X116.234 Y70.466 E0.00889
G1 X115.950 Y70.481 E0.00889
G1 X115.667 Y70.466 E0.00889
G1 X115.387 Y70.422 E0.00889
G1 X115.113 Y70.348 E0.00889
G1 X114.845 Y70.245 E0.00901
G1 X114.433 Y70.017 E0.01477
G1 X114.074 Y69.727 E0.01444
G1 X113.760 Y69.367 E0.01500
G1 X113.603 Y69.126 E0.00902
G1 X113.474 Y68.873 E0.00889
G1 X113.373 Y68.608 E0.00890
G1 X113.299 Y68.334 E0.00890
G1 X113.255 Y68.054 E0.00889
G1 X113.240 Y67.771 E0.00890
G1 X113.255 Y67.487 E0.00889
G1 X113.300 Y67.204 E0.00901
G1 X113.435 Y66.760 E0.01454
G1 X113.642 Y66.349 E0.01444
G1 X113.933 Y65.960 E0.01523
G1 X114.137 Y65.757 E0.00902
G1 X114.357 Y65.578 E0.00890
G1 X114.595 Y65.424 E0.00889
G1 X114.848 Y65.295 E0.00889
G1 X115.113 Y65.193 E0.00889
G1 X115.387 Y65.120 E0.00889
G1 X115.667 Y65.075 E0.00889
G1 X115.936 Y65.061 E0.00844
G1 X116.408 Y65.099 E0.01485
G1 X116.854 Y65.215 E0.01446
G1 X117.302 Y65.421 E0.01546
G1 X117.543 Y65.578 E0.00903
G1 X117.764 Y65.757 E0.00889
G1 X117.965 Y65.957 E0.00890
G1 X118.143 Y66.178 E0.00889
G1 X118.298 Y66.416 E0.00889
G1 X118.426 Y66.668 E0.00890
G1 X118.528 Y66.933 E0.00889
G1 X118.601 Y67.207 E0.00890
G1 X118.646 Y67.487 E0.00889
G1 X118.661 Y67.771 E0.00889
G1 X118.646 Y68.054 E0.00890
G1 X118.601 Y68.334 E0.00889
G1 X118.528 Y68.608 E0.00890
G1 X118.426 Y68.873 E0.00890
G1 X118.298 Y69.126 E0.00889
G1 X118.141 Y69.367 E0.00902
G1 X117.884 Y69.662 E0.01227
G1 X117.939 Y70.096 F10800.000
;WIPE_START
G1 F8640.000
G1 X117.468 Y70.017 E-0.12619
G1 X117.056 Y70.245 E-0.10876
G1 X116.788 Y70.348 E-0.06637
G1 X116.514 Y70.422 E-0.06550
G1 X116.234 Y70.466 E-0.06551
G1 X115.950 Y70.481 E-0.06550
G1 X115.667 Y70.466 E-0.06550
G1 X115.387 Y70.422 E-0.06551
G1 X115.113 Y70.348 E-0.06550
G1 X114.847 Y70.246 E-0.06565
;WIPE_END
G1 E-0.04000 F2100.000
G1 Z0.600 F10800.000
G1 X104.629 Y63.169
G1 Z0.200
G1 E0.80000 F2100.000
;TYPE:Perimeter
G1 F1200.000
G1 X104.482 Y63.457 E0.01013
G1 X104.301 Y63.737 E0.01047
G1 X103.947 Y64.142 E0.01687
G1 X103.537 Y64.473 E0.01649
G1 X103.074 Y64.730 E0.01662
G1 X102.762 Y64.850 E0.01046
G1 X102.450 Y64.933 E0.01013
G1 X102.131 Y64.984 E0.01013
G1 X101.808 Y65.001 E0.01013
G1 X101.486 Y64.984 E0.01013
G1 X101.166 Y64.933 E0.01013
G1 X100.854 Y64.850 E0.01013
G1 X100.543 Y64.730 E0.01046
G1 X100.079 Y64.473 E0.01662
G1 X99.670 Y64.142 E0.01649
G1 X99.316 Y63.737 E0.01687
G1 X99.134 Y63.457 E0.01047
G1 X98.987 Y63.169 E0.01013
G1 X98.872 Y62.867 E0.01013
G1 X98.788 Y62.555 E0.01013
G1 X98.737 Y62.236 E0.01013
G1 X98.720 Y61.913 E0.01013
G1 X98.737 Y61.590 E0.01013
G1 X98.789 Y61.261 E0.01045
G1 X98.942 Y60.761 E0.01637
G1 X99.178 Y60.292 E0.01649
G1 X99.506 Y59.855 E0.01712
G1 X99.742 Y59.618 E0.01049
G1 X99.993 Y59.415 E0.01013
G1 X100.264 Y59.239 E0.01013
G1 X100.552 Y59.092 E0.01013
G1 X100.854 Y58.976 E0.01013
G1 X101.166 Y58.892 E0.01013
G1 X101.486 Y58.842 E0.01013
G1 X101.799 Y58.825 E0.00984
G1 X102.329 Y58.868 E0.01667
G1 X102.839 Y59.001 E0.01654
G1 X103.342 Y59.232 E0.01736
G1 X103.623 Y59.415 E0.01050
G1 X103.874 Y59.618 E0.01013
G1 X104.103 Y59.847 E0.01013
G1 X104.306 Y60.098 E0.01013
G1 X104.482 Y60.369 E0.01013
G1 X104.629 Y60.657 E0.01013
G1 X104.745 Y60.959 E0.01013
G1 X104.829 Y61.271 E0.01013
G1 X104.879 Y61.590 E0.01013
G1 X104.896 Y61.913 E0.01013
G1 X104.879 Y62.236 E0.01013
G1 X104.829 Y62.555 E0.01013
G1 X104.745 Y62.867 E0.01013
G1 X104.651 Y63.113 E0.00825
G1 X104.299 Y62.978 F10800.000
;TYPE:External perimeter
G1 F1200.000
G1 X104.155 Y63.268 E0.01015
G1 X103.999 Y63.509 E0.00902
G1 X103.684 Y63.870 E0.01500
G1 X103.326 Y64.159 E0.01444
G1 X102.914 Y64.387 E0.01477
G1 X102.646 Y64.490 E0.00901
G1 X102.372 Y64.564 E0.00889
G1 X102.092 Y64.608 E0.00889
G1 X101.808 Y64.623 E0.00889
G1 X101.525 Y64.608 E0.00889
G1 X101.245 Y64.564 E0.00889
G1 X100.971 Y64.490 E0.00889
G1 X100.702 Y64.387 E0.00901
G1 X100.291 Y64.159 E0.01477
G1 X99.932 Y63.870 E0.01444
G1 X99.618 Y63.509 E0.01500
G1 X99.461 Y63.268 E0.00902
G1 X99.332 Y63.015 E0.00889
G1 X99.231 Y62.750 E0.00889
G1 X99.157 Y62.476 E0.00889
G1 X99.113 Y62.196 E0.00889
G1 X99.098 Y61.913 E0.00889
G1 X99.113 Y61.630 E0.00889
G1 X99.158 Y61.346 E0.00901
G1 X99.293 Y60.902 E0.01454
G1 X99.500 Y60.491 E0.01444
G1 X99.791 Y60.102 E0.01523
G1 X99.995 Y59.899 E0.00902
G1 X100.215 Y59.720 E0.00890
G1 X100.453 Y59.566 E0.00889
G1 X100.706 Y59.437 E0.00889
G1 X100.971 Y59.335 E0.00889
G1 X101.245 Y59.262 E0.00889
G1 X101.525 Y59.217 E0.00890
G1 X101.794 Y59.203 E0.00844
G1 X102.266 Y59.241 E0.01485
G1 X102.712 Y59.357 E0.01446
G1 X103.160 Y59.563 E0.01546
G1 X103.401 Y59.720 E0.00903
