; generated by PrusaSlicer 2.3.3+win64 on 2022-02-14 at 10:45:39 UTC

; 

; external perimeters extrusion width = 0.45mm
; perimeters extrusion width = 0.45mm
; infill extrusion width = 0.45mm
; solid infill extrusion width = 0.45mm
; top infill extrusion width = 0.40mm
; first layer extrusion width = 0.42mm

; external perimeters extrusion width = 0.45mm
; perimeters extrusion width = 0.45mm
; infill extrusion width = 0.45mm
; solid infill extrusion width = 0.45mm
; top infill extrusion width = 0.40mm
; first layer extrusion width = 0.42mm

; external perimeters extrusion width = 0.45mm
; perimeters extrusion width = 0.45mm
; infill extrusion width = 0.45mm
; solid infill extrusion width = 0.45mm
; top infill extrusion width = 0.40mm
; first layer extrusion width = 0.42mm

; external perimeters extrusion width = 0.45mm
; perimeters extrusion width = 0.45mm
; infill extrusion width = 0.45mm
; solid infill extrusion width = 0.45mm
; top infill extrusion width = 0.40mm
; first layer extrusion width = 0.42mm

; external perimeters extrusion width = 0.45mm
; perimeters extrusion width = 0.45mm
; infill extrusion width = 0.45mm
; solid infill extrusion width = 0.45mm
; top infill extrusion width = 0.40mm
; first layer extrusion width = 0.42mm

M73 P0 R118
M73 Q0 S119
M201 X1000 Y1000 Z200 E8000 ; sets maximum accelerations, mm/sec^2
M203 X200 Y200 Z12 E120 ; sets maximum feedrates, mm/sec
M204 P1250 R1250 T1250 ; sets acceleration (P, T) and retract acceleration (R), mm/sec^2
M205 X8.00 Y8.00 Z0.40 E4.50 ; sets the jerk limits, mm/sec
M205 S0 T0 ; sets the minimum extruding and travel feed rate, mm/sec
M107
;TYPE:Custom
M862.3 P "MK3SMMU2S" ; printer model check
M862.1 P0.4 ; nozzle diameter check
M115 U3.10.0 ; tell printer latest fw version
G90 ; use absolute coordinates
M83 ; extruder relative mode
M104 S215 ; set extruder temp
M140 S60 ; set bed temp
M190 S60 ; wait for bed temp
M109 S215 ; wait for extruder temp
G28 W ; home all without mesh bed level
G80 ; mesh bed leveling

; Send the filament type to the MMU2.0 unit.
; E stands for extruder number, F stands for filament type (0: default; 1:flex; 2: PVA)
M403 E0 F0
M403 E1 F0
M403 E2 F0
M403 E3 F0
M403 E4 F0


;go outside print area
G1 Y-3.0 F1000.0
M73 Q0 S118
G1 Z0.4 F1000.0
; select extruder
T1
; initial load
G1 X55.0 E29.0 F1073.0
G1 X5.0 E29.0 F1800.0
G1 X55.0 E8.0 F2000.0
G1 Z0.3 F1000.0
G92 E0.0
G1 X240.0 E25.0 F2200.0
G1 Y-2.0 F1000.0
G1 X55.0 E25 F1400.0
M73 P0 R117
G1 Z0.20 F1000.0
G1 X5.0 E4.0 F1000.0
G92 E0.0


M221 S95
G92 E0.0

; Don't change E values below. Excessive value can damage the printer.
M907 E430 ; set extruder motor current
G21 ; set units to millimeters
G90 ; use absolute coordinates
M83 ; use relative distances for extrusion
T1
M900 K0.05 ; Filament gcode LA 1.5
M900 K30 ; Filament gcode LA 1.0
G1 Z0.200 F10800.000
;LAYER_CHANGE
;Z:0.2
;HEIGHT:0.2
;BEFORE_LAYER_CHANGE
G92 E0.0
;0.2


G1 E-0.80000 F2100.000
G1 Z0.600 F10800.000
G1 Z0.200
;AFTER_LAYER_CHANGE
;0.2
G1 E-1.20000 F2100.000
G1 Z0.600 F10800.000
G1 X238.447 Y19.428
G1 Z0.200
G1 E2.00000 F2100.000
;HEIGHT:0.200000
;TYPE:Wipe tower
;WIDTH:0.500000
;-------------------------------------
; CP WIPE TOWER FIRST LAYER BRIM START
G1  X238.447 Y149.488  E7.4147 F2400
G1  X235.904 Y149.945   F7000
G1  Y18.971  E5.4756 F2100
G1  X174.990  E2.5466
G1  Y149.945  E5.4756
G1  X235.904  E2.5466
G1  X236.361 Y150.402   F7000
G1  Y18.514  E5.5138 F2100
G1  X174.533  E2.5849
G1  Y150.402  E5.5138
G1  X236.361  E2.5849
G1  X236.818 Y150.859   F7000
G1  Y18.057  E5.5521 F2100
G1  X174.076  E2.6231
M73 P1 R117
M73 Q1 S118
G1  Y150.859  E5.5521
M73 Q1 S117
G1  X236.818  E2.6231
G1  X237.275 Y151.316   F7000
G1  Y17.600  E5.5903 F2100
G1  X173.619  E2.6613
G1  Y151.316  E5.5903
G1  X237.275  E2.6613
; CP WIPE TOWER FIRST LAYER BRIM END
;-----------------------------------

;WIPE_START
G1 F8640.000
G1 X236.819 Y150.859 E-0.14925
G1 X234.174 Y150.859 E-0.61075
;WIPE_END
G1 E-0.04000 F2100.000
G1 Z0.600 F10800.000
G1 X238.594 Y152.892
G1 Z0.200
G1 E0.80000 F2100.000
M204 S1000
;TYPE:Skirt
;WIDTH:0.42
;HEIGHT:0.2
G1 F1200.000
G1 X238.027 Y153.253 E0.02107
G1 X237.547 Y153.412 E0.01585
G1 X237.047 Y153.465 E0.01577
G1 X173.840 Y153.465 E1.98182
G1 X172.977 Y153.300 E0.02755
G1 X77.206 Y91.810 E3.56847
M73 P1 R116
G1 X76.106 Y90.857 E0.04563
G1 X75.454 Y90.077 E0.03188
G1 X74.827 Y89.028 E0.03832
G1 X74.433 Y88.062 E0.03272
G1 X74.194 Y87.101 E0.03105
G1 X74.070 Y85.813 E0.04057
G1 X74.074 Y40.630 E1.41667
G1 X74.163 Y39.602 E0.03236
G1 X74.430 Y38.495 E0.03570
G1 X74.865 Y37.443 E0.03570
G1 X75.397 Y36.559 E0.03236
G1 X76.361 Y35.437 E0.04638
G1 X77.144 Y34.783 E0.03200
G1 X78.193 Y34.156 E0.03831
G1 X79.170 Y33.758 E0.03308
G1 X80.206 Y33.504 E0.03344
G1 X173.570 Y15.467 E2.98147
G1 X237.051 Y15.451 E1.99041
G1 X237.953 Y15.630 E0.02884
G1 X238.722 Y16.141 E0.02896
G1 X239.239 Y16.907 E0.02896
G1 X239.424 Y17.812 E0.02896
G1 X239.424 Y151.114 E4.17961
G1 X239.322 Y151.778 E0.02107
G1 X239.037 Y152.387 E0.02107
G1 X238.634 Y152.847 E0.01919
; printing object body45196 id:0 copy 0
;WIPE_START
G1 F8640.000
G1 X238.027 Y153.253 E-0.16850
G1 X237.547 Y153.412 E-0.11675
G1 X237.047 Y153.465 E-0.11613
G1 X235.494 Y153.465 E-0.35862
;WIPE_END
G1 E-0.04000 F2100.000
G1 Z0.600 F10800.000
G1 X126.300 Y65.274
G1 Z0.200
G1 E0.80000 F2100.000
;TYPE:Perimeter
G1 F1200.000
G1 X126.070 Y65.517 E0.01048
G1 X125.815 Y65.733 E0.01048
G1 X125.538 Y65.921 E0.01048
G1 X125.245 Y66.077 E0.01042
G1 X124.965 Y66.191 E0.00949
G1 X124.469 Y66.320 E0.01608
G1 X123.946 Y66.364 E0.01643
G1 X123.424 Y66.320 E0.01643
G1 X122.928 Y66.191 E0.01608
G1 X122.648 Y66.077 E0.00949
G1 X122.354 Y65.921 E0.01042
G1 X122.078 Y65.733 E0.01048
G1 X121.823 Y65.517 E0.01048
G1 X121.593 Y65.274 E0.01048
G1 X121.391 Y65.008 E0.01048
G1 X121.218 Y64.722 E0.01047
G1 X121.077 Y64.418 E0.01051
G1 X120.927 Y63.926 E0.01613
G1 X120.861 Y63.417 E0.01609
G1 X120.863 Y63.106 E0.00974
G1 X120.899 Y62.776 E0.01043
G1 X120.971 Y62.449 E0.01048
G1 X121.078 Y62.132 E0.01048
G1 X121.218 Y61.829 E0.01048
G1 X121.391 Y61.542 E0.01048
G1 X121.592 Y61.277 E0.01046
G1 X121.817 Y61.039 E0.01026
G1 X122.217 Y60.716 E0.01612
G1 X122.665 Y60.465 E0.01610
G1 X122.962 Y60.348 E0.01000
G1 X123.283 Y60.259 E0.01044
G1 X123.612 Y60.205 E0.01048
G1 X123.939 Y60.187 E0.01024
G1 X124.280 Y60.205 E0.01071
G1 X124.610 Y60.259 E0.01051
G1 X124.931 Y60.348 E0.01044
G1 X125.228 Y60.465 E0.01000
G1 X125.676 Y60.716 E0.01610
G1 X126.076 Y61.039 E0.01612
G1 X126.300 Y61.277 E0.01026
G1 X126.502 Y61.542 E0.01046
G1 X126.675 Y61.829 E0.01048
G1 X126.815 Y62.132 E0.01048
G1 X126.922 Y62.449 E0.01048
G1 X126.994 Y62.776 E0.01048
G1 X127.030 Y63.106 E0.01043
G1 X127.031 Y63.417 E0.00974
G1 X126.966 Y63.926 E0.01609
G1 X126.816 Y64.418 E0.01613
G1 X126.674 Y64.722 E0.01051
G1 X126.502 Y65.008 E0.01047
G1 X126.336 Y65.226 E0.00860
G1 X126.036 Y64.998 F10800.000
;TYPE:External perimeter
G1 F1200.000
G1 X125.810 Y65.243 E0.01044
G1 X125.587 Y65.433 E0.00920
G1 X125.344 Y65.597 E0.00920
G1 X125.085 Y65.735 E0.00918
G1 X124.846 Y65.832 E0.00811
G1 X124.405 Y65.947 E0.01429
G1 X123.946 Y65.986 E0.01442
G1 X123.488 Y65.947 E0.01442
G1 X123.047 Y65.832 E0.01429
G1 X122.808 Y65.735 E0.00811
G1 X122.549 Y65.597 E0.00918
G1 X122.306 Y65.433 E0.00920
G1 X122.083 Y65.243 E0.00920
G1 X121.881 Y65.030 E0.00920
G1 X121.703 Y64.796 E0.00920
G1 X121.552 Y64.545 E0.00920
G1 X121.430 Y64.283 E0.00906
G1 X121.297 Y63.846 E0.01431
G1 X121.239 Y63.394 E0.01429
G1 X121.240 Y63.128 E0.00835
G1 X121.272 Y62.837 E0.00918
G1 X121.335 Y62.550 E0.00920
G1 X121.429 Y62.272 E0.00920
G1 X121.552 Y62.006 E0.00920
G1 X121.703 Y61.754 E0.00920
G1 X121.881 Y61.521 E0.00919
G1 X122.074 Y61.316 E0.00883
G1 X122.428 Y61.029 E0.01430
G1 X122.827 Y60.807 E0.01430
G1 X123.081 Y60.707 E0.00859
G1 X123.364 Y60.628 E0.00919
G1 X123.653 Y60.581 E0.00920
G1 X123.939 Y60.565 E0.00897
G1 X124.239 Y60.581 E0.00942
G1 X124.529 Y60.628 E0.00921
G1 X124.811 Y60.707 E0.00919
G1 X125.066 Y60.807 E0.00859
G1 X125.464 Y61.029 E0.01430
G1 X125.819 Y61.316 E0.01430
G1 X126.012 Y61.521 E0.00883
G1 X126.190 Y61.754 E0.00919
G1 X126.341 Y62.006 E0.00920
G1 X126.464 Y62.272 E0.00920
G1 X126.558 Y62.550 E0.00920
G1 X126.621 Y62.837 E0.00920
G1 X126.653 Y63.128 E0.00918
G1 X126.654 Y63.394 E0.00835
G1 X126.596 Y63.846 E0.01429
G1 X126.463 Y64.283 E0.01431
G1 X126.341 Y64.545 E0.00906
G1 X126.190 Y64.796 E0.00920
G1 X126.072 Y64.950 E0.00608
G1 X126.151 Y65.311 F10800.000
;WIPE_START
G1 F8640.000
G1 X125.810 Y65.243 E-0.09065
G1 X125.587 Y65.433 E-0.06776
G1 X125.344 Y65.597 E-0.06776
G1 X125.085 Y65.735 E-0.06758
G1 X124.846 Y65.832 E-0.05971
G1 X124.405 Y65.947 E-0.10524
G1 X123.946 Y65.986 E-0.10616
G1 X123.488 Y65.947 E-0.10616
G1 X123.115 Y65.850 E-0.08896
;WIPE_END
G1 E-0.04000 F2100.000
G1 Z0.600 F10800.000
G1 X118.611 Y52.178
G1 Z0.200
G1 E0.80000 F2100.000
;TYPE:Perimeter
G1 F1200.000
G1 X118.089 Y52.222 E0.01643
G1 X117.566 Y52.178 E0.01643
G1 X117.070 Y52.049 E0.01608
G1 X116.790 Y51.934 E0.00949
G1 X116.497 Y51.779 E0.01042
G1 X116.220 Y51.591 E0.01048
G1 X115.965 Y51.375 E0.01048
G1 X115.735 Y51.132 E0.01048
G1 X115.533 Y50.866 E0.01048
G1 X115.361 Y50.580 E0.01047
G1 X115.219 Y50.276 E0.01051
G1 X115.069 Y49.784 E0.01613
G1 X115.004 Y49.275 E0.01609
G1 X115.005 Y48.964 E0.00974
G1 X115.041 Y48.633 E0.01043
G1 X115.113 Y48.307 E0.01048
G1 X115.220 Y47.990 E0.01048
G1 X115.360 Y47.687 E0.01048
G1 X115.533 Y47.400 E0.01048
G1 X115.735 Y47.135 E0.01046
G1 X115.959 Y46.896 E0.01025
G1 X116.359 Y46.574 E0.01612
G1 X116.807 Y46.323 E0.01610
G1 X117.104 Y46.206 E0.01000
G1 X117.425 Y46.117 E0.01044
G1 X117.755 Y46.063 E0.01048
G1 X118.088 Y46.045 E0.01047
G1 X118.422 Y46.063 E0.01050
G1 X118.752 Y46.117 E0.01049
G1 X119.073 Y46.206 E0.01044
G1 X119.370 Y46.323 E0.01000
G1 X119.818 Y46.574 E0.01610
G1 X120.218 Y46.896 E0.01612
G1 X120.443 Y47.135 E0.01025
G1 X120.644 Y47.400 E0.01046
G1 X120.817 Y47.687 E0.01048
G1 X120.957 Y47.990 E0.01048
G1 X121.064 Y48.307 E0.01048
G1 X121.136 Y48.633 E0.01048
G1 X121.172 Y48.964 E0.01043
G1 X121.174 Y49.275 E0.00974
G1 X121.108 Y49.784 E0.01609
G1 X120.958 Y50.276 E0.01613
G1 X120.817 Y50.580 E0.01051
G1 X120.644 Y50.866 E0.01047
G1 X120.442 Y51.132 E0.01048
G1 X120.212 Y51.375 E0.01048
G1 X119.957 Y51.591 E0.01048
G1 X119.681 Y51.779 E0.01048
G1 X119.387 Y51.934 E0.01042
G1 X119.107 Y52.049 E0.00949
G1 X118.669 Y52.163 E0.01420
G1 X118.574 Y51.798 F10800.000
;TYPE:External perimeter
G1 F1200.000
G1 X118.089 Y51.844 E0.01528
G1 X117.630 Y51.805 E0.01442
G1 X117.189 Y51.690 E0.01429
G1 X116.950 Y51.592 E0.00811
G1 X116.691 Y51.455 E0.00918
G1 X116.448 Y51.291 E0.00920
G1 X116.225 Y51.101 E0.00920
G1 X116.023 Y50.888 E0.00920
G1 X115.845 Y50.654 E0.00920
G1 X115.694 Y50.403 E0.00920
G1 X115.572 Y50.140 E0.00906
G1 X115.439 Y49.704 E0.01431
G1 X115.381 Y49.252 E0.01429
G1 X115.382 Y48.986 E0.00835
G1 X115.414 Y48.694 E0.00918
G1 X115.477 Y48.408 E0.00920
G1 X115.571 Y48.130 E0.00920
G1 X115.694 Y47.863 E0.00920
G1 X115.845 Y47.612 E0.00920
G1 X116.023 Y47.379 E0.00919
G1 X116.216 Y47.174 E0.00883
G1 X116.571 Y46.887 E0.01430
G1 X116.969 Y46.665 E0.01430
G1 X117.224 Y46.564 E0.00859
G1 X117.506 Y46.486 E0.00919
G1 X117.796 Y46.439 E0.00920
G1 X118.088 Y46.423 E0.00918
G1 X118.382 Y46.439 E0.00922
G1 X118.671 Y46.486 E0.00920
G1 X118.954 Y46.564 E0.00919
G1 X119.208 Y46.665 E0.00859
G1 X119.607 Y46.887 E0.01430
G1 X119.961 Y47.174 E0.01430
G1 X120.154 Y47.379 E0.00883
G1 X120.332 Y47.612 E0.00919
G1 X120.483 Y47.863 E0.00920
G1 X120.606 Y48.130 E0.00920
G1 X120.700 Y48.408 E0.00920
G1 X120.763 Y48.694 E0.00920
G1 X120.795 Y48.986 E0.00918
G1 X120.796 Y49.252 E0.00835
G1 X120.738 Y49.704 E0.01429
G1 X120.605 Y50.140 E0.01431
G1 X120.483 Y50.403 E0.00906
G1 X120.332 Y50.654 E0.00920
G1 X120.154 Y50.888 E0.00920
G1 X119.952 Y51.101 E0.00920
G1 X119.729 Y51.291 E0.00920
G1 X119.486 Y51.455 E0.00920
G1 X119.227 Y51.592 E0.00918
G1 X118.988 Y51.690 E0.00811
G1 X118.632 Y51.783 E0.01153
G1 X118.433 Y52.172 F10800.000
;WIPE_START
G1 F8640.000
G1 X118.089 Y51.844 E-0.12622
G1 X117.630 Y51.805 E-0.10616
G1 X117.189 Y51.690 E-0.10524
G1 X116.950 Y51.592 E-0.05971
G1 X116.691 Y51.455 E-0.06758
G1 X116.448 Y51.291 E-0.06776
G1 X116.225 Y51.101 E-0.06776
G1 X116.023 Y50.888 E-0.06776
G1 X115.845 Y50.654 E-0.06776
G1 X115.792 Y50.565 E-0.02404
;WIPE_END
G1 E-0.04000 F2100.000
G1 Z0.600 F10800.000
G1 X106.966 Y43.926
G1 Z0.200
G1 E0.80000 F2100.000
;TYPE:Perimeter
G1 F1200.000
G1 X106.816 Y44.418 E0.01613
G1 X106.674 Y44.722 E0.01051
G1 X106.502 Y45.008 E0.01047
G1 X106.300 Y45.274 E0.01048
G1 X106.070 Y45.517 E0.01048
G1 X105.815 Y45.733 E0.01048
G1 X105.538 Y45.921 E0.01048
G1 X105.245 Y46.077 E0.01042
G1 X104.965 Y46.191 E0.00949
G1 X104.468 Y46.320 E0.01608
G1 X103.946 Y46.364 E0.01643
G1 X103.424 Y46.320 E0.01643
G1 X102.928 Y46.191 E0.01608
G1 X102.648 Y46.077 E0.00949
G1 X102.354 Y45.921 E0.01042
G1 X102.078 Y45.733 E0.01048
G1 X101.823 Y45.517 E0.01048
G1 X101.593 Y45.274 E0.01048
G1 X101.391 Y45.008 E0.01048
G1 X101.218 Y44.722 E0.01047
G1 X101.077 Y44.418 E0.01051
G1 X100.927 Y43.926 E0.01613
G1 X100.861 Y43.417 E0.01609
G1 X100.863 Y43.106 E0.00974
G1 X100.899 Y42.776 E0.01043
G1 X100.971 Y42.449 E0.01048
G1 X101.078 Y42.132 E0.01048
G1 X101.218 Y41.829 E0.01048
G1 X101.391 Y41.542 E0.01048
G1 X101.592 Y41.277 E0.01046
G1 X101.817 Y41.039 E0.01026
G1 X102.217 Y40.716 E0.01612
G1 X102.665 Y40.465 E0.01610
G1 X102.962 Y40.348 E0.01000
G1 X103.283 Y40.259 E0.01044
G1 X103.612 Y40.205 E0.01048
G1 X103.939 Y40.187 E0.01024
G1 X104.280 Y40.205 E0.01071
G1 X104.610 Y40.259 E0.01051
G1 X104.931 Y40.348 E0.01044
G1 X105.228 Y40.465 E0.01000
G1 X105.676 Y40.716 E0.01610
G1 X106.076 Y41.039 E0.01612
G1 X106.300 Y41.277 E0.01026
G1 X106.502 Y41.542 E0.01046
G1 X106.675 Y41.829 E0.01048
G1 X106.815 Y42.132 E0.01048
G1 X106.922 Y42.449 E0.01048
G1 X106.994 Y42.776 E0.01048
G1 X107.030 Y43.106 E0.01043
G1 X107.031 Y43.417 E0.00974
G1 X106.974 Y43.866 E0.01421
G1 X106.600 Y43.819 F10800.000
;TYPE:External perimeter
G1 F1200.000
G1 X106.463 Y44.283 E0.01517
G1 X106.341 Y44.545 E0.00906
G1 X106.190 Y44.796 E0.00920
G1 X106.012 Y45.030 E0.00920
G1 X105.810 Y45.243 E0.00920
G1 X105.587 Y45.433 E0.00920
G1 X105.344 Y45.597 E0.00920
G1 X105.085 Y45.735 E0.00918
G1 X104.846 Y45.832 E0.00811
G1 X104.405 Y45.947 E0.01429
G1 X103.946 Y45.986 E0.01442
G1 X103.488 Y45.947 E0.01442
G1 X103.047 Y45.832 E0.01429
G1 X102.808 Y45.735 E0.00811
G1 X102.549 Y45.597 E0.00918
G1 X102.306 Y45.433 E0.00920
G1 X102.083 Y45.243 E0.00920
G1 X101.881 Y45.030 E0.00920
G1 X101.703 Y44.796 E0.00920
G1 X101.552 Y44.545 E0.00920
G1 X101.430 Y44.283 E0.00906
G1 X101.297 Y43.846 E0.01431
G1 X101.239 Y43.394 E0.01429
G1 X101.240 Y43.128 E0.00835
G1 X101.272 Y42.837 E0.00918
G1 X101.335 Y42.550 E0.00920
G1 X101.429 Y42.272 E0.00920
G1 X101.552 Y42.006 E0.00920
G1 X101.703 Y41.754 E0.00920
G1 X101.881 Y41.521 E0.00919
G1 X102.074 Y41.316 E0.00883
G1 X102.428 Y41.029 E0.01430
G1 X102.827 Y40.807 E0.01430
G1 X103.081 Y40.707 E0.00859
G1 X103.364 Y40.628 E0.00919
G1 X103.653 Y40.581 E0.00920
G1 X103.939 Y40.565 E0.00897
G1 X104.239 Y40.581 E0.00942
G1 X104.529 Y40.628 E0.00921
G1 X104.811 Y40.707 E0.00919
G1 X105.066 Y40.807 E0.00859
G1 X105.464 Y41.029 E0.01430
G1 X105.819 Y41.316 E0.01430
G1 X106.012 Y41.521 E0.00883
G1 X106.190 Y41.754 E0.00919
G1 X106.341 Y42.006 E0.00920
G1 X106.464 Y42.272 E0.00920
G1 X106.558 Y42.550 E0.00920
G1 X106.621 Y42.837 E0.00920
G1 X106.653 Y43.128 E0.00918
G1 X106.654 Y43.394 E0.00835
G1 X106.608 Y43.759 E0.01154
G1 X106.895 Y44.088 F10800.000
;WIPE_START
G1 F8640.000
G1 X106.463 Y44.283 E-0.12543
G1 X106.341 Y44.545 E-0.06675
G1 X106.190 Y44.796 E-0.06773
G1 X106.012 Y45.030 E-0.06776
G1 X105.810 Y45.243 E-0.06776
G1 X105.587 Y45.433 E-0.06776
G1 X105.344 Y45.597 E-0.06776
G1 X105.085 Y45.735 E-0.06759
G1 X104.846 Y45.832 E-0.05971
G1 X104.419 Y45.943 E-0.10174
;WIPE_END
G1 E-0.04000 F2100.000
G1 Z0.600 F10800.000
