; generated by PrusaSlicer 2.3.3+win64 on 2022-01-21 at 16:00:48 UTC

; 

; external perimeters extrusion width = 0.45mm
; perimeters extrusion width = 0.45mm
; infill extrusion width = 0.45mm
; solid infill extrusion width = 0.45mm
; top infill extrusion width = 0.40mm
; first layer extrusion width = 0.42mm

; external perimeters extrusion width = 0.45mm
; perimeters extrusion width = 0.45mm
; infill extrusion width = 0.45mm
; solid infill extrusion width = 0.45mm
; top infill extrusion width = 0.40mm
; first layer extrusion width = 0.42mm

; external perimeters extrusion width = 0.45mm
; perimeters extrusion width = 0.45mm
; infill extrusion width = 0.45mm
; solid infill extrusion width = 0.45mm
; top infill extrusion width = 0.40mm
; first layer extrusion width = 0.42mm

; external perimeters extrusion width = 0.45mm
; perimeters extrusion width = 0.45mm
; infill extrusion width = 0.45mm
; solid infill extrusion width = 0.45mm
; top infill extrusion width = 0.40mm
; first layer extrusion width = 0.42mm

; external perimeters extrusion width = 0.45mm
; perimeters extrusion width = 0.45mm
; infill extrusion width = 0.45mm
; solid infill extrusion width = 0.45mm
; top infill extrusion width = 0.40mm
; first layer extrusion width = 0.42mm

; external perimeters extrusion width = 0.45mm
; perimeters extrusion width = 0.45mm
; infill extrusion width = 0.45mm
; solid infill extrusion width = 0.45mm
; top infill extrusion width = 0.40mm
; first layer extrusion width = 0.42mm

M73 P0 R116
M73 Q0 S117
M201 X1000 Y1000 Z200 E8000 ; sets maximum accelerations, mm/sec^2
M203 X200 Y200 Z12 E120 ; sets maximum feedrates, mm/sec
M204 P1250 R1250 T1250 ; sets acceleration (P, T) and retract acceleration (R), mm/sec^2
M205 X8.00 Y8.00 Z0.40 E4.50 ; sets the jerk limits, mm/sec
M205 S0 T0 ; sets the minimum extruding and travel feed rate, mm/sec
M107
;TYPE:Custom
M862.3 P "MK3SMMU2S" ; printer model check
M862.1 P0.4 ; nozzle diameter check
M115 U3.10.0 ; tell printer latest fw version
G90 ; use absolute coordinates
M83 ; extruder relative mode
M104 S215 ; set extruder temp
M140 S60 ; set bed temp
M190 S60 ; wait for bed temp
M109 S215 ; wait for extruder temp
G28 W ; home all without mesh bed level
G80 ; mesh bed leveling

; Send the filament type to the MMU2.0 unit.
; E stands for extruder number, F stands for filament type (0: default; 1:flex; 2: PVA)
M403 E0 F0
M403 E1 F0
M403 E2 F0
M403 E3 F0
M403 E4 F0


;go outside print area
G1 Y-3.0 F1000.0
G1 Z0.4 F1000.0
; select extruder
T1
; initial load
G1 X55.0 E29.0 F1073.0
G1 X5.0 E29.0 F1800.0
G1 X55.0 E8.0 F2000.0
G1 Z0.3 F1000.0
G92 E0.0
G1 X240.0 E25.0 F2200.0
G1 Y-2.0 F1000.0
G1 X55.0 E25 F1400.0
M73 P0 R115
G1 Z0.20 F1000.0
G1 X5.0 E4.0 F1000.0
G92 E0.0


M221 S95
G92 E0.0

; Don't change E values below. Excessive value can damage the printer.

M907 E538 ; set extruder motor current
G21 ; set units to millimeters
G90 ; use absolute coordinates
M83 ; use relative distances for extrusion
T1
M900 K0.05 ; Filament gcode LA 1.5
M900 K30 ; Filament gcode LA 1.0
G1 Z0.200 F10800.000
;LAYER_CHANGE
;Z:0.2
;HEIGHT:0.2
;BEFORE_LAYER_CHANGE
G92 E0.0
;0.2


G1 E-0.80000 F2100.000
G1 Z0.600 F10800.000
G1 Z0.200
;AFTER_LAYER_CHANGE
;0.2
G1 E-1.20000 F2100.000
G1 Z0.600 F10800.000
G1 X239.294 Y33.584
G1 Z0.200
G1 E2.00000 F2100.000
;HEIGHT:0.200000
;TYPE:Wipe tower
;WIDTH:0.500000
;-------------------------------------
; CP WIPE TOWER FIRST LAYER BRIM START
G1  X239.294 Y166.924  E7.6016 F2400
M73 Q0 S116
G1  X236.751 Y167.381   F7000
G1  Y33.127  E5.6128 F2100
G1  X175.837  E2.5466
G1  Y167.381  E5.6128
G1  X236.751  E2.5466
G1  X237.208 Y167.838   F7000
G1  Y32.670  E5.6510 F2100
G1  X175.380  E2.5849
G1  Y167.838  E5.6510
G1  X237.208  E2.5849
G1  X237.665 Y168.295   F7000
G1  Y32.213  E5.6892 F2100
M73 P1 R115
M73 Q1 S116
G1  X174.923  E2.6231
G1  Y168.295  E5.6892
G1  X237.665  E2.6231
G1  X238.122 Y168.752   F7000
G1  Y31.756  E5.7274 F2100
G1  X174.466  E2.6613
G1  Y168.752  E5.7274
G1  X238.122  E2.6613
; CP WIPE TOWER FIRST LAYER BRIM END
;-----------------------------------

;WIPE_START
G1 F8640.000
G1 X237.666 Y168.296 E-0.14926
G1 X235.021 Y168.296 E-0.61074
;WIPE_END
G1 E-0.04000 F2100.000
G1 Z0.600 F10800.000
G1 X239.569 Y30.298
M73 P1 R114
G1 Z0.200
G1 E0.80000 F2100.000
M204 S1000
;TYPE:Skirt
;WIDTH:0.42
;HEIGHT:0.2
G1 F1200.000
G1 X240.086 Y31.064 E0.02896
G1 X240.271 Y31.965 E0.02884
G1 X240.271 Y168.543 E4.28233
G1 X240.185 Y169.160 E0.01953
G1 X239.941 Y169.733 E0.01953
G1 X239.556 Y170.223 E0.01953
G1 X239.058 Y170.597 E0.01953
G1 X238.498 Y170.823 E0.01894
G1 X237.899 Y170.901 E0.01894
G1 X174.691 Y170.901 E1.98185
G1 X173.957 Y170.784 E0.02331
G1 X82.756 Y121.591 E3.24898
M73 Q1 S115
G1 X81.834 Y121.018 E0.03405
G1 X80.963 Y120.273 E0.03594
G1 X80.220 Y119.405 E0.03582
G1 X79.651 Y118.490 E0.03379
G1 X79.118 Y117.179 E0.04437
G1 X78.890 Y116.196 E0.03164
G1 X78.802 Y115.099 E0.03451
G1 X78.806 Y69.924 E1.41644
G1 X78.896 Y68.884 E0.03272
G1 X79.161 Y67.785 E0.03546
G1 X79.594 Y66.732 E0.03570
G1 X80.111 Y65.870 E0.03152
G1 X81.065 Y64.744 E0.04626
G1 X81.846 Y64.087 E0.03200
G1 X82.746 Y63.529 E0.03320
G1 X83.809 Y63.072 E0.03628
G1 X174.188 Y29.662 E3.02118
G1 X174.695 Y29.608 E0.01599
G1 X237.898 Y29.608 E1.98170
G1 X238.800 Y29.787 E0.02884
G1 X239.519 Y30.265 E0.02707
; printing object body350 id:0 copy 0
;WIPE_START
G1 F8640.000
G1 X240.086 Y31.064 E-0.22611
G1 X240.271 Y31.965 E-0.21237
G1 X240.271 Y33.357 E-0.32152
;WIPE_END
G1 E-0.04000 F2100.000
G1 Z0.600 F10800.000
G1 X131.309 Y90.504
G1 Z0.200
G1 E0.80000 F2100.000
;TYPE:Perimeter
G1 F1200.000
G1 X131.536 Y90.953 E0.01577
G1 X131.698 Y91.471 E0.01701
G1 X131.765 Y91.993 E0.01650
G1 X131.743 Y92.516 E0.01643
G1 X131.633 Y93.028 E0.01643
G1 X131.445 Y93.495 E0.01577
G1 X131.164 Y93.959 E0.01701
G1 X130.816 Y94.354 E0.01650
G1 X130.409 Y94.683 E0.01643
G1 X129.951 Y94.939 E0.01643
G1 X129.457 Y95.113 E0.01643
G1 X128.953 Y95.200 E0.01604
G1 X128.405 Y95.200 E0.01720
G1 X127.900 Y95.113 E0.01604
G1 X127.406 Y94.939 E0.01643
G1 X126.949 Y94.683 E0.01643
G1 X126.541 Y94.354 E0.01643
G1 X126.195 Y93.961 E0.01643
G1 X125.920 Y93.514 E0.01643
G1 X125.725 Y93.028 E0.01643
G1 X125.619 Y92.537 E0.01577
G1 X125.592 Y91.995 E0.01701
G1 X125.659 Y91.473 E0.01650
G1 X125.812 Y90.972 E0.01643
G1 X126.048 Y90.504 E0.01643
G1 X126.360 Y90.083 E0.01643
G1 X126.738 Y89.720 E0.01643
G1 X127.172 Y89.427 E0.01643
G1 X127.650 Y89.211 E0.01643
G1 X128.157 Y89.079 E0.01643
G1 X128.658 Y89.036 E0.01577
G1 X129.199 Y89.078 E0.01701
G1 X129.708 Y89.211 E0.01650
G1 X130.185 Y89.427 E0.01643
G1 X130.620 Y89.720 E0.01643
G1 X130.998 Y90.083 E0.01643
G1 X131.274 Y90.456 E0.01455
G1 X130.971 Y90.680 F10800.000
;TYPE:External perimeter
G1 F1200.000
G1 X131.185 Y91.095 E0.01466
G1 X131.329 Y91.552 E0.01500
G1 X131.387 Y92.009 E0.01444
G1 X131.368 Y92.468 E0.01442
G1 X131.271 Y92.917 E0.01442
G1 X131.107 Y93.326 E0.01380
G1 X130.859 Y93.735 E0.01500
G1 X130.555 Y94.081 E0.01444
G1 X130.197 Y94.370 E0.01442
G1 X129.795 Y94.594 E0.01442
G1 X129.362 Y94.747 E0.01442
G1 X128.913 Y94.824 E0.01428
G1 X128.445 Y94.824 E0.01469
G1 X127.996 Y94.747 E0.01428
G1 X127.562 Y94.594 E0.01442
G1 X127.161 Y94.370 E0.01442
G1 X126.803 Y94.081 E0.01442
G1 X126.499 Y93.736 E0.01442
G1 X126.258 Y93.344 E0.01442
G1 X126.087 Y92.917 E0.01442
G1 X125.994 Y92.487 E0.01380
G1 X125.970 Y92.009 E0.01500
G1 X126.029 Y91.553 E0.01444
G1 X126.164 Y91.113 E0.01442
G1 X126.371 Y90.702 E0.01442
G1 X126.644 Y90.333 E0.01442
G1 X126.976 Y90.015 E0.01442
G1 X127.357 Y89.757 E0.01442
G1 X127.776 Y89.568 E0.01442
G1 X128.221 Y89.452 E0.01442
G1 X128.659 Y89.415 E0.01380
G1 X129.136 Y89.452 E0.01500
G1 X129.582 Y89.568 E0.01444
G1 X130.001 Y89.757 E0.01442
G1 X130.382 Y90.015 E0.01442
G1 X130.714 Y90.333 E0.01442
G1 X130.935 Y90.632 E0.01166
G1 X131.370 Y90.666 F10800.000
;WIPE_START
G1 F8640.000
G1 X131.185 Y91.095 E-0.12169
G1 X131.329 Y91.552 E-0.11046
G1 X131.387 Y92.009 E-0.10634
G1 X131.368 Y92.468 E-0.10616
G1 X131.271 Y92.917 E-0.10616
G1 X131.107 Y93.326 E-0.10164
G1 X130.865 Y93.724 E-0.10755
;WIPE_END
G1 E-0.04000 F2100.000
G1 Z0.600 F10800.000
G1 X140.592 Y86.970
G1 Z0.200
G1 E0.80000 F2100.000
;TYPE:Perimeter
G1 F1200.000
G1 X156.766 Y86.970 E0.50713
G1 X156.766 Y97.711 E0.33677
G1 X140.592 Y97.711 E0.50713
G1 X140.592 Y87.030 E0.33489
G1 X140.969 Y87.347 F10800.000
;TYPE:External perimeter
G1 F1200.000
G1 X156.389 Y87.347 E0.48348
G1 X156.389 Y97.334 E0.31313
G1 X140.969 Y97.334 E0.48348
G1 X140.969 Y87.407 E0.31125
G1 X140.839 Y86.969 F10800.000
;WIPE_START
G1 F8640.000
G1 X144.260 Y87.394 E-0.76000
;WIPE_END
G1 E-0.04000 F2100.000
G1 Z0.600 F10800.000
G1 X125.579 Y79.372
G1 Z0.200
G1 E0.80000 F2100.000
;TYPE:Perimeter
G1 F1200.000
G1 X125.305 Y79.819 E0.01643
G1 X124.959 Y80.212 E0.01643
G1 X124.551 Y80.541 E0.01643
G1 X124.093 Y80.797 E0.01643
G1 X123.599 Y80.971 E0.01643
G1 X123.095 Y81.058 E0.01604
G1 X122.821 Y81.069 E0.00861
G1 X122.547 Y81.058 E0.00861
G1 X122.043 Y80.971 E0.01604
G1 X121.549 Y80.797 E0.01643
G1 X121.091 Y80.541 E0.01643
G1 X120.683 Y80.212 E0.01643
G1 X120.337 Y79.819 E0.01643
G1 X120.063 Y79.372 E0.01643
G1 X119.867 Y78.886 E0.01643
G1 X119.757 Y78.374 E0.01643
G1 X119.735 Y77.850 E0.01643
G1 X119.801 Y77.331 E0.01643
G1 X119.955 Y76.830 E0.01643
G1 X120.190 Y76.362 E0.01643
G1 X120.502 Y75.941 E0.01643
G1 X120.880 Y75.578 E0.01643
G1 X121.314 Y75.285 E0.01643
G1 X121.792 Y75.069 E0.01643
G1 X122.299 Y74.937 E0.01643
G1 X122.800 Y74.894 E0.01577
G1 X123.341 Y74.936 E0.01701
G1 X123.850 Y75.069 E0.01650
G1 X124.328 Y75.285 E0.01643
G1 X124.762 Y75.578 E0.01643
G1 X125.140 Y75.941 E0.01643
G1 X125.452 Y76.362 E0.01643
G1 X125.678 Y76.811 E0.01577
G1 X125.841 Y77.329 E0.01701
G1 X125.907 Y77.850 E0.01650
G1 X125.885 Y78.374 E0.01643
G1 X125.775 Y78.886 E0.01643
G1 X125.602 Y79.317 E0.01455
G1 X125.252 Y79.176 F10800.000
;TYPE:External perimeter
G1 F1200.000
G1 X125.000 Y79.593 E0.01528
G1 X124.697 Y79.939 E0.01442
G1 X124.339 Y80.227 E0.01442
G1 X123.938 Y80.452 E0.01442
G1 X123.504 Y80.605 E0.01442
G1 X123.055 Y80.682 E0.01428
G1 X122.821 Y80.692 E0.00735
G1 X122.587 Y80.682 E0.00735
G1 X122.138 Y80.605 E0.01428
G1 X121.704 Y80.452 E0.01442
G1 X121.303 Y80.227 E0.01442
G1 X120.945 Y79.939 E0.01442
G1 X120.642 Y79.593 E0.01442
G1 X120.401 Y79.202 E0.01442
G1 X120.229 Y78.775 E0.01442
G1 X120.132 Y78.326 E0.01442
G1 X120.113 Y77.867 E0.01442
G1 X120.171 Y77.410 E0.01442
G1 X120.306 Y76.971 E0.01442
G1 X120.513 Y76.560 E0.01442
G1 X120.786 Y76.191 E0.01442
G1 X121.118 Y75.873 E0.01442
G1 X121.499 Y75.615 E0.01442
G1 X121.918 Y75.426 E0.01442
G1 X122.363 Y75.310 E0.01442
G1 X122.801 Y75.272 E0.01380
G1 X123.278 Y75.310 E0.01500
G1 X123.724 Y75.426 E0.01444
G1 X124.143 Y75.615 E0.01442
G1 X124.524 Y75.873 E0.01442
G1 X124.856 Y76.191 E0.01442
G1 X125.129 Y76.560 E0.01442
G1 X125.327 Y76.953 E0.01380
G1 X125.471 Y77.410 E0.01500
G1 X125.529 Y77.867 E0.01444
G1 X125.510 Y78.326 E0.01442
G1 X125.413 Y78.775 E0.01442
G1 X125.274 Y79.120 E0.01166
G1 X125.474 Y79.509 F10800.000
;WIPE_START
G1 F8640.000
G1 X125.000 Y79.593 E-0.12622
G1 X124.697 Y79.939 E-0.10616
G1 X124.339 Y80.227 E-0.10616
G1 X123.938 Y80.452 E-0.10616
G1 X123.504 Y80.605 E-0.10616
G1 X123.055 Y80.682 E-0.10513
G1 X122.821 Y80.692 E-0.05415
G1 X122.605 Y80.683 E-0.04985
;WIPE_END
G1 E-0.04000 F2100.000
G1 Z0.600 F10800.000
G1 X111.437 Y73.514
G1 Z0.200
G1 E0.80000 F2100.000
;TYPE:Perimeter
G1 F1200.000
G1 X111.163 Y73.961 E0.01643
G1 X110.816 Y74.354 E0.01643
G1 X110.409 Y74.683 E0.01643
G1 X109.951 Y74.939 E0.01643
G1 X109.457 Y75.113 E0.01643
G1 X108.953 Y75.200 E0.01604
G1 X108.679 Y75.211 E0.00861
G1 X108.405 Y75.200 E0.00861
G1 X107.900 Y75.113 E0.01604
G1 X107.406 Y74.939 E0.01643
G1 X106.949 Y74.683 E0.01643
G1 X106.541 Y74.354 E0.01643
G1 X106.195 Y73.961 E0.01643
G1 X105.931 Y73.532 E0.01577
G1 X105.726 Y73.030 E0.01701
G1 X105.615 Y72.516 E0.01650
G1 X105.592 Y71.993 E0.01643
G1 X105.659 Y71.473 E0.01643
G1 X105.812 Y70.972 E0.01643
G1 X106.048 Y70.504 E0.01643
G1 X106.360 Y70.083 E0.01643
G1 X106.738 Y69.720 E0.01643
G1 X107.172 Y69.427 E0.01643
G1 X107.650 Y69.211 E0.01643
G1 X108.157 Y69.079 E0.01643
G1 X108.658 Y69.036 E0.01577
G1 X109.199 Y69.078 E0.01701
G1 X109.708 Y69.211 E0.01650
G1 X110.185 Y69.427 E0.01643
G1 X110.620 Y69.720 E0.01643
G1 X110.998 Y70.083 E0.01643
G1 X111.309 Y70.504 E0.01643
G1 X111.545 Y70.972 E0.01643
G1 X111.699 Y71.473 E0.01643
G1 X111.765 Y71.993 E0.01643
G1 X111.743 Y72.516 E0.01643
G1 X111.633 Y73.028 E0.01643
G1 X111.460 Y73.459 E0.01455
G1 X111.110 Y73.318 F10800.000
;TYPE:External perimeter
G1 F1200.000
G1 X110.858 Y73.736 E0.01528
G1 X110.555 Y74.081 E0.01442
G1 X110.197 Y74.370 E0.01442
G1 X109.795 Y74.594 E0.01442
G1 X109.362 Y74.747 E0.01442
G1 X108.913 Y74.824 E0.01428
G1 X108.679 Y74.834 E0.00735
G1 X108.445 Y74.824 E0.00735
G1 X107.996 Y74.747 E0.01428
G1 X107.562 Y74.594 E0.01442
G1 X107.161 Y74.370 E0.01442
G1 X106.803 Y74.081 E0.01442
G1 X106.499 Y73.736 E0.01442
G1 X106.269 Y73.361 E0.01380
G1 X106.087 Y72.918 E0.01500
G1 X105.990 Y72.468 E0.01444
G1 X105.971 Y72.009 E0.01442
G1 X106.029 Y71.553 E0.01442
G1 X106.164 Y71.113 E0.01442
G1 X106.371 Y70.702 E0.01442
G1 X106.644 Y70.333 E0.01442
G1 X106.976 Y70.015 E0.01442
G1 X107.357 Y69.757 E0.01442
G1 X107.776 Y69.568 E0.01442
G1 X108.221 Y69.452 E0.01442
G1 X108.659 Y69.415 E0.01380
G1 X109.136 Y69.452 E0.01500
G1 X109.582 Y69.568 E0.01444
G1 X110.001 Y69.757 E0.01442
G1 X110.382 Y70.015 E0.01442
G1 X110.714 Y70.333 E0.01442
G1 X110.987 Y70.702 E0.01442
G1 X111.194 Y71.113 E0.01442
G1 X111.329 Y71.553 E0.01442
G1 X111.387 Y72.009 E0.01442
G1 X111.368 Y72.468 E0.01442
G1 X111.271 Y72.917 E0.01442
G1 X111.132 Y73.263 E0.01166
G1 X111.332 Y73.651 F10800.000
;WIPE_START
G1 F8640.000
G1 X110.858 Y73.736 E-0.12621
G1 X110.555 Y74.081 E-0.10616
G1 X110.197 Y74.370 E-0.10617
G1 X109.795 Y74.594 E-0.10616
G1 X109.362 Y74.747 E-0.10616
G1 X108.913 Y74.824 E-0.10513
G1 X108.679 Y74.834 E-0.05415
G1 X108.463 Y74.825 E-0.04985
;WIPE_END
G1 E-0.04000 F2100.000
G1 Z0.600 F10800.000
G1 X97.556 Y77.329
G1 Z0.200
G1 E0.80000 F2100.000
;TYPE:Perimeter
G1 F1200.000
G1 X97.623 Y77.850 E0.01650
G1 X97.601 Y78.374 E0.01643
G1 X97.491 Y78.886 E0.01643
G1 X97.303 Y79.353 E0.01577
G1 X97.022 Y79.817 E0.01701
G1 X96.674 Y80.212 E0.01650
G1 X96.267 Y80.541 E0.01643
G1 X95.809 Y80.797 E0.01643
G1 X95.315 Y80.971 E0.01643
G1 X94.811 Y81.058 E0.01604
G1 X94.262 Y81.058 E0.01720
G1 X93.758 Y80.971 E0.01604
G1 X93.264 Y80.797 E0.01643
G1 X92.807 Y80.541 E0.01643
G1 X92.399 Y80.212 E0.01643
G1 X92.053 Y79.819 E0.01643
G1 X91.778 Y79.372 E0.01643
G1 X91.583 Y78.886 E0.01643
G1 X91.473 Y78.374 E0.01643
G1 X91.450 Y77.850 E0.01643
G1 X91.517 Y77.331 E0.01643
G1 X91.670 Y76.830 E0.01643
G1 X91.906 Y76.362 E0.01643
G1 X92.218 Y75.941 E0.01643
G1 X92.596 Y75.578 E0.01643
G1 X93.030 Y75.285 E0.01643
G1 X93.508 Y75.069 E0.01643
G1 X94.015 Y74.937 E0.01643
G1 X94.516 Y74.894 E0.01577
G1 X95.057 Y74.936 E0.01701
G1 X95.566 Y75.069 E0.01650
G1 X96.043 Y75.285 E0.01643
G1 X96.477 Y75.578 E0.01643
G1 X96.856 Y75.941 E0.01643
G1 X97.167 Y76.362 E0.01643
G1 X97.394 Y76.811 E0.01577
G1 X97.538 Y77.271 E0.01513
G1 X97.179 Y77.384 F10800.000
;TYPE:External perimeter
G1 F1200.000
G1 X97.245 Y77.867 E0.01526
G1 X97.226 Y78.326 E0.01442
G1 X97.129 Y78.775 E0.01442
G1 X96.965 Y79.184 E0.01380
G1 X96.717 Y79.593 E0.01500
G1 X96.412 Y79.939 E0.01444
G1 X96.055 Y80.227 E0.01442
G1 X95.653 Y80.452 E0.01442
G1 X95.220 Y80.605 E0.01442
G1 X94.771 Y80.682 E0.01428
G1 X94.302 Y80.682 E0.01469
G1 X93.854 Y80.605 E0.01428
G1 X93.420 Y80.452 E0.01442
G1 X93.019 Y80.227 E0.01442
G1 X92.661 Y79.939 E0.01442
G1 X92.357 Y79.593 E0.01442
G1 X92.116 Y79.202 E0.01442
G1 X91.945 Y78.775 E0.01442
G1 X91.848 Y78.326 E0.01442
G1 X91.828 Y77.867 E0.01442
G1 X91.887 Y77.410 E0.01442
G1 X92.021 Y76.971 E0.01442
G1 X92.228 Y76.560 E0.01442
G1 X92.502 Y76.191 E0.01442
G1 X92.834 Y75.873 E0.01442
G1 X93.215 Y75.615 E0.01442
