; generated by PrusaSlicer 2.3.3+win64 on 2022-02-02 at 10:02:24 UTC

; 

; external perimeters extrusion width = 0.45mm
; perimeters extrusion width = 0.45mm
; infill extrusion width = 0.45mm
; solid infill extrusion width = 0.45mm
; top infill extrusion width = 0.40mm
; first layer extrusion width = 0.42mm

; external perimeters extrusion width = 0.45mm
; perimeters extrusion width = 0.45mm
; infill extrusion width = 0.45mm
; solid infill extrusion width = 0.45mm
; top infill extrusion width = 0.40mm
; first layer extrusion width = 0.42mm

; external perimeters extrusion width = 0.60mm
; perimeters extrusion width = 0.50mm
; infill extrusion width = 0.50mm
; solid infill extrusion width = 0.50mm
; top infill extrusion width = 0.45mm
; first layer extrusion width = 0.42mm

; external perimeters extrusion width = 0.60mm
; perimeters extrusion width = 0.50mm
; infill extrusion width = 0.50mm
; solid infill extrusion width = 0.50mm
; top infill extrusion width = 0.45mm
; first layer extrusion width = 0.42mm

; external perimeters extrusion width = 0.60mm
; perimeters extrusion width = 0.50mm
; infill extrusion width = 0.50mm
; solid infill extrusion width = 0.50mm
; top infill extrusion width = 0.45mm
; first layer extrusion width = 0.42mm

; external perimeters extrusion width = 0.60mm
; perimeters extrusion width = 0.50mm
; infill extrusion width = 0.50mm
; solid infill extrusion width = 0.50mm
; top infill extrusion width = 0.45mm
; first layer extrusion width = 0.42mm

M73 P0 R115
M73 Q0 S116
M201 X1000 Y1000 Z200 E8000 ; sets maximum accelerations, mm/sec^2
M203 X200 Y200 Z12 E120 ; sets maximum feedrates, mm/sec
M204 P1250 R1250 T1250 ; sets acceleration (P, T) and retract acceleration (R), mm/sec^2
M205 X8.00 Y8.00 Z0.40 E4.50 ; sets the jerk limits, mm/sec
M205 S0 T0 ; sets the minimum extruding and travel feed rate, mm/sec
M107
;TYPE:Custom
M862.3 P "MK3SMMU2S" ; printer model check
M862.1 P0.4 ; nozzle diameter check
M115 U3.10.0 ; tell printer latest fw version
G90 ; use absolute coordinates
M83 ; extruder relative mode
M104 S215 ; set extruder temp
M140 S60 ; set bed temp
M190 S60 ; wait for bed temp
M109 S215 ; wait for extruder temp
G28 W ; home all without mesh bed level
G80 ; mesh bed leveling

; Send the filament type to the MMU2.0 unit.
; E stands for extruder number, F stands for filament type (0: default; 1:flex; 2: PVA)
M403 E0 F0
M403 E1 F0
M403 E2 F0
M403 E3 F0
M403 E4 F0


;go outside print area
G1 Y-3.0 F1000.0
M73 P0 R114
G1 Z0.4 F1000.0
; select extruder
T1
; initial load
G1 X55.0 E29.0 F1073.0
G1 X5.0 E29.0 F1800.0
G1 X55.0 E8.0 F2000.0
G1 Z0.3 F1000.0
G92 E0.0
G1 X240.0 E25.0 F2200.0
M73 Q0 S115
G1 Y-2.0 F1000.0
G1 X55.0 E25 F1400.0
G1 Z0.20 F1000.0
G1 X5.0 E4.0 F1000.0
G92 E0.0


M221 S95
G92 E0.0

; Don't change E values below. Excessive value can damage the printer.

M907 E538 ; set extruder motor current
G21 ; set units to millimeters
G90 ; use absolute coordinates
M83 ; use relative distances for extrusion
T1
M900 K0.05 ; Filament gcode LA 1.5
M900 K30 ; Filament gcode LA 1.0
G1 Z0.200 F10800.000
;LAYER_CHANGE
;Z:0.2
;HEIGHT:0.2
;BEFORE_LAYER_CHANGE
G92 E0.0
;0.2


G1 E-0.80000 F2100.000
G1 Z0.600 F10800.000
G1 Z0.200
;AFTER_LAYER_CHANGE
;0.2
G1 E-1.20000 F2100.000
G1 Z0.600 F10800.000
G1 X241.616 Y16.705
G1 Z0.200
G1 E2.00000 F2100.000
;HEIGHT:0.200000
;TYPE:Wipe tower
;WIDTH:0.500000
;-------------------------------------
; CP WIPE TOWER FIRST LAYER BRIM START
G1  X241.616 Y138.045  E6.9175 F2400
G1  X239.073 Y138.502   F7000
G1  Y16.248  E5.1111 F2100
G1  X178.159  E2.5466
G1  Y138.502  E5.1111
G1  X239.073  E2.5466
G1  X239.530 Y138.959   F7000
G1  Y15.791  E5.1493 F2100
G1  X177.702  E2.5849
G1  Y138.959  E5.1493
G1  X239.530  E2.5849
G1  X239.987 Y139.416   F7000
G1  Y15.334  E5.1875 F2100
M73 P0 R113
G1  X177.245  E2.6231
M73 P1 R113
M73 Q1 S115
G1  Y139.416  E5.1875
G1  X239.987  E2.6231
G1  X240.444 Y139.873   F7000
G1  Y14.877  E5.2257 F2100
G1  X176.788  E2.6613
G1  Y139.873  E5.2257
M73 Q1 S114
G1  X240.444  E2.6613
; CP WIPE TOWER FIRST LAYER BRIM END
;-----------------------------------

; printing object body352 id:0 copy 0
;WIPE_START
G1 F8640.000
G1 X239.987 Y139.416 E-0.14926
G1 X237.342 Y139.416 E-0.61074
;WIPE_END
G1 E-0.04000 F2100.000
G1 Z0.600 F10800.000
G1 X132.866 Y106.585
G1 Z0.200
G1 E0.80000 F2100.000
M204 S1000
;TYPE:Perimeter
;WIDTH:0.42
;HEIGHT:0.2
G1 F1200.000
G1 X132.631 Y107.053 E0.01643
G1 X132.319 Y107.474 E0.01643
G1 X131.941 Y107.837 E0.01643
G1 X131.507 Y108.130 E0.01643
G1 X131.029 Y108.346 E0.01643
G1 X130.522 Y108.478 E0.01643
G1 X130.000 Y108.522 E0.01643
G1 X129.478 Y108.478 E0.01643
G1 X128.971 Y108.346 E0.01643
G1 X128.493 Y108.130 E0.01643
G1 X128.059 Y107.837 E0.01643
G1 X127.681 Y107.474 E0.01643
G1 X127.369 Y107.053 E0.01643
G1 X127.134 Y106.585 E0.01643
G1 X126.980 Y106.084 E0.01643
G1 X126.914 Y105.564 E0.01643
G1 X126.936 Y105.041 E0.01643
G1 X127.046 Y104.529 E0.01643
G1 X127.234 Y104.062 E0.01577
G1 X127.515 Y103.598 E0.01701
G1 X127.862 Y103.203 E0.01650
G1 X128.270 Y102.874 E0.01643
G1 X128.728 Y102.618 E0.01643
G1 X129.222 Y102.444 E0.01643
G1 X129.726 Y102.357 E0.01604
G1 X130.273 Y102.357 E0.01717
G1 X130.778 Y102.444 E0.01607
G1 X131.272 Y102.618 E0.01643
G1 X131.730 Y102.874 E0.01643
G1 X132.138 Y103.203 E0.01643
G1 X132.484 Y103.596 E0.01643
G1 X132.758 Y104.043 E0.01643
G1 X132.954 Y104.529 E0.01643
G1 X133.064 Y105.041 E0.01643
G1 X133.086 Y105.564 E0.01643
G1 X133.020 Y106.084 E0.01643
G1 X132.884 Y106.528 E0.01455
G1 X132.523 Y106.417 F10800.000
;TYPE:External perimeter
G1 F1200.000
G1 X132.308 Y106.855 E0.01528
G1 X132.035 Y107.224 E0.01442
G1 X131.703 Y107.542 E0.01442
G1 X131.322 Y107.800 E0.01442
G1 X130.903 Y107.989 E0.01442
G1 X130.458 Y108.105 E0.01442
G1 X130.000 Y108.144 E0.01442
G1 X129.542 Y108.105 E0.01442
G1 X129.097 Y107.989 E0.01442
G1 X128.678 Y107.800 E0.01442
G1 X128.297 Y107.542 E0.01442
G1 X127.965 Y107.224 E0.01442
G1 X127.692 Y106.855 E0.01442
G1 X127.485 Y106.444 E0.01442
G1 X127.350 Y106.004 E0.01442
G1 X127.292 Y105.548 E0.01442
G1 X127.311 Y105.089 E0.01442
G1 X127.408 Y104.639 E0.01442
G1 X127.572 Y104.231 E0.01380
G1 X127.820 Y103.822 E0.01500
G1 X128.124 Y103.476 E0.01444
G1 X128.482 Y103.187 E0.01442
G1 X128.883 Y102.963 E0.01442
G1 X129.317 Y102.810 E0.01442
G1 X129.766 Y102.733 E0.01428
G1 X130.234 Y102.733 E0.01468
G1 X130.683 Y102.810 E0.01429
G1 X131.117 Y102.963 E0.01442
G1 X131.518 Y103.187 E0.01442
G1 X131.876 Y103.476 E0.01442
G1 X132.179 Y103.821 E0.01442
G1 X132.421 Y104.213 E0.01442
G1 X132.592 Y104.639 E0.01442
G1 X132.689 Y105.089 E0.01442
G1 X132.708 Y105.548 E0.01442
G1 X132.650 Y106.004 E0.01442
G1 X132.541 Y106.360 E0.01166
G1 X132.773 Y106.730 F10800.000
;WIPE_START
G1 F8640.000
G1 X132.308 Y106.855 E-0.12622
G1 X132.035 Y107.224 E-0.10616
G1 X131.703 Y107.542 E-0.10616
G1 X131.322 Y107.800 E-0.10616
G1 X130.903 Y107.989 E-0.10616
G1 X130.458 Y108.105 E-0.10616
G1 X130.014 Y108.143 E-0.10296
;WIPE_END
G1 E-0.04000 F2100.000
G1 Z0.600 F10800.000
G1 X141.969 Y107.455
G1 Z0.200
G1 E0.80000 F2100.000
;TYPE:Perimeter
G1 F1200.000
G1 X142.098 Y107.035 E0.01377
G1 X142.295 Y106.642 E0.01377
G1 X142.556 Y106.289 E0.01377
G1 X142.873 Y105.986 E0.01377
G1 X143.237 Y105.740 E0.01377
G1 X143.637 Y105.559 E0.01377
G1 X144.062 Y105.448 E0.01377
G1 X144.466 Y105.414 E0.01270
G1 X144.934 Y105.447 E0.01470
G1 X145.363 Y105.559 E0.01390
G1 X145.763 Y105.740 E0.01377
G1 X146.127 Y105.986 E0.01377
G1 X146.444 Y106.289 E0.01377
G1 X146.705 Y106.642 E0.01377
G1 X146.887 Y107.004 E0.01270
G1 X147.031 Y107.450 E0.01470
G1 X147.087 Y107.890 E0.01390
G1 X147.068 Y108.329 E0.01377
G1 X146.976 Y108.758 E0.01377
G1 X146.825 Y109.134 E0.01270
G1 X146.584 Y109.537 E0.01470
G1 X146.292 Y109.869 E0.01390
G1 X145.950 Y110.145 E0.01377
G1 X145.566 Y110.359 E0.01377
G1 X145.152 Y110.506 E0.01377
G1 X144.720 Y110.580 E0.01377
G1 X144.280 Y110.580 E0.01377
G1 X143.848 Y110.506 E0.01377
G1 X143.434 Y110.359 E0.01377
G1 X143.050 Y110.145 E0.01377
G1 X142.708 Y109.869 E0.01377
G1 X142.418 Y109.540 E0.01377
G1 X142.188 Y109.166 E0.01377
G1 X142.023 Y108.756 E0.01386
G1 X141.930 Y108.303 E0.01449
G1 X141.913 Y107.890 E0.01297
G1 X141.961 Y107.514 E0.01187
G1 X142.335 Y107.562 F10800.000
;TYPE:External perimeter
G1 F1200.000
G1 X142.449 Y107.176 E0.01262
G1 X142.617 Y106.841 E0.01176
G1 X142.840 Y106.539 E0.01176
G1 X143.111 Y106.280 E0.01176
G1 X143.422 Y106.070 E0.01176
G1 X143.764 Y105.916 E0.01176
G1 X144.126 Y105.821 E0.01176
G1 X144.469 Y105.792 E0.01077
G1 X144.872 Y105.821 E0.01269
G1 X145.236 Y105.916 E0.01180
G1 X145.578 Y106.070 E0.01176
G1 X145.889 Y106.280 E0.01176
G1 X146.160 Y106.539 E0.01176
G1 X146.383 Y106.841 E0.01176
G1 X146.537 Y107.147 E0.01077
G1 X146.661 Y107.533 E0.01269
G1 X146.709 Y107.906 E0.01180
G1 X146.693 Y108.281 E0.01176
G1 X146.614 Y108.647 E0.01176
G1 X146.486 Y108.966 E0.01077
G1 X146.278 Y109.313 E0.01269
G1 X146.030 Y109.596 E0.01180
G1 X145.738 Y109.832 E0.01176
G1 X145.411 Y110.015 E0.01176
G1 X145.057 Y110.139 E0.01176
G1 X144.687 Y110.203 E0.01176
G1 X144.313 Y110.203 E0.01176
G1 X143.943 Y110.139 E0.01176
G1 X143.589 Y110.015 E0.01176
G1 X143.262 Y109.832 E0.01176
G1 X142.970 Y109.596 E0.01176
G1 X142.723 Y109.315 E0.01176
G1 X142.526 Y108.995 E0.01176
G1 X142.386 Y108.646 E0.01179
G1 X142.306 Y108.257 E0.01246
G1 X142.291 Y107.906 E0.01102
G1 X142.328 Y107.621 E0.00900
G1 X142.037 Y107.296 F10800.000
;WIPE_START
G1 F8640.000
G1 X142.449 Y107.176 E-0.10664
G1 X142.617 Y106.841 E-0.08658
G1 X142.840 Y106.539 E-0.08658
G1 X143.111 Y106.280 E-0.08658
G1 X143.422 Y106.070 E-0.08658
G1 X143.764 Y105.916 E-0.08658
G1 X144.126 Y105.821 E-0.08658
G1 X144.469 Y105.792 E-0.07928
G1 X144.704 Y105.809 E-0.05458
;WIPE_END
G1 E-0.04000 F2100.000
G1 Z0.600 F10800.000
G1 X153.024 Y103.191
G1 Z0.200
G1 E0.80000 F2100.000
;TYPE:Perimeter
G1 F1200.000
G1 X152.932 Y102.762 E0.01377
G1 X152.913 Y102.323 E0.01377
G1 X152.969 Y101.888 E0.01377
G1 X153.098 Y101.468 E0.01377
G1 X153.295 Y101.076 E0.01377
G1 X153.556 Y100.723 E0.01377
G1 X153.873 Y100.419 E0.01377
G1 X154.237 Y100.173 E0.01377
G1 X154.637 Y99.992 E0.01377
G1 X155.062 Y99.881 E0.01377
G1 X155.466 Y99.847 E0.01270
G1 X155.934 Y99.880 E0.01470
G1 X156.363 Y99.992 E0.01390
G1 X156.763 Y100.173 E0.01377
G1 X157.127 Y100.419 E0.01377
G1 X157.444 Y100.723 E0.01377
G1 X157.705 Y101.076 E0.01377
G1 X157.887 Y101.437 E0.01270
G1 X158.031 Y101.884 E0.01470
G1 X158.087 Y102.323 E0.01390
G1 X158.068 Y102.762 E0.01377
G1 X157.976 Y103.191 E0.01377
G1 X157.825 Y103.567 E0.01270
G1 X157.584 Y103.970 E0.01470
G1 X157.292 Y104.303 E0.01390
G1 X156.950 Y104.578 E0.01377
G1 X156.566 Y104.793 E0.01377
G1 X156.152 Y104.939 E0.01377
G1 X155.720 Y105.013 E0.01377
G1 X155.280 Y105.013 E0.01377
G1 X154.848 Y104.939 E0.01377
G1 X154.434 Y104.793 E0.01377
G1 X154.050 Y104.578 E0.01377
G1 X153.708 Y104.303 E0.01377
G1 X153.418 Y103.973 E0.01377
G1 X153.188 Y103.599 E0.01377
G1 X153.047 Y103.247 E0.01189
G1 X153.397 Y103.107 F10800.000
;TYPE:External perimeter
G1 F1200.000
G1 X153.307 Y102.714 E0.01262
G1 X153.291 Y102.339 E0.01176
G1 X153.339 Y101.968 E0.01176
G1 X153.449 Y101.609 E0.01176
G1 X153.617 Y101.274 E0.01176
G1 X153.840 Y100.973 E0.01176
G1 X154.111 Y100.713 E0.01176
G1 X154.422 Y100.503 E0.01176
G1 X154.764 Y100.349 E0.01176
G1 X155.126 Y100.254 E0.01176
G1 X155.469 Y100.225 E0.01077
G1 X155.872 Y100.254 E0.01269
G1 X156.236 Y100.349 E0.01180
G1 X156.578 Y100.503 E0.01176
G1 X156.889 Y100.713 E0.01176
G1 X157.160 Y100.973 E0.01176
G1 X157.383 Y101.274 E0.01176
G1 X157.537 Y101.581 E0.01077
G1 X157.661 Y101.966 E0.01269
G1 X157.709 Y102.339 E0.01180
G1 X157.693 Y102.714 E0.01176
G1 X157.614 Y103.081 E0.01176
G1 X157.486 Y103.399 E0.01077
G1 X157.278 Y103.747 E0.01269
G1 X157.030 Y104.029 E0.01180
G1 X156.738 Y104.265 E0.01176
G1 X156.411 Y104.448 E0.01176
G1 X156.057 Y104.573 E0.01176
G1 X155.687 Y104.636 E0.01176
G1 X155.313 Y104.636 E0.01176
G1 X154.943 Y104.573 E0.01176
G1 X154.589 Y104.448 E0.01176
G1 X154.262 Y104.265 E0.01176
G1 X153.970 Y104.029 E0.01176
G1 X153.723 Y103.748 E0.01176
G1 X153.526 Y103.429 E0.01176
G1 X153.419 Y103.162 E0.00900
G1 X153.006 Y103.020 F10800.000
;WIPE_START
G1 F8640.000
G1 X153.307 Y102.714 E-0.10664
G1 X153.291 Y102.339 E-0.08658
G1 X153.339 Y101.968 E-0.08658
G1 X153.449 Y101.609 E-0.08658
G1 X153.617 Y101.274 E-0.08658
G1 X153.840 Y100.973 E-0.08658
G1 X154.111 Y100.713 E-0.08658
G1 X154.422 Y100.503 E-0.08658
G1 X154.608 Y100.419 E-0.04728
;WIPE_END
G1 E-0.04000 F2100.000
G1 Z0.600 F10800.000
G1 X127.009 Y92.443
G1 Z0.200
G1 E0.80000 F2100.000
;TYPE:Perimeter
G1 F1200.000
G1 X126.773 Y92.911 E0.01643
G1 X126.461 Y93.332 E0.01643
G1 X126.083 Y93.695 E0.01643
G1 X125.666 Y93.976 E0.01577
G1 X125.173 Y94.203 E0.01701
G1 X124.664 Y94.336 E0.01650
G1 X124.142 Y94.380 E0.01643
G1 X123.620 Y94.336 E0.01643
G1 X123.113 Y94.204 E0.01643
G1 X122.636 Y93.988 E0.01643
G1 X122.201 Y93.695 E0.01643
G1 X121.823 Y93.332 E0.01643
G1 X121.512 Y92.911 E0.01643
G1 X121.276 Y92.443 E0.01643
G1 X121.122 Y91.942 E0.01643
G1 X121.056 Y91.422 E0.01643
G1 X121.078 Y90.899 E0.01643
G1 X121.188 Y90.387 E0.01643
G1 X121.384 Y89.900 E0.01643
G1 X121.658 Y89.454 E0.01643
G1 X122.005 Y89.061 E0.01643
G1 X122.412 Y88.732 E0.01643
G1 X122.870 Y88.476 E0.01643
G1 X123.364 Y88.302 E0.01643
G1 X123.868 Y88.215 E0.01604
G1 X124.415 Y88.215 E0.01717
G1 X124.921 Y88.302 E0.01607
G1 X125.415 Y88.476 E0.01643
G1 X125.872 Y88.732 E0.01643
G1 X126.280 Y89.061 E0.01643
G1 X126.626 Y89.454 E0.01643
G1 X126.901 Y89.900 E0.01643
G1 X127.096 Y90.387 E0.01643
G1 X127.206 Y90.899 E0.01643
G1 X127.229 Y91.422 E0.01643
G1 X127.162 Y91.942 E0.01643
G1 X127.026 Y92.386 E0.01455
G1 X126.666 Y92.275 F10800.000
;TYPE:External perimeter
G1 F1200.000
G1 X126.450 Y92.712 E0.01528
G1 X126.177 Y93.082 E0.01442
G1 X125.845 Y93.400 E0.01442
G1 X125.480 Y93.647 E0.01380
G1 X125.046 Y93.847 E0.01500
G1 X124.600 Y93.963 E0.01444
G1 X124.142 Y94.002 E0.01442
G1 X123.684 Y93.963 E0.01442
G1 X123.239 Y93.847 E0.01442
G1 X122.820 Y93.658 E0.01442
G1 X122.439 Y93.400 E0.01442
G1 X122.107 Y93.082 E0.01442
G1 X121.834 Y92.712 E0.01442
G1 X121.627 Y92.302 E0.01442
G1 X121.492 Y91.862 E0.01442
G1 X121.434 Y91.406 E0.01442
G1 X121.453 Y90.947 E0.01442
G1 X121.550 Y90.497 E0.01442
G1 X121.722 Y90.071 E0.01442
G1 X121.963 Y89.679 E0.01442
G1 X122.266 Y89.334 E0.01442
G1 X122.624 Y89.045 E0.01442
G1 X123.026 Y88.821 E0.01442
G1 X123.459 Y88.668 E0.01442
G1 X123.908 Y88.591 E0.01428
G1 X124.376 Y88.591 E0.01468
G1 X124.825 Y88.668 E0.01429
G1 X125.259 Y88.821 E0.01442
G1 X125.660 Y89.045 E0.01442
G1 X126.018 Y89.334 E0.01442
G1 X126.322 Y89.679 E0.01442
G1 X126.563 Y90.071 E0.01442
G1 X126.734 Y90.497 E0.01442
G1 X126.831 Y90.947 E0.01442
G1 X126.850 Y91.406 E0.01442
G1 X126.792 Y91.862 E0.01442
G1 X126.683 Y92.218 E0.01166
G1 X126.915 Y92.588 F10800.000
;WIPE_START
G1 F8640.000
G1 X126.450 Y92.712 E-0.12622
G1 X126.177 Y93.082 E-0.10616
G1 X125.845 Y93.400 E-0.10616
G1 X125.480 Y93.647 E-0.10164
G1 X125.046 Y93.847 E-0.11046
G1 X124.600 Y93.963 E-0.10634
G1 X124.156 Y94.001 E-0.10302
;WIPE_END
G1 E-0.04000 F2100.000
G1 Z0.600 F10800.000
G1 X112.866 Y86.585
G1 Z0.200
G1 E0.80000 F2100.000
;TYPE:Perimeter
G1 F1200.000
G1 X112.631 Y87.053 E0.01643
G1 X112.319 Y87.474 E0.01643
G1 X111.941 Y87.837 E0.01643
G1 X111.507 Y88.130 E0.01643
G1 X111.029 Y88.346 E0.01643
G1 X110.522 Y88.478 E0.01643
G1 X110.000 Y88.522 E0.01643
G1 X109.478 Y88.478 E0.01643
G1 X108.971 Y88.346 E0.01643
G1 X108.493 Y88.130 E0.01643
G1 X108.059 Y87.837 E0.01643
G1 X107.681 Y87.474 E0.01643
G1 X107.369 Y87.053 E0.01643
G1 X107.134 Y86.585 E0.01643
G1 X106.980 Y86.084 E0.01643
G1 X106.914 Y85.564 E0.01643
G1 X106.936 Y85.041 E0.01643
G1 X107.046 Y84.529 E0.01643
G1 X107.242 Y84.042 E0.01643
G1 X107.516 Y83.596 E0.01643
G1 X107.862 Y83.203 E0.01643
G1 X108.270 Y82.874 E0.01643
G1 X108.728 Y82.618 E0.01643
G1 X109.222 Y82.444 E0.01643
G1 X109.726 Y82.357 E0.01604
G1 X110.273 Y82.357 E0.01717
