; generated by PrusaSlicer 2.3.3+win64 on 2022-01-31 at 10:46:09 UTC

; 

; external perimeters extrusion width = 0.45mm
; perimeters extrusion width = 0.45mm
; infill extrusion width = 0.45mm
; solid infill extrusion width = 0.45mm
; top infill extrusion width = 0.40mm
; first layer extrusion width = 0.42mm

; external perimeters extrusion width = 0.45mm
; perimeters extrusion width = 0.45mm
; infill extrusion width = 0.45mm
; solid infill extrusion width = 0.45mm
; top infill extrusion width = 0.40mm
; first layer extrusion width = 0.42mm

; external perimeters extrusion width = 0.45mm
; perimeters extrusion width = 0.45mm
; infill extrusion width = 0.45mm
; solid infill extrusion width = 0.45mm
; top infill extrusion width = 0.40mm
; first layer extrusion width = 0.42mm

; external perimeters extrusion width = 0.45mm
; perimeters extrusion width = 0.45mm
; infill extrusion width = 0.45mm
; solid infill extrusion width = 0.45mm
; top infill extrusion width = 0.40mm
; first layer extrusion width = 0.42mm

; external perimeters extrusion width = 0.45mm
; perimeters extrusion width = 0.45mm
; infill extrusion width = 0.45mm
; solid infill extrusion width = 0.45mm
; top infill extrusion width = 0.40mm
; first layer extrusion width = 0.42mm

; external perimeters extrusion width = 0.45mm
; perimeters extrusion width = 0.45mm
; infill extrusion width = 0.45mm
; solid infill extrusion width = 0.45mm
; top infill extrusion width = 0.40mm
; first layer extrusion width = 0.42mm

M73 P0 R112
M73 Q0 S113
M201 X1000 Y1000 Z200 E8000 ; sets maximum accelerations, mm/sec^2
M203 X200 Y200 Z12 E120 ; sets maximum feedrates, mm/sec
M204 P1250 R1250 T1250 ; sets acceleration (P, T) and retract acceleration (R), mm/sec^2
M205 X8.00 Y8.00 Z0.40 E4.50 ; sets the jerk limits, mm/sec
M205 S0 T0 ; sets the minimum extruding and travel feed rate, mm/sec
M107
;TYPE:Custom
M862.3 P "MK3SMMU2S" ; printer model check
M862.1 P0.4 ; nozzle diameter check
M115 U3.10.0 ; tell printer latest fw version
G90 ; use absolute coordinates
M83 ; extruder relative mode
M104 S215 ; set extruder temp
M140 S60 ; set bed temp
M190 S60 ; wait for bed temp
M109 S215 ; wait for extruder temp
G28 W ; home all without mesh bed level
G80 ; mesh bed leveling

; Send the filament type to the MMU2.0 unit.
; E stands for extruder number, F stands for filament type (0: default; 1:flex; 2: PVA)
M403 E0 F0
M403 E1 F0
M403 E2 F0
M403 E3 F0
M403 E4 F0


;go outside print area
G1 Y-3.0 F1000.0
G1 Z0.4 F1000.0
; select extruder
T1
; initial load
G1 X55.0 E29.0 F1073.0
G1 X5.0 E29.0 F1800.0
G1 X55.0 E8.0 F2000.0
G1 Z0.3 F1000.0
G92 E0.0
G1 X240.0 E25.0 F2200.0
G1 Y-2.0 F1000.0
G1 X55.0 E25 F1400.0
G1 Z0.20 F1000.0
G1 X5.0 E4.0 F1000.0
G92 E0.0


M221 S95
G92 E0.0

; Don't change E values below. Excessive value can damage the printer.

M907 E538 ; set extruder motor current
G21 ; set units to millimeters
G90 ; use absolute coordinates
M83 ; use relative distances for extrusion
T1
M900 K0.05 ; Filament gcode LA 1.5
M900 K30 ; Filament gcode LA 1.0
G1 Z0.200 F10800.000
;LAYER_CHANGE
;Z:0.2
;HEIGHT:0.2
;BEFORE_LAYER_CHANGE
G92 E0.0
;0.2


G1 E-0.80000 F2100.000
G1 Z0.600 F10800.000
G1 Z0.200
;AFTER_LAYER_CHANGE
;0.2
G1 E-1.20000 F2100.000
G1 Z0.600 F10800.000
G1 X235.634 Y21.866
M73 P0 R111
G1 Z0.200
G1 E2.00000 F2100.000
;HEIGHT:0.200000
;TYPE:Wipe tower
;WIDTH:0.500000
;-------------------------------------
; CP WIPE TOWER FIRST LAYER BRIM START
G1  X235.634 Y143.206  E6.9175 F2400
G1  X233.091 Y143.663   F7000
G1  Y21.409  E5.1111 F2100
G1  X172.177  E2.5466
M73 Q0 S112
G1  Y143.663  E5.1111
G1  X233.091  E2.5466
G1  X233.548 Y144.120   F7000
G1  Y20.952  E5.1493 F2100
G1  X171.720  E2.5849
G1  Y144.120  E5.1493
G1  X233.548  E2.5849
G1  X234.005 Y144.577   F7000
G1  Y20.495  E5.1875 F2100
M73 P1 R111
M73 Q1 S112
G1  X171.263  E2.6231
G1  Y144.577  E5.1875
G1  X234.005  E2.6231
G1  X234.462 Y145.034   F7000
G1  Y20.038  E5.2257 F2100
G1  X170.806  E2.6613
G1  Y145.034  E5.2257
G1  X234.462  E2.6613
; CP WIPE TOWER FIRST LAYER BRIM END
;-----------------------------------

;WIPE_START
G1 F8640.000
G1 X234.005 Y144.577 E-0.14926
G1 X231.360 Y144.577 E-0.61074
;WIPE_END
G1 E-0.04000 F2100.000
G1 Z0.600 F10800.000
G1 X235.824 Y146.573
G1 Z0.200
G1 E0.80000 F2100.000
M204 S1000
;TYPE:Skirt
;WIDTH:0.42
;HEIGHT:0.2
G1 F1200.000
G1 X235.283 Y146.939 E0.02048
G1 X234.775 Y147.120 E0.01692
G1 X234.239 Y147.183 E0.01692
G1 X171.030 Y147.183 E1.98185
G1 X170.406 Y147.098 E0.01977
G1 X69.272 Y103.878 E3.44841
G1 X68.193 Y103.234 E0.03937
G1 X67.302 Y102.478 E0.03665
G1 X66.538 Y101.584 E0.03689
G1 X65.920 Y100.569 E0.03725
G1 X65.441 Y99.351 E0.04104
G1 X65.219 Y98.386 E0.03104
G1 X65.131 Y97.289 E0.03451
G1 X65.135 Y52.110 E1.41656
G1 X65.225 Y51.078 E0.03248
G1 X65.491 Y49.975 E0.03558
G1 X65.925 Y48.922 E0.03570
G1 X66.450 Y48.047 E0.03200
G1 X67.411 Y46.922 E0.04638
G1 X68.193 Y46.267 E0.03200
G1 X69.189 Y45.662 E0.03653
G1 X70.334 Y45.203 E0.03867
G1 X170.641 Y17.922 E3.25929
M73 P1 R110
G1 X234.238 Y17.889 E1.99404
G1 X235.140 Y18.069 E0.02884
G1 X235.909 Y18.580 E0.02896
G1 X236.425 Y19.345 E0.02896
G1 X236.611 Y20.246 E0.02884
G1 X236.611 Y144.832 E3.90632
M73 Q1 S111
G1 X236.514 Y145.478 E0.02048
G1 X236.245 Y146.073 E0.02048
G1 X235.863 Y146.527 E0.01860
; printing object body352 id:0 copy 0
;WIPE_START
G1 F8640.000
G1 X235.283 Y146.939 E-0.16417
G1 X234.775 Y147.120 E-0.12462
G1 X234.239 Y147.183 E-0.12462
G1 X232.738 Y147.183 E-0.34659
;WIPE_END
G1 E-0.04000 F2100.000
G1 Z0.600 F10800.000
G1 X117.774 Y75.689
G1 Z0.200
G1 E0.80000 F2100.000
;TYPE:Perimeter
G1 F1200.000
G1 X117.493 Y76.153 E0.01701
G1 X117.145 Y76.548 E0.01650
G1 X116.738 Y76.877 E0.01643
G1 X116.280 Y77.132 E0.01643
G1 X115.786 Y77.307 E0.01643
G1 X115.282 Y77.393 E0.01604
G1 X115.008 Y77.405 E0.00861
G1 X114.734 Y77.393 E0.00861
G1 X114.230 Y77.307 E0.01604
G1 X113.736 Y77.132 E0.01643
G1 X113.278 Y76.877 E0.01643
G1 X112.870 Y76.548 E0.01643
G1 X112.524 Y76.154 E0.01643
G1 X112.250 Y75.708 E0.01643
G1 X112.054 Y75.222 E0.01643
G1 X111.948 Y74.730 E0.01577
G1 X111.921 Y74.188 E0.01701
G1 X111.988 Y73.666 E0.01650
G1 X112.142 Y73.165 E0.01643
G1 X112.377 Y72.698 E0.01643
G1 X112.689 Y72.276 E0.01643
G1 X113.067 Y71.914 E0.01643
G1 X113.501 Y71.620 E0.01643
G1 X113.979 Y71.405 E0.01643
G1 X114.486 Y71.273 E0.01643
G1 X114.987 Y71.230 E0.01577
G1 X115.528 Y71.272 E0.01701
G1 X116.037 Y71.405 E0.01650
G1 X116.515 Y71.620 E0.01643
G1 X116.949 Y71.914 E0.01643
G1 X117.327 Y72.276 E0.01643
G1 X117.638 Y72.698 E0.01643
G1 X117.865 Y73.147 E0.01577
G1 X118.028 Y73.664 E0.01701
G1 X118.094 Y74.186 E0.01650
G1 X118.072 Y74.710 E0.01643
G1 X117.962 Y75.222 E0.01643
G1 X117.797 Y75.633 E0.01389
G1 X117.447 Y75.492 F10800.000
;TYPE:External perimeter
G1 F1200.000
G1 X117.188 Y75.929 E0.01591
G1 X116.884 Y76.274 E0.01444
G1 X116.526 Y76.563 E0.01442
G1 X116.125 Y76.787 E0.01442
G1 X115.691 Y76.941 E0.01442
G1 X115.242 Y77.018 E0.01428
G1 X115.008 Y77.028 E0.00735
G1 X114.774 Y77.018 E0.00735
G1 X114.325 Y76.941 E0.01428
G1 X113.891 Y76.787 E0.01442
G1 X113.490 Y76.563 E0.01442
G1 X113.132 Y76.274 E0.01442
G1 X112.829 Y75.929 E0.01442
G1 X112.587 Y75.538 E0.01442
G1 X112.416 Y75.111 E0.01442
G1 X112.323 Y74.681 E0.01380
G1 X112.300 Y74.203 E0.01500
G1 X112.358 Y73.746 E0.01444
G1 X112.493 Y73.307 E0.01442
G1 X112.700 Y72.896 E0.01442
G1 X112.973 Y72.526 E0.01442
G1 X113.305 Y72.208 E0.01442
G1 X113.686 Y71.951 E0.01442
G1 X114.105 Y71.761 E0.01442
G1 X114.550 Y71.646 E0.01442
G1 X114.988 Y71.608 E0.01380
G1 X115.465 Y71.645 E0.01500
G1 X115.911 Y71.761 E0.01444
G1 X116.330 Y71.951 E0.01442
G1 X116.711 Y72.208 E0.01442
G1 X117.043 Y72.526 E0.01442
G1 X117.316 Y72.896 E0.01442
G1 X117.514 Y73.289 E0.01380
G1 X117.658 Y73.745 E0.01500
G1 X117.716 Y74.202 E0.01444
G1 X117.697 Y74.662 E0.01442
G1 X117.600 Y75.111 E0.01442
G1 X117.469 Y75.437 E0.01100
G1 X117.670 Y75.824 F10800.000
;WIPE_START
G1 F8640.000
G1 X117.188 Y75.929 E-0.13084
G1 X116.884 Y76.274 E-0.10634
G1 X116.526 Y76.563 E-0.10616
G1 X116.125 Y76.787 E-0.10616
G1 X115.691 Y76.941 E-0.10616
G1 X115.242 Y77.018 E-0.10513
G1 X115.008 Y77.028 E-0.05415
G1 X114.813 Y77.019 E-0.04505
;WIPE_END
G1 E-0.04000 F2100.000
G1 Z0.600 F10800.000
G1 X126.921 Y69.164
G1 Z0.200
G1 E0.80000 F2100.000
;TYPE:Perimeter
G1 F1200.000
G1 X143.095 Y69.164 E0.50713
G1 X143.095 Y79.904 E0.33677
G1 X126.921 Y79.904 E0.50713
G1 X126.921 Y69.224 E0.33489
G1 X127.298 Y69.541 F10800.000
;TYPE:External perimeter
G1 F1200.000
G1 X142.718 Y69.541 E0.48348
G1 X142.718 Y79.527 E0.31313
G1 X127.298 Y79.527 E0.48348
G1 X127.298 Y69.601 E0.31125
G1 X127.168 Y69.162 F10800.000
;WIPE_START
G1 F8640.000
G1 X130.589 Y69.588 E-0.76000
;WIPE_END
G1 E-0.04000 F2100.000
G1 Z0.600 F10800.000
G1 X111.909 Y61.566
G1 Z0.200
G1 E0.80000 F2100.000
;TYPE:Perimeter
G1 F1200.000
G1 X111.634 Y62.012 E0.01643
G1 X111.288 Y62.405 E0.01643
G1 X110.880 Y62.735 E0.01643
G1 X110.423 Y62.990 E0.01643
G1 X109.928 Y63.165 E0.01643
G1 X109.424 Y63.251 E0.01604
G1 X109.150 Y63.263 E0.00861
G1 X108.876 Y63.251 E0.00861
G1 X108.372 Y63.165 E0.01604
G1 X107.878 Y62.990 E0.01643
G1 X107.420 Y62.735 E0.01643
G1 X107.013 Y62.405 E0.01643
G1 X106.666 Y62.012 E0.01643
G1 X106.392 Y61.566 E0.01643
G1 X106.196 Y61.080 E0.01643
G1 X106.086 Y60.568 E0.01643
G1 X106.064 Y60.044 E0.01643
G1 X106.130 Y59.524 E0.01643
G1 X106.284 Y59.023 E0.01643
G1 X106.520 Y58.555 E0.01643
G1 X106.831 Y58.134 E0.01643
G1 X107.209 Y57.772 E0.01643
G1 X107.643 Y57.478 E0.01643
G1 X108.121 Y57.262 E0.01643
G1 X108.628 Y57.130 E0.01643
G1 X109.129 Y57.088 E0.01577
G1 X109.670 Y57.130 E0.01701
G1 X110.179 Y57.262 E0.01650
G1 X110.657 Y57.478 E0.01643
G1 X111.091 Y57.772 E0.01643
G1 X111.469 Y58.134 E0.01643
G1 X111.781 Y58.555 E0.01643
G1 X112.007 Y59.005 E0.01577
G1 X112.170 Y59.522 E0.01701
G1 X112.237 Y60.044 E0.01650
G1 X112.214 Y60.568 E0.01643
G1 X112.104 Y61.080 E0.01643
G1 X111.931 Y61.510 E0.01455
G1 X111.581 Y61.370 F10800.000
;TYPE:External perimeter
G1 F1200.000
G1 X111.330 Y61.787 E0.01528
G1 X111.026 Y62.132 E0.01442
G1 X110.668 Y62.421 E0.01442
G1 X110.267 Y62.645 E0.01442
G1 X109.833 Y62.798 E0.01442
G1 X109.384 Y62.875 E0.01428
G1 X109.150 Y62.885 E0.00735
G1 X108.916 Y62.875 E0.00735
G1 X108.467 Y62.798 E0.01428
G1 X108.034 Y62.645 E0.01442
G1 X107.632 Y62.421 E0.01442
G1 X107.274 Y62.132 E0.01442
G1 X106.971 Y61.787 E0.01442
G1 X106.730 Y61.396 E0.01442
G1 X106.558 Y60.969 E0.01442
G1 X106.461 Y60.520 E0.01442
G1 X106.442 Y60.060 E0.01442
G1 X106.500 Y59.604 E0.01442
G1 X106.635 Y59.164 E0.01442
G1 X106.842 Y58.754 E0.01442
G1 X107.115 Y58.384 E0.01442
G1 X107.447 Y58.066 E0.01442
G1 X107.828 Y57.809 E0.01442
G1 X108.247 Y57.619 E0.01442
G1 X108.692 Y57.503 E0.01442
G1 X109.131 Y57.466 E0.01380
G1 X109.607 Y57.503 E0.01500
G1 X110.053 Y57.619 E0.01444
G1 X110.472 Y57.809 E0.01442
G1 X110.853 Y58.066 E0.01442
G1 X111.185 Y58.384 E0.01442
G1 X111.458 Y58.754 E0.01442
G1 X111.657 Y59.147 E0.01380
G1 X111.800 Y59.603 E0.01500
G1 X111.858 Y60.060 E0.01444
G1 X111.839 Y60.520 E0.01442
G1 X111.742 Y60.969 E0.01442
G1 X111.603 Y61.314 E0.01166
G1 X111.803 Y61.703 F10800.000
;WIPE_START
G1 F8640.000
G1 X111.330 Y61.787 E-0.12622
G1 X111.026 Y62.132 E-0.10616
G1 X110.668 Y62.421 E-0.10616
G1 X110.267 Y62.645 E-0.10616
G1 X109.833 Y62.798 E-0.10616
G1 X109.384 Y62.875 E-0.10513
G1 X109.150 Y62.885 E-0.05415
G1 X108.934 Y62.876 E-0.04985
;WIPE_END
G1 E-0.04000 F2100.000
G1 Z0.600 F10800.000
G1 X97.766 Y55.708
G1 Z0.200
G1 E0.80000 F2100.000
;TYPE:Perimeter
G1 F1200.000
G1 X97.492 Y56.154 E0.01643
G1 X97.145 Y56.548 E0.01643
G1 X96.738 Y56.877 E0.01643
G1 X96.280 Y57.132 E0.01643
G1 X95.786 Y57.307 E0.01643
G1 X95.282 Y57.393 E0.01604
G1 X95.008 Y57.405 E0.00861
G1 X94.734 Y57.393 E0.00861
G1 X94.230 Y57.307 E0.01604
G1 X93.736 Y57.132 E0.01643
G1 X93.278 Y56.877 E0.01643
G1 X92.870 Y56.548 E0.01643
G1 X92.524 Y56.154 E0.01643
G1 X92.261 Y55.726 E0.01577
G1 X92.055 Y55.224 E0.01701
G1 X91.944 Y54.710 E0.01650
G1 X91.922 Y54.186 E0.01643
G1 X91.988 Y53.666 E0.01643
G1 X92.142 Y53.165 E0.01643
G1 X92.377 Y52.698 E0.01643
G1 X92.689 Y52.276 E0.01643
G1 X93.067 Y51.914 E0.01643
G1 X93.501 Y51.620 E0.01643
G1 X93.979 Y51.405 E0.01643
G1 X94.486 Y51.273 E0.01643
G1 X94.987 Y51.230 E0.01577
G1 X95.528 Y51.272 E0.01701
G1 X96.037 Y51.405 E0.01650
G1 X96.515 Y51.620 E0.01643
G1 X96.949 Y51.914 E0.01643
G1 X97.327 Y52.276 E0.01643
G1 X97.638 Y52.698 E0.01643
G1 X97.874 Y53.165 E0.01643
G1 X98.028 Y53.666 E0.01643
G1 X98.094 Y54.186 E0.01643
G1 X98.072 Y54.710 E0.01643
G1 X97.962 Y55.222 E0.01643
G1 X97.789 Y55.652 E0.01455
G1 X97.439 Y55.512 F10800.000
;TYPE:External perimeter
G1 F1200.000
G1 X97.187 Y55.929 E0.01528
G1 X96.884 Y56.274 E0.01442
G1 X96.526 Y56.563 E0.01442
G1 X96.125 Y56.787 E0.01442
G1 X95.691 Y56.941 E0.01442
G1 X95.242 Y57.018 E0.01428
G1 X95.008 Y57.028 E0.00735
G1 X94.774 Y57.018 E0.00735
G1 X94.325 Y56.941 E0.01428
G1 X93.891 Y56.787 E0.01442
G1 X93.490 Y56.563 E0.01442
G1 X93.132 Y56.274 E0.01442
G1 X92.829 Y55.929 E0.01442
G1 X92.598 Y55.554 E0.01380
G1 X92.416 Y55.112 E0.01500
G1 X92.319 Y54.662 E0.01444
G1 X92.300 Y54.202 E0.01442
G1 X92.358 Y53.746 E0.01442
G1 X92.493 Y53.307 E0.01442
G1 X92.700 Y52.896 E0.01442
G1 X92.973 Y52.526 E0.01442
G1 X93.305 Y52.208 E0.01442
G1 X93.686 Y51.951 E0.01442
G1 X94.105 Y51.761 E0.01442
G1 X94.550 Y51.646 E0.01442
G1 X94.988 Y51.608 E0.01380
G1 X95.465 Y51.645 E0.01500
G1 X95.911 Y51.761 E0.01444
G1 X96.330 Y51.951 E0.01442
G1 X96.711 Y52.208 E0.01442
G1 X97.043 Y52.526 E0.01442
G1 X97.316 Y52.896 E0.01442
G1 X97.523 Y53.307 E0.01442
G1 X97.658 Y53.746 E0.01442
G1 X97.716 Y54.202 E0.01442
G1 X97.697 Y54.662 E0.01442
G1 X97.600 Y55.111 E0.01442
G1 X97.461 Y55.456 E0.01166
G1 X97.661 Y55.845 F10800.000
;WIPE_START
G1 F8640.000
G1 X97.187 Y55.929 E-0.12621
G1 X96.884 Y56.274 E-0.10616
G1 X96.526 Y56.563 E-0.10617
G1 X96.125 Y56.787 E-0.10616
G1 X95.691 Y56.941 E-0.10616
G1 X95.242 Y57.018 E-0.10513
G1 X95.008 Y57.028 E-0.05415
G1 X94.792 Y57.018 E-0.04985
;WIPE_END
G1 E-0.04000 F2100.000
G1 Z0.600 F10800.000
G1 X83.885 Y59.522
G1 Z0.200
G1 E0.80000 F2100.000
;TYPE:Perimeter
G1 F1200.000
G1 X83.952 Y60.044 E0.01650
G1 X83.930 Y60.568 E0.01643
G1 X83.820 Y61.080 E0.01643
G1 X83.632 Y61.546 E0.01577
G1 X83.351 Y62.011 E0.01701
G1 X83.003 Y62.405 E0.01650
G1 X82.596 Y62.735 E0.01643
G1 X82.138 Y62.990 E0.01643
G1 X81.644 Y63.165 E0.01643
G1 X81.140 Y63.251 E0.01604
G1 X80.591 Y63.251 E0.01720
G1 X80.087 Y63.165 E0.01604
G1 X79.593 Y62.990 E0.01643
G1 X79.136 Y62.735 E0.01643
G1 X78.728 Y62.405 E0.01643
G1 X78.382 Y62.012 E0.01643
G1 X78.107 Y61.566 E0.01643
G1 X77.912 Y61.080 E0.01643
G1 X77.802 Y60.568 E0.01643
G1 X77.779 Y60.044 E0.01643
G1 X77.846 Y59.524 E0.01643
G1 X77.999 Y59.023 E0.01643
G1 X78.235 Y58.556 E0.01643
G1 X78.547 Y58.134 E0.01643
G1 X78.925 Y57.772 E0.01643
G1 X79.359 Y57.478 E0.01643
G1 X79.837 Y57.262 E0.01643
G1 X80.344 Y57.130 E0.01643
G1 X80.845 Y57.088 E0.01577
G1 X81.386 Y57.130 E0.01701
G1 X81.895 Y57.262 E0.01650
G1 X82.372 Y57.478 E0.01643
G1 X82.807 Y57.772 E0.01643
G1 X83.185 Y58.134 E0.01643
G1 X83.496 Y58.555 E0.01643
G1 X83.723 Y59.005 E0.01577
G1 X83.867 Y59.465 E0.01513
G1 X83.508 Y59.578 F10800.000
;TYPE:External perimeter
G1 F1200.000
G1 X83.574 Y60.060 E0.01526
G1 X83.555 Y60.520 E0.01442
G1 X83.458 Y60.969 E0.01442
G1 X83.294 Y61.377 E0.01380
G1 X83.046 Y61.787 E0.01500
G1 X82.741 Y62.132 E0.01444
G1 X82.384 Y62.421 E0.01442
G1 X81.982 Y62.645 E0.01442
G1 X81.549 Y62.798 E0.01442
G1 X81.100 Y62.875 E0.01428
G1 X80.632 Y62.875 E0.01469
G1 X80.183 Y62.798 E0.01428
G1 X79.749 Y62.645 E0.01442
G1 X79.348 Y62.421 E0.01442
G1 X78.990 Y62.132 E0.01442
G1 X78.686 Y61.787 E0.01442
G1 X78.445 Y61.396 E0.01442
G1 X78.274 Y60.969 E0.01442
G1 X78.177 Y60.520 E0.01442
G1 X78.157 Y60.060 E0.01442
G1 X78.216 Y59.604 E0.01442
G1 X78.351 Y59.164 E0.01442
G1 X78.558 Y58.754 E0.01442
G1 X78.831 Y58.384 E0.01442
G1 X79.163 Y58.066 E0.01442
G1 X79.544 Y57.809 E0.01442
