; generated by PrusaSlicer 2.3.3+win64 on 2022-01-18 at 14:52:43 UTC

; 

; external perimeters extrusion width = 0.45mm
; perimeters extrusion width = 0.45mm
; infill extrusion width = 0.45mm
; solid infill extrusion width = 0.45mm
; top infill extrusion width = 0.40mm
; first layer extrusion width = 0.42mm

; external perimeters extrusion width = 0.45mm
; perimeters extrusion width = 0.45mm
; infill extrusion width = 0.45mm
; solid infill extrusion width = 0.45mm
; top infill extrusion width = 0.40mm
; first layer extrusion width = 0.42mm

M73 P0 R90
M73 Q0 S91
M201 X1000 Y1000 Z200 E8000 ; sets maximum accelerations, mm/sec^2
M203 X200 Y200 Z12 E120 ; sets maximum feedrates, mm/sec
M204 P1250 R1250 T1250 ; sets acceleration (P, T) and retract acceleration (R), mm/sec^2
M205 X8.00 Y8.00 Z0.40 E4.50 ; sets the jerk limits, mm/sec
M205 S0 T0 ; sets the minimum extruding and travel feed rate, mm/sec
M107
;TYPE:Custom
M862.3 P "MK3SMMU2S" ; printer model check
M862.1 P0.4 ; nozzle diameter check
M115 U3.10.0 ; tell printer latest fw version
G90 ; use absolute coordinates
M83 ; extruder relative mode
M104 S215 ; set extruder temp
M140 S60 ; set bed temp
M190 S60 ; wait for bed temp
M109 S215 ; wait for extruder temp
G28 W ; home all without mesh bed level
G80 ; mesh bed leveling

; Send the filament type to the MMU2.0 unit.
; E stands for extruder number, F stands for filament type (0: default; 1:flex; 2: PVA)
M403 E0 F0
M403 E1 F0
M403 E2 F0
M403 E3 F0
M403 E4 F0


;go outside print area
G1 Y-3.0 F1000.0
G1 Z0.4 F1000.0
; select extruder
T1
; initial load
G1 X55.0 E29.0 F1073.0
G1 X5.0 E29.0 F1800.0
G1 X55.0 E8.0 F2000.0
M73 Q0 S90
G1 Z0.3 F1000.0
G92 E0.0
G1 X240.0 E25.0 F2200.0
G1 Y-2.0 F1000.0
G1 X55.0 E25 F1400.0
G1 Z0.20 F1000.0
G1 X5.0 E4.0 F1000.0
G92 E0.0


M221 S95
G92 E0.0

; Don't change E values below. Excessive value can damage the printer.

M907 E538 ; set extruder motor current
G21 ; set units to millimeters
G90 ; use absolute coordinates
M83 ; use relative distances for extrusion
T1
M900 K0.05 ; Filament gcode LA 1.5
M900 K30 ; Filament gcode LA 1.0
G1 Z0.200 F10800.000
;LAYER_CHANGE
;Z:0.2
;HEIGHT:0.2
;BEFORE_LAYER_CHANGE
G92 E0.0
;0.2


G1 E-0.80000 F2100.000
G1 Z0.600 F10800.000
G1 Z0.200
;AFTER_LAYER_CHANGE
;0.2
G1 E-1.20000 F2100.000
G1 Z0.600 F10800.000
G1 X221.376 Y82.503
G1 Z0.200
G1 E2.00000 F2100.000
;HEIGHT:0.200000
;TYPE:Wipe tower
;WIDTH:0.500000
;-------------------------------------
; CP WIPE TOWER FIRST LAYER BRIM START
G1  X221.376 Y184.563  E5.8184 F2400
G1  X218.833 Y185.020   F7000
G1  Y82.046  E4.3050 F2100
G1  X157.919  E2.5466
G1  Y185.020  E4.3050
G1  X218.833  E2.5466
G1  X219.290 Y185.477   F7000
G1  Y81.589  E4.3433 F2100
M73 P1 R89
M73 Q1 S90
G1  X157.462  E2.5849
G1  Y185.477  E4.3433
G1  X219.290  E2.5849
G1  X219.747 Y185.934   F7000
G1  Y81.132  E4.3815 F2100
G1  X157.005  E2.6231
G1  Y185.934  E4.3815
G1  X219.747  E2.6231
G1  X220.204 Y186.391   F7000
G1  Y80.675  E4.4197 F2100
G1  X156.548  E2.6613
G1  Y186.391  E4.4197
G1  X220.204  E2.6613
; CP WIPE TOWER FIRST LAYER BRIM END
;-----------------------------------

;WIPE_START
M73 Q1 S89
G1 F8640.000
G1 X219.747 Y185.935 E-0.14926
G1 X217.102 Y185.935 E-0.61074
;WIPE_END
G1 E-0.04000 F2100.000
G1 Z0.600 F10800.000
G1 X222.160 Y79.965
G1 Z0.200
G1 E0.80000 F2100.000
M204 S1000
;TYPE:Skirt
;WIDTH:0.42
;HEIGHT:0.2
G1 F1200.000
G1 X222.352 Y80.861 E0.02872
G1 X222.353 Y186.171 E3.30193
G1 X222.269 Y186.788 E0.01953
G1 X222.026 Y187.366 E0.01965
G1 X221.654 Y187.846 E0.01906
G1 X221.169 Y188.219 E0.01917
G1 X220.609 Y188.454 E0.01906
G1 X220.007 Y188.540 E0.01906
G1 X156.765 Y188.540 E1.98293
G1 X156.148 Y188.456 E0.01953
G1 X155.574 Y188.214 E0.01953
G1 X155.112 Y187.860 E0.01823
G1 X154.748 Y187.402 E0.01835
G1 X109.629 Y113.103 E2.72551
G1 X108.860 Y111.432 E0.05767
G1 X108.316 Y109.857 E0.05224
G1 X107.929 Y108.231 E0.05240
G1 X107.675 Y106.349 E0.05955
G1 X107.629 Y104.549 E0.05645
G1 X107.768 Y102.758 E0.05633
G1 X108.119 Y100.890 E0.05958
G1 X108.587 Y99.291 E0.05224
G1 X109.214 Y97.742 E0.05239
G1 X110.090 Y96.075 E0.05907
G1 X111.177 Y94.474 E0.06066
G1 X112.252 Y93.191 E0.05248
G1 X113.534 Y91.943 E0.05610
G1 X114.928 Y90.840 E0.05574
G1 X116.342 Y89.936 E0.05263
G1 X118.150 Y89.033 E0.06336
G1 X119.810 Y88.418 E0.05549
G1 X156.403 Y78.556 E1.18828
G1 X219.980 Y78.526 E1.99341
G1 X220.878 Y78.704 E0.02872
G1 X221.643 Y79.209 E0.02872
G1 X222.126 Y79.915 E0.02684
; printing object body458 id:0 copy 0
;WIPE_START
G1 F8640.000
G1 X222.352 Y80.861 E-0.22440
G1 X222.352 Y83.180 E-0.53560
;WIPE_END
G1 E-0.04000 F2100.000
G1 Z0.600 F10800.000
G1 X130.587 Y99.413
G1 Z0.200
G1 E0.80000 F2100.000
;TYPE:Perimeter
G1 F1200.000
G1 X130.587 Y110.587 E0.35036
G1 X119.413 Y110.587 E0.35036
G1 X119.413 Y99.413 E0.35036
G1 X130.527 Y99.413 E0.34848
G1 X130.210 Y99.790 F10800.000
;TYPE:External perimeter
G1 F1200.000
G1 X130.210 Y110.210 E0.32671
G1 X119.790 Y110.210 E0.32671
G1 X119.790 Y99.790 E0.32671
G1 X130.150 Y99.790 E0.32483
G1 X130.596 Y99.686 F10800.000
;WIPE_START
G1 F8640.000
G1 X130.169 Y103.081 E-0.76000
;WIPE_END
G1 E-0.04000 F2100.000
G1 Z0.600 F10800.000
G1 X135.430 Y95.346
M73 Q2 S89
G1 Z0.200
G1 E0.80000 F2100.000
;TYPE:Perimeter
G1 F1200.000
G1 X136.367 Y96.470 E0.04588
G1 X137.184 Y97.684 E0.04588
G1 X137.872 Y98.975 E0.04588
G1 X138.423 Y100.331 E0.04588
G1 X138.832 Y101.736 E0.04588
G1 X139.094 Y103.175 E0.04588
G1 X139.207 Y104.634 E0.04588
G1 X139.169 Y106.097 E0.04588
G1 X138.982 Y107.548 E0.04588
G1 X138.646 Y108.972 E0.04588
G1 X138.165 Y110.354 E0.04588
M73 P2 R89
G1 X137.545 Y111.679 E0.04588
G1 X136.791 Y112.934 E0.04588
G1 X135.913 Y114.104 E0.04588
G1 X134.919 Y115.178 E0.04588
G1 X133.820 Y116.144 E0.04588
G1 X132.627 Y116.992 E0.04588
G1 X131.354 Y117.712 E0.04588
G1 X130.013 Y118.298 E0.04588
G1 X128.619 Y118.743 E0.04588
G1 X127.187 Y119.043 E0.04588
G1 X125.722 Y119.194 E0.04620
G1 X125.000 Y119.213 E0.02263
G1 X124.278 Y119.194 E0.02263
G1 X122.813 Y119.043 E0.04620
G1 X121.381 Y118.743 E0.04588
G1 X119.987 Y118.298 E0.04588
G1 X118.646 Y117.712 E0.04588
G1 X117.373 Y116.992 E0.04588
G1 X116.180 Y116.144 E0.04588
G1 X115.081 Y115.178 E0.04588
G1 X114.087 Y114.104 E0.04588
G1 X113.209 Y112.934 E0.04588
G1 X112.455 Y111.679 E0.04588
G1 X111.835 Y110.354 E0.04588
G1 X111.354 Y108.972 E0.04588
G1 X111.018 Y107.548 E0.04588
G1 X110.831 Y106.097 E0.04588
G1 X110.793 Y104.634 E0.04588
G1 X110.906 Y103.175 E0.04588
G1 X111.168 Y101.736 E0.04588
G1 X111.577 Y100.331 E0.04588
G1 X112.128 Y98.975 E0.04588
G1 X112.816 Y97.684 E0.04588
G1 X113.633 Y96.470 E0.04588
G1 X114.570 Y95.346 E0.04588
G1 X115.618 Y94.325 E0.04588
G1 X116.765 Y93.417 E0.04588
G1 X118.000 Y92.632 E0.04588
G1 X119.309 Y91.977 E0.04588
G1 X120.678 Y91.461 E0.04588
G1 X122.093 Y91.089 E0.04588
G1 X123.539 Y90.863 E0.04588
G1 X125.000 Y90.788 E0.04588
G1 X126.461 Y90.863 E0.04588
G1 X127.907 Y91.089 E0.04588
G1 X129.322 Y91.461 E0.04588
G1 X130.691 Y91.977 E0.04588
G1 X132.000 Y92.632 E0.04588
G1 X133.235 Y93.417 E0.04588
G1 X134.382 Y94.325 E0.04588
G1 X135.387 Y95.304 E0.04400
G1 X135.650 Y95.034 F10800.000
;TYPE:External perimeter
G1 F1200.000
G1 X136.669 Y96.243 E0.04958
G1 X137.508 Y97.489 E0.04710
G1 X138.214 Y98.815 E0.04710
G1 X138.780 Y100.207 E0.04710
G1 X139.199 Y101.649 E0.04710
G1 X139.469 Y103.127 E0.04710
G1 X139.585 Y104.624 E0.04710
G1 X139.546 Y106.126 E0.04710
G1 X139.353 Y107.616 E0.04710
G1 X139.008 Y109.078 E0.04710
G1 X138.515 Y110.496 E0.04710
G1 X137.878 Y111.857 E0.04710
G1 X137.105 Y113.144 E0.04710
G1 X136.203 Y114.346 E0.04710
G1 X135.183 Y115.448 E0.04710
G1 X134.054 Y116.440 E0.04710
G1 X132.830 Y117.310 E0.04710
G1 X131.523 Y118.050 E0.04710
G1 X130.146 Y118.652 E0.04710
G1 X128.716 Y119.108 E0.04710
G1 X127.245 Y119.416 E0.04710
G1 X125.746 Y119.571 E0.04726
G1 X125.000 Y119.590 E0.02339
M73 P2 R88
G1 X124.254 Y119.571 E0.02339
G1 X122.755 Y119.416 E0.04726
G1 X121.284 Y119.108 E0.04710
G1 X119.854 Y118.652 E0.04710
G1 X118.477 Y118.050 E0.04710
G1 X117.170 Y117.310 E0.04710
G1 X115.946 Y116.440 E0.04710
G1 X114.817 Y115.448 E0.04710
G1 X113.797 Y114.346 E0.04710
G1 X112.895 Y113.144 E0.04710
G1 X112.122 Y111.857 E0.04710
G1 X111.485 Y110.496 E0.04710
G1 X110.992 Y109.078 E0.04710
G1 X110.647 Y107.616 E0.04710
G1 X110.454 Y106.126 E0.04710
G1 X110.415 Y104.624 E0.04710
G1 X110.531 Y103.127 E0.04710
G1 X110.801 Y101.649 E0.04710
G1 X111.220 Y100.207 E0.04710
G1 X111.786 Y98.815 E0.04710
G1 X112.492 Y97.489 E0.04710
G1 X113.331 Y96.243 E0.04710
G1 X114.293 Y95.090 E0.04710
G1 X115.369 Y94.041 E0.04710
G1 X116.547 Y93.109 E0.04710
G1 X117.814 Y92.303 E0.04710
G1 X119.158 Y91.631 E0.04710
G1 X120.563 Y91.102 E0.04710
G1 X122.016 Y90.719 E0.04710
G1 X123.500 Y90.488 E0.04710
G1 X125.000 Y90.411 E0.04710
G1 X126.500 Y90.488 E0.04710
G1 X127.984 Y90.719 E0.04710
G1 X129.437 Y91.102 E0.04710
G1 X130.842 Y91.631 E0.04710
G1 X132.186 Y92.303 E0.04710
G1 X133.453 Y93.109 E0.04710
G1 X134.631 Y94.041 E0.04710
G1 X135.607 Y94.992 E0.04273
G1 X135.533 Y95.417 F10800.000
;WIPE_START
G1 F8640.000
G1 X136.669 Y96.243 E-0.37888
G1 X137.508 Y97.489 E-0.34684
G1 X137.578 Y97.621 E-0.03428
;WIPE_END
G1 E-0.04000 F2100.000
G1 Z0.600 F10800.000
G1 X133.268 Y93.588
G1 Z0.200
G1 E0.80000 F2100.000
;TYPE:Solid infill
;WIDTH:0.424315
G1 F1200.000
G1 X135.237 Y95.557 E0.08829
G1 X136.141 Y96.640 E0.04474
G1 X136.881 Y97.740 E0.04204
G1 X132.296 Y93.155 E0.20560
G1 X131.861 Y92.878 E0.01638
G1 X131.099 Y92.498 E0.02699
G1 X137.522 Y98.920 E0.28805
G1 X137.615 Y99.095 E0.00630
G1 X137.929 Y99.866 E0.02640
G1 X130.131 Y92.068 E0.34974
G1 X129.265 Y91.742 E0.02934
G1 X138.241 Y100.718 E0.40258
G1 X138.463 Y101.479 E0.02513
G1 X128.528 Y91.545 E0.44555
G1 X127.803 Y91.359 E0.02375
G1 X138.626 Y102.181 E0.48539
G1 X138.746 Y102.841 E0.02126
G1 X127.164 Y91.259 E0.51944
G1 X126.525 Y91.160 E0.02051
G1 X138.833 Y103.468 E0.55201
G1 X138.878 Y104.052 E0.01860
G1 X125.946 Y91.120 E0.58000
G1 X125.378 Y91.091 E0.01806
G1 X138.924 Y104.637 E0.60754
G1 X138.911 Y105.163 E0.01669
G1 X124.828 Y91.080 E0.63161
G1 X124.315 Y91.107 E0.01629
G1 X138.897 Y105.689 E0.65401
G1 X138.871 Y106.202 E0.01629
G1 X123.802 Y91.133 E0.67583
G1 X123.568 Y91.145 E0.00743
G1 X123.314 Y91.185 E0.00815
G1 X138.809 Y106.680 E0.69493
G1 X138.747 Y107.157 E0.01527
G1 X122.847 Y91.257 E0.71309
G1 X122.381 Y91.330 E0.01498
G1 X130.181 Y99.130 E0.34983
G1 X129.641 Y99.130 E0.01711
G1 X121.934 Y91.423 E0.34566
G1 X121.507 Y91.535 E0.01400
G1 X129.102 Y99.130 E0.34062
G1 X128.563 Y99.130 E0.01711
G1 X121.080 Y91.648 E0.33558
G1 X120.662 Y91.769 E0.01380
G1 X128.023 Y99.130 E0.33012
G1 X127.484 Y99.130 E0.01711
G1 X120.271 Y91.917 E0.32350
G1 X119.879 Y92.065 E0.01328
G1 X126.944 Y99.130 E0.31688
G1 X126.405 Y99.130 E0.01711
G1 X119.487 Y92.212 E0.31026
G1 X119.122 Y92.387 E0.01283
G1 X125.866 Y99.130 E0.30243
G1 X125.326 Y99.130 E0.01711
G1 X118.763 Y92.567 E0.29437
G1 X118.403 Y92.746 E0.01275
G1 X124.787 Y99.130 E0.28631
G1 X124.248 Y99.130 E0.01711
G1 X118.051 Y92.934 E0.27789
G1 X117.722 Y93.144 E0.01239
G1 X123.708 Y99.130 E0.26848
G1 X123.169 Y99.130 E0.01711
G1 X117.392 Y93.353 E0.25908
G1 X117.062 Y93.563 E0.01239
G1 X122.629 Y99.130 E0.24967
G1 X122.090 Y99.130 E0.01711
G1 X116.750 Y93.790 E0.23950
G1 X116.449 Y94.028 E0.01218
M73 Q2 S88
G1 X121.551 Y99.130 E0.22882
G1 X121.011 Y99.130 E0.01711
G1 X116.148 Y94.266 E0.21813
G1 X115.847 Y94.505 E0.01218
G1 X120.472 Y99.130 E0.20744
G1 X119.933 Y99.130 E0.01711
G1 X115.570 Y94.767 E0.19568
G1 X115.296 Y95.033 E0.01210
G1 X119.393 Y99.130 E0.18374
G1 X119.130 Y99.130 E0.00834
G1 X119.130 Y99.406 E0.00876
G1 X115.023 Y95.300 E0.18419
G1 X114.753 Y95.569 E0.01210
G1 X119.130 Y99.946 E0.19631
G1 X119.130 Y100.485 E0.01711
G1 X114.508 Y95.863 E0.20732
G1 X114.262 Y96.157 E0.01214
G1 X119.130 Y101.025 E0.21832
G1 X119.130 Y101.564 E0.01711
G1 X114.017 Y96.451 E0.22932
G1 X113.782 Y96.755 E0.01219
G1 X119.130 Y102.103 E0.23987
G1 X119.130 Y102.643 E0.01711
G1 X113.565 Y97.077 E0.24960
G1 X113.348 Y97.400 E0.01232
G1 X119.130 Y103.182 E0.25933
G1 X119.130 Y103.721 E0.01711
G1 X113.131 Y97.722 E0.26906
G1 X112.934 Y98.064 E0.01252
G1 X119.130 Y104.261 E0.27790
G1 X119.130 Y104.800 E0.01711
G1 X112.746 Y98.416 E0.28631
G1 X112.559 Y98.768 E0.01265
G1 X119.130 Y105.340 E0.29471
G1 X119.130 Y105.879 E0.01711
G1 X112.374 Y99.123 E0.30302
G1 X112.218 Y99.506 E0.01313
G1 X119.130 Y106.418 E0.31001
G1 X119.130 Y106.958 E0.01711
G1 X112.062 Y99.889 E0.31701
G1 X111.906 Y100.273 E0.01313
G1 X119.130 Y107.497 E0.32400
G1 X119.130 Y108.036 E0.01711
G1 X111.771 Y100.677 E0.33006
G1 X111.649 Y101.095 E0.01380
G1 X119.130 Y108.576 E0.33551
G1 X119.130 Y109.115 E0.01711
G1 X111.528 Y101.513 E0.34097
G1 X111.444 Y101.801 E0.00952
G1 X111.418 Y101.942 E0.00456
G1 X119.130 Y109.655 E0.34589
G1 X119.130 Y110.194 E0.01711
G1 X111.189 Y102.253 E0.35616
;WIPE_START
G1 F8640.000
G1 X113.516 Y104.580 E-0.76000
;WIPE_END
G1 E-0.04000 F2100.000
G1 Z0.600 F10800.000
G1 X130.700 Y99.650
G1 Z0.200
G1 E0.80000 F2100.000
G1 F1200.000
G1 X138.673 Y107.623 E0.35759
G1 X138.570 Y108.059 E0.01422
G1 X130.870 Y100.359 E0.34536
G1 X130.870 Y100.898 E0.01711
G1 X138.467 Y108.496 E0.34074
G1 X138.361 Y108.929 E0.01414
G1 X130.870 Y101.437 E0.33598
G1 X130.870 Y101.977 E0.01711
G1 X138.222 Y109.329 E0.32973
G1 X138.083 Y109.729 E0.01344
G1 X130.870 Y102.516 E0.32349
G1 X130.870 Y103.056 E0.01711
G1 X137.944 Y110.129 E0.31725
G1 X137.781 Y110.506 E0.01302
G1 X130.870 Y103.595 E0.30997
G1 X130.870 Y104.134 E0.01711
G1 X137.609 Y110.874 E0.30226
G1 X137.437 Y111.241 E0.01286
G1 X130.870 Y104.674 E0.29454
G1 X130.870 Y105.213 E0.01711
G1 X137.260 Y111.603 E0.28660
G1 X137.058 Y111.940 E0.01247
M73 P3 R87
M73 Q3 S88
G1 X130.870 Y105.752 E0.27752
G1 X130.870 Y106.292 E0.01711
G1 X136.855 Y112.277 E0.26845
G1 X136.653 Y112.614 E0.01247
G1 X130.870 Y106.831 E0.25937
G1 X130.870 Y107.371 E0.01711
G1 X136.436 Y112.936 E0.24962
G1 X136.204 Y113.245 E0.01222
G1 X130.870 Y107.910 E0.23925
G1 X130.870 Y108.449 E0.01711
G1 X135.973 Y113.553 E0.22888
G1 X135.742 Y113.861 E0.01222
G1 X130.870 Y108.989 E0.21851
G1 X130.870 Y109.528 E0.01711
G1 X135.488 Y114.147 E0.20713
G1 X135.229 Y114.427 E0.01210
G1 X130.870 Y110.067 E0.19551
G1 X130.870 Y110.607 E0.01711
G1 X134.970 Y114.707 E0.18388
G1 X134.721 Y114.975 E0.01159
G1 X134.709 Y114.986 E0.00051
G1 X130.594 Y110.870 E0.18459
G1 X130.054 Y110.870 E0.01711
G1 X134.422 Y115.238 E0.19591
G1 X134.135 Y115.490 E0.01212
G1 X129.515 Y110.870 E0.20722
G1 X128.975 Y110.870 E0.01711
G1 X133.848 Y115.743 E0.21854
G1 X133.553 Y115.987 E0.01215
G1 X128.436 Y110.870 E0.22949
G1 X127.897 Y110.870 E0.01711
G1 X133.238 Y116.211 E0.23954
G1 X132.922 Y116.435 E0.01227
G1 X127.357 Y110.870 E0.24959
G1 X126.818 Y110.870 E0.01711
G1 X132.607 Y116.659 E0.25964
G1 X132.275 Y116.866 E0.01242
G1 X126.279 Y110.870 E0.26893
G1 X125.739 Y110.870 E0.01711
G1 X131.930 Y117.061 E0.27767
G1 X131.586 Y117.256 E0.01255
G1 X125.200 Y110.870 E0.28642
G1 X124.660 Y110.870 E0.01711
G1 X131.242 Y117.451 E0.29516
G1 X130.868 Y117.616 E0.01297
G1 X124.121 Y110.870 E0.30257
G1 X123.582 Y110.870 E0.01711
G1 X130.492 Y117.780 E0.30993
G1 X130.117 Y117.944 E0.01299
G1 X123.042 Y110.870 E0.31729
G1 X122.503 Y110.870 E0.01711
G1 X129.726 Y118.093 E0.32395
G1 X129.317 Y118.224 E0.01361
G1 X121.964 Y110.870 E0.32981
G1 X121.424 Y110.870 E0.01711
G1 X128.908 Y118.354 E0.33566
G1 X128.495 Y118.480 E0.01370
G1 X120.885 Y110.870 E0.34132
G1 X120.345 Y110.870 E0.01711
G1 X128.049 Y118.574 E0.34550
G1 X127.603 Y118.667 E0.01445
G1 X119.636 Y110.700 E0.35729
;WIPE_START
G1 F8640.000
G1 X121.964 Y113.028 E-0.76000
;WIPE_END
G1 E-0.04000 F2100.000
G1 Z0.600 F10800.000
G1 X127.300 Y118.903
G1 Z0.200
G1 E0.80000 F2100.000
G1 F1200.000
G1 X111.252 Y102.855 E0.71977
M73 Q3 S87
G1 X111.178 Y103.321 E0.01496
G1 X126.669 Y118.812 E0.69476
G1 X126.180 Y118.862 E0.01559
G1 X111.139 Y103.821 E0.67458
G1 X111.101 Y104.322 E0.01592
G1 X125.691 Y118.912 E0.65435
