; generated by PrusaSlicer 2.3.3+win64 on 2021-12-14 at 14:19:10 UTC

; 

; external perimeters extrusion width = 0.45mm
; perimeters extrusion width = 0.45mm
; infill extrusion width = 0.45mm
; solid infill extrusion width = 0.45mm
; top infill extrusion width = 0.40mm
; first layer extrusion width = 0.42mm

; external perimeters extrusion width = 0.45mm
; perimeters extrusion width = 0.45mm
; infill extrusion width = 0.45mm
; solid infill extrusion width = 0.45mm
; top infill extrusion width = 0.40mm
; first layer extrusion width = 0.42mm

M73 P0 R133
M73 Q0 S134
M201 X1000 Y1000 Z200 E8000 ; sets maximum accelerations, mm/sec^2
M203 X200 Y200 Z12 E120 ; sets maximum feedrates, mm/sec
M204 P1250 R1250 T1250 ; sets acceleration (P, T) and retract acceleration (R), mm/sec^2
M205 X8.00 Y8.00 Z0.40 E4.50 ; sets the jerk limits, mm/sec
M205 S0 T0 ; sets the minimum extruding and travel feed rate, mm/sec
M107
;TYPE:Custom
M862.3 P "MK3SMMU2S" ; printer model check
M862.1 P0.4 ; nozzle diameter check
M115 U3.10.0 ; tell printer latest fw version
G90 ; use absolute coordinates
M83 ; extruder relative mode
M104 S215 ; set extruder temp
M140 S60 ; set bed temp
M190 S60 ; wait for bed temp
M109 S215 ; wait for extruder temp
G28 W ; home all without mesh bed level
G80 ; mesh bed leveling

; Send the filament type to the MMU2.0 unit.
; E stands for extruder number, F stands for filament type (0: default; 1:flex; 2: PVA)
M403 E0 F0
M403 E1 F0
M403 E2 F0
M403 E3 F0
M403 E4 F0


;go outside print area
G1 Y-3.0 F1000.0
M73 Q0 S133
G1 Z0.4 F1000.0
; select extruder
T1
; initial load
G1 X55.0 E29.0 F1073.0
G1 X5.0 E29.0 F1800.0
G1 X55.0 E8.0 F2000.0
G1 Z0.3 F1000.0
G92 E0.0
G1 X240.0 E25.0 F2200.0
M73 P0 R132
G1 Y-2.0 F1000.0
G1 X55.0 E25 F1400.0
G1 Z0.20 F1000.0
G1 X5.0 E4.0 F1000.0
G92 E0.0


M221 S95
G92 E0.0

; Don't change E values below. Excessive value can damage the printer.
M907 E430 ; set extruder motor current
G21 ; set units to millimeters
G90 ; use absolute coordinates
M83 ; use relative distances for extrusion
T1
M900 K0.05 ; Filament gcode LA 1.5
M900 K30 ; Filament gcode LA 1.0
G1 Z0.200 F10800.000
;LAYER_CHANGE
;Z:0.2
;HEIGHT:0.2
;BEFORE_LAYER_CHANGE
G92 E0.0
;0.2


G1 E-0.80000 F2100.000
G1 Z0.600 F10800.000
G1 Z0.200
;AFTER_LAYER_CHANGE
;0.2
G1 E-1.20000 F2100.000
G1 Z0.600 F10800.000
G1 X233.000 Y125.000
G1 Z0.200
G1 E2.00000 F2100.000
;HEIGHT:0.200000
;TYPE:Wipe tower
;WIDTH:0.500000
;-------------------------------------
; CP WIPE TOWER FIRST LAYER BRIM START
G1  X233.000 Y169.620  E2.5438 F2400
G1  X230.457 Y170.077   F7000
G1  Y124.543  E1.9036 F2100
G1  X169.543  E2.5466
G1  Y170.077  E1.9036
G1  X230.457  E2.5466
G1  X230.914 Y170.534   F7000
G1  Y124.086  E1.9419 F2100
G1  X169.086  E2.5849
G1  Y170.534  E1.9419
G1  X230.914  E2.5849
G1  X231.371 Y170.991   F7000
G1  Y123.629  E1.9801 F2100
G1  X168.629  E2.6231
G1  Y170.991  E1.9801
G1  X231.371  E2.6231
G1  X231.828 Y171.448   F7000
G1  Y123.172  E2.0183 F2100
G1  X168.172  E2.6613
G1  Y171.448  E2.0183
G1  X231.828  E2.6613
; CP WIPE TOWER FIRST LAYER BRIM END
;-----------------------------------

;WIPE_START
G1 F8640.000
G1 X231.371 Y170.991 E-0.14925
G1 X228.726 Y170.991 E-0.61075
;WIPE_END
G1 E-0.04000 F2100.000
G1 Z0.600 F10800.000
G1 X233.885 Y171.874
G1 Z0.200
G1 E0.80000 F2100.000
M204 S1000
;TYPE:Skirt
;WIDTH:0.42
;HEIGHT:0.2
G1 F1200.000
G1 X233.627 Y172.461 E0.02012
G1 X233.254 Y172.927 E0.01870
G1 X232.774 Y173.287 E0.01882
G1 X232.222 Y173.514 E0.01870
G1 X231.628 Y173.597 E0.01882
G1 X168.389 Y173.597 E1.98281
M73 Q0 S132
G1 X167.750 Y173.506 E0.02024
G1 X167.159 Y173.247 E0.02024
G1 X113.415 Y136.530 E2.04079
G1 X112.051 Y135.556 E0.05256
G1 X110.705 Y134.372 E0.05621
G1 X109.495 Y133.064 E0.05586
G1 X108.399 Y131.598 E0.05741
G1 X107.450 Y129.997 E0.05836
G1 X106.744 Y128.482 E0.05239
G1 X106.190 Y126.897 E0.05263
G1 X105.745 Y125.051 E0.05955
G1 X105.509 Y123.159 E0.05979
G1 X105.470 Y121.488 E0.05240
G1 X105.596 Y119.818 E0.05251
G1 X105.928 Y117.944 E0.05967
G1 X106.468 Y116.119 E0.05967
G1 X107.102 Y114.569 E0.05251
G1 X107.885 Y113.093 E0.05240
G1 X108.942 Y111.505 E0.05979
G1 X110.167 Y110.050 E0.05967
G1 X111.369 Y108.883 E0.05251
G1 X112.680 Y107.841 E0.05252
G1 X114.275 Y106.816 E0.05943
G1 X115.892 Y106.008 E0.05669
G1 X117.674 Y105.347 E0.05958
G1 X119.286 Y104.926 E0.05224
G1 X120.940 Y104.665 E0.05251
G1 X122.844 Y104.558 E0.05979
G1 X124.740 Y104.664 E0.05955
G1 X231.959 Y121.050 E3.40079
M73 P1 R132
M73 Q1 S132
G1 X232.844 Y121.375 E0.02954
G1 X233.309 Y121.748 E0.01870
G1 X233.664 Y122.222 E0.01858
G1 X233.893 Y122.773 E0.01870
G1 X233.977 Y123.364 E0.01870
G1 X233.977 Y171.239 E1.50110
G1 X233.894 Y171.815 E0.01824
; printing object body19373 id:0 copy 0
;WIPE_START
G1 F8640.000
G1 X233.627 Y172.461 E-0.16158
G1 X233.254 Y172.927 E-0.13772
G1 X232.774 Y173.287 E-0.13859
G1 X232.222 Y173.514 E-0.13772
G1 X231.628 Y173.597 E-0.13859
G1 X231.429 Y173.597 E-0.04580
;WIPE_END
G1 E-0.04000 F2100.000
G1 Z0.600 F10800.000
G1 X128.805 Y127.899
G1 Z0.200
G1 E0.80000 F2100.000
;TYPE:Perimeter
G1 F1200.000
G1 X116.877 Y127.899 E0.37400
G1 X116.877 Y115.971 E0.37400
M73 P1 R131
G1 X128.805 Y115.971 E0.37400
G1 X128.805 Y127.839 E0.37212
G1 X128.428 Y127.522 F10800.000
G1 F1200.000
G1 X117.254 Y127.522 E0.35036
G1 X117.254 Y116.348 E0.35036
G1 X128.428 Y116.348 E0.35036
G1 X128.428 Y127.462 E0.34848
G1 X128.051 Y127.145 F10800.000
;TYPE:External perimeter
G1 F1200.000
G1 X117.631 Y127.145 E0.32671
G1 X117.631 Y116.725 E0.32671
G1 X128.051 Y116.725 E0.32671
G1 X128.051 Y127.085 E0.32483
G1 X128.154 Y127.531 F10800.000
;WIPE_START
G1 F8640.000
G1 X124.760 Y127.104 E-0.76000
;WIPE_END
G1 E-0.04000 F2100.000
G1 Z0.600 F10800.000
G1 X132.496 Y131.843
G1 Z0.200
G1 E0.80000 F2100.000
;TYPE:Perimeter
G1 F1200.000
G1 X131.427 Y132.783 E0.04466
G1 X130.266 Y133.608 E0.04466
G1 X129.026 Y134.310 E0.04466
G1 X127.721 Y134.880 E0.04466
G1 X126.364 Y135.313 E0.04466
G1 X124.970 Y135.605 E0.04466
G1 X123.538 Y135.753 E0.04513
G1 X122.841 Y135.771 E0.02187
G1 X122.144 Y135.753 E0.02187
G1 X120.712 Y135.605 E0.04513
G1 X119.318 Y135.313 E0.04466
G1 X117.961 Y134.880 E0.04466
G1 X116.656 Y134.310 E0.04466
G1 X115.416 Y133.608 E0.04466
G1 X114.255 Y132.783 E0.04466
G1 X113.185 Y131.843 E0.04466
G1 X112.218 Y130.797 E0.04466
G1 X111.363 Y129.658 E0.04466
G1 X110.630 Y128.437 E0.04466
G1 X110.026 Y127.147 E0.04466
G1 X109.558 Y125.802 E0.04466
G1 X109.231 Y124.415 E0.04466
G1 X109.048 Y123.003 E0.04466
G1 X109.011 Y121.579 E0.04466
G1 X109.121 Y120.159 E0.04466
G1 X109.376 Y118.757 E0.04466
G1 X109.775 Y117.390 E0.04466
G1 X110.311 Y116.070 E0.04466
G1 X110.981 Y114.813 E0.04466
G1 X111.776 Y113.632 E0.04466
G1 X112.688 Y112.538 E0.04466
G1 X113.708 Y111.544 E0.04466
G1 X114.825 Y110.660 E0.04466
G1 X116.027 Y109.895 E0.04466
G1 X117.301 Y109.258 E0.04466
G1 X118.634 Y108.756 E0.04466
G1 X120.011 Y108.393 E0.04466
G1 X121.418 Y108.174 E0.04466
G1 X122.841 Y108.101 E0.04466
G1 X124.263 Y108.174 E0.04466
G1 X125.671 Y108.393 E0.04466
G1 X127.048 Y108.756 E0.04466
G1 X128.381 Y109.258 E0.04466
G1 X129.655 Y109.895 E0.04466
G1 X130.857 Y110.660 E0.04466
G1 X131.974 Y111.544 E0.04466
G1 X132.994 Y112.538 E0.04466
G1 X133.906 Y113.632 E0.04466
G1 X134.701 Y114.813 E0.04466
G1 X135.371 Y116.070 E0.04466
G1 X135.907 Y117.390 E0.04466
G1 X136.305 Y118.757 E0.04466
G1 X136.561 Y120.159 E0.04466
G1 X136.671 Y121.579 E0.04466
G1 X136.634 Y123.003 E0.04466
G1 X136.451 Y124.415 E0.04466
G1 X136.124 Y125.802 E0.04466
G1 X135.656 Y127.147 E0.04466
G1 X135.052 Y128.437 E0.04466
G1 X134.319 Y129.658 E0.04466
G1 X133.464 Y130.797 E0.04466
G1 X132.537 Y131.798 E0.04278
G1 X132.814 Y132.055 F10800.000
G1 F1200.000
G1 X131.661 Y133.079 E0.04836
G1 X130.468 Y133.927 E0.04588
G1 X129.195 Y134.647 E0.04588
G1 X127.854 Y135.233 E0.04588
G1 X126.460 Y135.678 E0.04588
G1 X125.028 Y135.978 E0.04588
G1 X123.562 Y136.129 E0.04620
G1 X122.841 Y136.148 E0.02263
G1 X122.119 Y136.129 E0.02263
G1 X120.654 Y135.978 E0.04620
G1 X119.222 Y135.678 E0.04588
G1 X117.828 Y135.233 E0.04588
G1 X116.487 Y134.647 E0.04588
G1 X115.213 Y133.927 E0.04588
G1 X114.021 Y133.079 E0.04588
G1 X112.922 Y132.113 E0.04588
G1 X111.928 Y131.039 E0.04588
G1 X111.050 Y129.869 E0.04588
G1 X110.296 Y128.614 E0.04588
G1 X109.676 Y127.289 E0.04588
G1 X109.195 Y125.907 E0.04588
G1 X108.859 Y124.483 E0.04588
G1 X108.671 Y123.032 E0.04588
G1 X108.634 Y121.569 E0.04588
G1 X108.747 Y120.110 E0.04588
G1 X109.009 Y118.671 E0.04588
G1 X109.418 Y117.266 E0.04588
G1 X109.969 Y115.910 E0.04588
G1 X110.657 Y114.619 E0.04588
G1 X111.474 Y113.405 E0.04588
G1 X112.411 Y112.281 E0.04588
G1 X113.459 Y111.260 E0.04588
G1 X114.606 Y110.352 E0.04588
G1 X115.841 Y109.567 E0.04588
G1 X117.150 Y108.912 E0.04588
G1 X118.519 Y108.396 E0.04588
G1 X119.934 Y108.024 E0.04588
G1 X121.380 Y107.798 E0.04588
G1 X122.841 Y107.723 E0.04588
G1 X124.302 Y107.798 E0.04588
G1 X125.748 Y108.024 E0.04588
G1 X127.163 Y108.396 E0.04588
G1 X128.532 Y108.912 E0.04588
G1 X129.841 Y109.567 E0.04588
G1 X131.076 Y110.352 E0.04588
G1 X132.223 Y111.260 E0.04588
G1 X133.271 Y112.281 E0.04588
G1 X134.208 Y113.405 E0.04588
G1 X135.025 Y114.619 E0.04588
G1 X135.713 Y115.910 E0.04588
G1 X136.264 Y117.266 E0.04588
G1 X136.673 Y118.671 E0.04588
G1 X136.935 Y120.110 E0.04588
G1 X137.048 Y121.569 E0.04588
G1 X137.010 Y123.032 E0.04588
G1 X136.823 Y124.483 E0.04588
G1 X136.486 Y125.907 E0.04588
G1 X136.006 Y127.289 E0.04588
G1 X135.385 Y128.614 E0.04588
G1 X134.632 Y129.869 E0.04588
G1 X133.754 Y131.039 E0.04588
G1 X132.855 Y132.011 E0.04151
G1 X133.131 Y132.267 F10800.000
;TYPE:External perimeter
G1 F1200.000
G1 X133.024 Y132.383 E0.00498
G1 X131.895 Y133.375 E0.04710
G1 X130.671 Y134.245 E0.04710
G1 X129.364 Y134.985 E0.04710
G1 X127.987 Y135.587 E0.04710
G1 X126.556 Y136.043 E0.04710
G1 X125.086 Y136.351 E0.04710
G1 X123.587 Y136.506 E0.04726
G1 X122.841 Y136.525 E0.02339
G1 X122.095 Y136.506 E0.02339
G1 X120.596 Y136.351 E0.04726
G1 X119.125 Y136.043 E0.04710
G1 X117.694 Y135.587 E0.04710
G1 X116.318 Y134.985 E0.04710
G1 X115.011 Y134.245 E0.04710
G1 X113.787 Y133.375 E0.04710
G1 X112.658 Y132.383 E0.04710
G1 X111.638 Y131.281 E0.04710
G1 X110.736 Y130.080 E0.04710
G1 X109.963 Y128.792 E0.04710
G1 X109.326 Y127.431 E0.04710
G1 X108.833 Y126.013 E0.04710
G1 X108.488 Y124.551 E0.04710
G1 X108.295 Y123.061 E0.04710
G1 X108.256 Y121.559 E0.04710
G1 X108.372 Y120.062 E0.04710
G1 X108.642 Y118.584 E0.04710
G1 X109.061 Y117.142 E0.04710
G1 X109.627 Y115.750 E0.04710
G1 X110.333 Y114.424 E0.04710
G1 X111.172 Y113.178 E0.04710
G1 X112.134 Y112.025 E0.04710
G1 X113.210 Y110.976 E0.04710
G1 X114.387 Y110.044 E0.04710
G1 X115.655 Y109.238 E0.04710
G1 X116.999 Y108.566 E0.04710
G1 X118.404 Y108.037 E0.04710
G1 X119.857 Y107.654 E0.04710
G1 X121.341 Y107.423 E0.04710
G1 X122.841 Y107.346 E0.04710
G1 X124.341 Y107.423 E0.04710
G1 X125.825 Y107.654 E0.04710
G1 X127.278 Y108.037 E0.04710
G1 X128.683 Y108.566 E0.04710
G1 X130.027 Y109.238 E0.04710
G1 X131.294 Y110.044 E0.04710
G1 X132.472 Y110.976 E0.04710
G1 X133.548 Y112.025 E0.04710
G1 X134.510 Y113.178 E0.04710
G1 X135.349 Y114.424 E0.04710
G1 X136.055 Y115.750 E0.04710
G1 X136.620 Y117.142 E0.04710
G1 X137.040 Y118.584 E0.04710
G1 X137.310 Y120.062 E0.04710
G1 X137.426 Y121.559 E0.04710
G1 X137.387 Y123.061 E0.04710
G1 X137.194 Y124.551 E0.04710
G1 X136.849 Y126.013 E0.04710
G1 X136.355 Y127.431 E0.04710
G1 X135.719 Y128.792 E0.04710
G1 X134.945 Y130.080 E0.04710
G1 X134.044 Y131.281 E0.04710
G1 X133.172 Y132.223 E0.04023
G1 X132.976 Y132.234 F10800.000
;WIPE_START
G1 F8640.000
G1 X133.024 Y132.383 E-0.05054
G1 X131.895 Y133.375 E-0.34684
G1 X130.671 Y134.245 E-0.34684
G1 X130.612 Y134.279 E-0.01579
;WIPE_END
G1 E-0.04000 F2100.000
G1 Z0.600 F10800.000
G1 X130.856 Y110.803
G1 Z0.200
G1 E0.80000 F2100.000
;TYPE:Solid infill
;WIDTH:0.424426
G1 F1200.000
G1 X132.801 Y112.749 E0.08726
G1 X133.680 Y113.801 E0.04350
G1 X134.430 Y114.917 E0.04266
G1 X129.898 Y110.385 E0.20331
G1 X129.515 Y110.142 E0.01440
G1 X128.715 Y109.742 E0.02837
G1 X135.057 Y116.084 E0.28451
G1 X135.450 Y117.016 E0.03208
G1 X127.761 Y109.327 E0.34493
G1 X126.905 Y109.011 E0.02894
G1 X135.748 Y117.853 E0.39667
G1 X135.969 Y118.614 E0.02514
G1 X126.173 Y108.818 E0.43947
G1 X125.463 Y108.647 E0.02318
G1 X136.117 Y119.302 E0.47798
G1 X136.237 Y119.961 E0.02127
G1 X124.824 Y108.548 E0.51205
G1 X124.190 Y108.453 E0.02032
G1 X136.309 Y120.573 E0.54369
G1 X136.354 Y121.157 E0.01861
G1 X123.621 Y108.424 E0.57124
G1 X123.052 Y108.395 E0.01807
G1 X136.384 Y121.727 E0.59809
G1 X136.370 Y122.253 E0.01669
G1 X122.518 Y108.401 E0.62143
G1 X122.005 Y108.427 E0.01630
G1 X136.357 Y122.778 E0.64384
G1 X136.314 Y123.275 E0.01580
G1 X129.088 Y116.049 E0.32416
G1 X129.088 Y115.688 E0.01145
G1 X128.727 Y115.688 E0.01145
G1 X121.492 Y108.453 E0.32456
G1 X121.021 Y108.522 E0.01509
G1 X128.187 Y115.688 E0.32148
G1 X127.648 Y115.688 E0.01712
G1 X120.555 Y108.595 E0.31822
G1 X120.088 Y108.668 E0.01499
G1 X127.108 Y115.688 E0.31496
G1 X126.569 Y115.688 E0.01712
G1 X119.659 Y108.778 E0.30998
G1 X119.232 Y108.891 E0.01401
G1 X126.029 Y115.688 E0.30494
G1 X125.490 Y115.688 E0.01712
G1 X118.805 Y109.003 E0.29989
G1 X118.406 Y109.144 E0.01342
G1 X124.950 Y115.688 E0.29358
G1 X124.411 Y115.688 E0.01712
G1 X118.014 Y109.292 E0.28695
G1 X117.622 Y109.439 E0.01328
G1 X123.871 Y115.688 E0.28033
G1 X123.332 Y115.688 E0.01712
G1 X117.246 Y109.602 E0.27303
G1 X116.886 Y109.782 E0.01276
G1 X122.792 Y115.688 E0.26496
G1 X122.253 Y115.688 E0.01712
G1 X116.526 Y109.962 E0.25689
G1 X116.167 Y110.142 E0.01276
G1 X121.713 Y115.688 E0.24883
G1 X121.173 Y115.688 E0.01712
G1 X115.837 Y110.351 E0.23942
G1 X115.507 Y110.561 E0.01240
G1 X120.634 Y115.688 E0.23001
G1 X120.094 Y115.688 E0.01712
G1 X115.177 Y110.771 E0.22060
G1 X114.860 Y110.993 E0.01229
G1 X119.555 Y115.688 E0.21064
G1 X119.015 Y115.688 E0.01712
G1 X114.559 Y111.231 E0.19994
M73 P1 R130
M73 Q1 S131
G1 X114.257 Y111.470 E0.01218
G1 X118.476 Y115.688 E0.18925
G1 X117.936 Y115.688 E0.01712
G1 X113.956 Y111.708 E0.17855
G1 X113.677 Y111.969 E0.01211
G1 X117.397 Y115.688 E0.16686
G1 X116.857 Y115.688 E0.01712
G1 X113.404 Y112.235 E0.15492
G1 X113.131 Y112.501 E0.01210
G1 X116.594 Y115.964 E0.15536
G1 X116.594 Y116.504 E0.01712
G1 X112.861 Y112.771 E0.16745
G1 X112.616 Y113.066 E0.01215
G1 X116.594 Y117.043 E0.17846
G1 X116.594 Y117.583 E0.01712
G1 X112.371 Y113.360 E0.18946
G1 X112.125 Y113.654 E0.01215
G1 X116.594 Y118.122 E0.20047
G1 X116.594 Y118.662 E0.01712
G1 X111.894 Y113.962 E0.21085
G1 X111.677 Y114.285 E0.01233
G1 X116.594 Y119.202 E0.22058
G1 X116.594 Y119.741 E0.01712
G1 X111.460 Y114.607 E0.23032
G1 X111.243 Y114.930 E0.01233
G1 X116.594 Y120.281 E0.24005
G1 X116.594 Y120.820 E0.01712
G1 X111.053 Y115.279 E0.24858
G1 X110.865 Y115.631 E0.01265
G1 X116.594 Y121.360 E0.25699
G1 X116.594 Y121.899 E0.01712
G1 X110.678 Y115.983 E0.26540
G1 X110.503 Y116.348 E0.01283
G1 X116.594 Y122.439 E0.27323
G1 X116.594 Y122.978 E0.01712
G1 X110.347 Y116.732 E0.28023
G1 X110.192 Y117.115 E0.01313
G1 X116.594 Y123.518 E0.28723
M73 P2 R130
M73 Q2 S131
G1 X116.594 Y124.057 E0.01712
G1 X110.037 Y117.500 E0.29416
G1 X109.915 Y117.918 E0.01381
G1 X116.594 Y124.597 E0.29962
G1 X116.594 Y125.136 E0.01712
G1 X109.794 Y118.336 E0.30508
G1 X109.672 Y118.754 E0.01381
G1 X116.594 Y125.676 E0.31053
G1 X116.594 Y126.215 E0.01712
G1 X109.583 Y119.204 E0.31455
G1 X109.499 Y119.660 E0.01472
G1 X116.594 Y126.755 E0.31828
G1 X116.594 Y127.295 E0.01712
G1 X109.270 Y119.971 E0.32855
;WIPE_START
G1 F8640.000
G1 X111.598 Y122.298 E-0.76000
;WIPE_END
G1 E-0.04000 F2100.000
G1 Z0.600 F10800.000
G1 X128.918 Y116.419
G1 Z0.200
G1 E0.80000 F2100.000
G1 F1200.000
G1 X136.252 Y123.752 E0.32900
G1 X136.190 Y124.230 E0.01528
G1 X129.088 Y117.128 E0.31861
G1 X129.088 Y117.668 E0.01712
G1 X136.098 Y124.678 E0.31451
G1 X135.995 Y125.115 E0.01423
G1 X129.088 Y118.207 E0.30989
G1 X129.088 Y118.747 E0.01712
G1 X135.892 Y125.551 E0.30527
G1 X135.767 Y125.966 E0.01373
