; generated by PrusaSlicer 2.3.3+win64 on 2021-12-16 at 11:52:32 UTC

; 

; external perimeters extrusion width = 0.45mm
; perimeters extrusion width = 0.45mm
; infill extrusion width = 0.45mm
; solid infill extrusion width = 0.45mm
; top infill extrusion width = 0.40mm
; first layer extrusion width = 0.42mm

; external perimeters extrusion width = 0.45mm
; perimeters extrusion width = 0.45mm
; infill extrusion width = 0.45mm
; solid infill extrusion width = 0.45mm
; top infill extrusion width = 0.40mm
; first layer extrusion width = 0.42mm

; external perimeters extrusion width = 0.45mm
; perimeters extrusion width = 0.45mm
; infill extrusion width = 0.45mm
; solid infill extrusion width = 0.45mm
; top infill extrusion width = 0.40mm
; first layer extrusion width = 0.42mm

; external perimeters extrusion width = 0.45mm
; perimeters extrusion width = 0.45mm
; infill extrusion width = 0.45mm
; solid infill extrusion width = 0.45mm
; top infill extrusion width = 0.40mm
; first layer extrusion width = 0.42mm

; external perimeters extrusion width = 0.45mm
; perimeters extrusion width = 0.45mm
; infill extrusion width = 0.45mm
; solid infill extrusion width = 0.45mm
; top infill extrusion width = 0.40mm
; first layer extrusion width = 0.42mm

; external perimeters extrusion width = 0.45mm
; perimeters extrusion width = 0.45mm
; infill extrusion width = 0.45mm
; solid infill extrusion width = 0.45mm
; top infill extrusion width = 0.40mm
; first layer extrusion width = 0.42mm

M73 P0 R134
M73 Q0 S135
M201 X1000 Y1000 Z200 E8000 ; sets maximum accelerations, mm/sec^2
M203 X200 Y200 Z12 E120 ; sets maximum feedrates, mm/sec
M204 P1250 R1250 T1250 ; sets acceleration (P, T) and retract acceleration (R), mm/sec^2
M205 X8.00 Y8.00 Z0.40 E4.50 ; sets the jerk limits, mm/sec
M205 S0 T0 ; sets the minimum extruding and travel feed rate, mm/sec
M107
;TYPE:Custom
M862.3 P "MK3SMMU2S" ; printer model check
M862.1 P0.4 ; nozzle diameter check
M115 U3.10.0 ; tell printer latest fw version
G90 ; use absolute coordinates
M83 ; extruder relative mode
M104 S215 ; set extruder temp
M140 S60 ; set bed temp
M190 S60 ; wait for bed temp
M109 S215 ; wait for extruder temp
G28 W ; home all without mesh bed level
G80 ; mesh bed leveling

; Send the filament type to the MMU2.0 unit.
; E stands for extruder number, F stands for filament type (0: default; 1:flex; 2: PVA)
M403 E0 F0
M403 E1 F0
M403 E2 F0
M403 E3 F0
M403 E4 F0


;go outside print area
G1 Y-3.0 F1000.0
M73 Q0 S134
G1 Z0.4 F1000.0
; select extruder
T1
; initial load
G1 X55.0 E29.0 F1073.0
G1 X5.0 E29.0 F1800.0
G1 X55.0 E8.0 F2000.0
G1 Z0.3 F1000.0
G92 E0.0
G1 X240.0 E25.0 F2200.0
M73 P0 R133
G1 Y-2.0 F1000.0
G1 X55.0 E25 F1400.0
G1 Z0.20 F1000.0
G1 X5.0 E4.0 F1000.0
G92 E0.0


M221 S95
G92 E0.0

; Don't change E values below. Excessive value can damage the printer.
M907 E430 ; set extruder motor current
G21 ; set units to millimeters
G90 ; use absolute coordinates
M83 ; use relative distances for extrusion
T1
M900 K0.05 ; Filament gcode LA 1.5
M900 K30 ; Filament gcode LA 1.0
G1 Z0.200 F10800.000
;LAYER_CHANGE
;Z:0.2
;HEIGHT:0.2
;BEFORE_LAYER_CHANGE
G92 E0.0
;0.2


G1 E-0.80000 F2100.000
G1 Z0.600 F10800.000
G1 Z0.200
;AFTER_LAYER_CHANGE
;0.2
G1 E-1.20000 F2100.000
G1 Z0.600 F10800.000
G1 X241.269 Y26.884
G1 Z0.200
G1 E2.00000 F2100.000
;HEIGHT:0.200000
;TYPE:Wipe tower
;WIDTH:0.500000
;-------------------------------------
; CP WIPE TOWER FIRST LAYER BRIM START
G1  X241.269 Y187.504  E9.1569 F2400
G1  X238.726 Y187.961   F7000
G1  Y26.427  E6.7533 F2100
G1  X177.812  E2.5466
G1  Y187.961  E6.7533
G1  X238.726  E2.5466
G1  X239.183 Y188.418   F7000
G1  Y25.970  E6.7915 F2100
M73 Q0 S133
G1  X177.355  E2.5849
G1  Y188.418  E6.7915
G1  X239.183  E2.5849
G1  X239.640 Y188.875   F7000
G1  Y25.513  E6.8297 F2100
G1  X176.898  E2.6231
G1  Y188.875  E6.8297
M73 P1 R133
M73 Q1 S133
G1  X239.640  E2.6231
M73 P1 R132
G1  X240.097 Y189.332   F7000
G1  Y25.056  E6.8679 F2100
G1  X176.441  E2.6613
G1  Y189.332  E6.8679
G1  X240.097  E2.6613
; CP WIPE TOWER FIRST LAYER BRIM END
;-----------------------------------

;WIPE_START
G1 F8640.000
G1 X239.640 Y188.875 E-0.14925
G1 X236.995 Y188.875 E-0.61075
;WIPE_END
G1 E-0.04000 F2100.000
G1 Z0.600 F10800.000
G1 X240.517 Y191.390
G1 Z0.200
G1 E0.80000 F2100.000
M204 S1000
;TYPE:Skirt
;WIDTH:0.42
;HEIGHT:0.2
G1 F1200.000
G1 X239.878 Y191.480 E0.02024
G1 X176.666 Y191.480 E1.98197
G1 X175.975 Y191.377 E0.02190
G1 X59.506 Y137.716 E4.02076
G1 X58.474 Y137.093 E0.03779
G1 X57.606 Y136.357 E0.03570
G1 X56.845 Y135.474 E0.03653
G1 X56.309 Y134.619 E0.03164
G1 X55.737 Y133.251 E0.04650
G1 X55.506 Y132.253 E0.03212
G1 X55.418 Y131.156 E0.03451
G1 X55.421 Y85.984 E1.41632
G1 X55.509 Y84.960 E0.03224
G1 X55.740 Y83.966 E0.03200
G1 X56.309 Y82.608 E0.04614
G1 X56.840 Y81.759 E0.03140
G1 X57.578 Y80.897 E0.03558
G1 X58.440 Y80.159 E0.03558
G1 X59.289 Y79.628 E0.03140
G1 X175.957 Y23.016 E4.06594
G1 X176.666 Y22.907 E0.02249
G1 X239.873 Y22.907 E1.98182
G1 X240.775 Y23.086 E0.02884
G1 X241.544 Y23.597 E0.02896
G1 X242.060 Y24.363 E0.02896
G1 X242.246 Y25.267 E0.02896
G1 X242.246 Y189.119 E5.13744
M73 Q1 S132
G1 X242.165 Y189.717 E0.01894
G1 X241.937 Y190.276 E0.01894
G1 X241.577 Y190.757 E0.01882
G1 X241.105 Y191.134 E0.01894
G1 X240.572 Y191.366 E0.01824
; printing object body1748626 id:0 copy 0
;WIPE_START
G1 F8640.000
G1 X239.878 Y191.480 E-0.16244
G1 X237.290 Y191.480 E-0.59756
;WIPE_END
G1 E-0.04000 F2100.000
G1 Z0.600 F10800.000
G1 X108.248 Y110.865
G1 Z0.200
G1 E0.80000 F2100.000
;TYPE:Perimeter
G1 F1200.000
G1 X107.898 Y111.338 E0.01844
G1 X107.473 Y111.745 E0.01844
G1 X106.986 Y112.074 E0.01844
G1 X106.450 Y112.317 E0.01844
G1 X105.881 Y112.465 E0.01844
G1 X105.295 Y112.515 E0.01844
G1 X104.709 Y112.465 E0.01844
G1 X104.140 Y112.317 E0.01844
G1 X103.604 Y112.074 E0.01844
G1 X103.116 Y111.745 E0.01844
G1 X102.692 Y111.338 E0.01844
G1 X102.342 Y110.865 E0.01844
G1 X102.077 Y110.340 E0.01844
G1 X101.905 Y109.778 E0.01844
G1 X101.830 Y109.194 E0.01844
G1 X101.855 Y108.607 E0.01844
G1 X101.979 Y108.032 E0.01844
G1 X102.198 Y107.486 E0.01844
G1 X102.507 Y106.985 E0.01844
G1 X102.895 Y106.543 E0.01844
G1 X103.353 Y106.174 E0.01844
G1 X103.866 Y105.887 E0.01844
G1 X104.421 Y105.691 E0.01844
G1 X104.980 Y105.595 E0.01780
G1 X105.278 Y105.583 E0.00934
G1 X105.607 Y105.595 E0.01031
G1 X106.169 Y105.691 E0.01788
G1 X106.723 Y105.887 E0.01844
G1 X107.237 Y106.174 E0.01844
G1 X107.694 Y106.543 E0.01844
G1 X108.083 Y106.985 E0.01844
G1 X108.391 Y107.486 E0.01844
G1 X108.598 Y108.001 E0.01739
G1 X108.734 Y108.601 E0.01932
G1 X108.759 Y109.194 E0.01860
G1 X108.685 Y109.778 E0.01844
G1 X108.512 Y110.340 E0.01844
G1 X108.275 Y110.811 E0.01656
G1 X107.938 Y110.642 F10800.000
G1 F1200.000
G1 X107.614 Y111.088 E0.01729
G1 X107.235 Y111.450 E0.01643
G1 X106.801 Y111.744 E0.01643
G1 X106.324 Y111.960 E0.01643
G1 X105.817 Y112.092 E0.01643
G1 X105.295 Y112.136 E0.01643
G1 X104.773 Y112.092 E0.01643
G1 X104.266 Y111.960 E0.01643
G1 X103.788 Y111.744 E0.01643
G1 X103.354 Y111.450 E0.01643
G1 X102.976 Y111.088 E0.01643
G1 X102.664 Y110.667 E0.01643
G1 X102.428 Y110.199 E0.01643
G1 X102.275 Y109.698 E0.01643
G1 X102.208 Y109.178 E0.01643
G1 X102.231 Y108.655 E0.01643
G1 X102.341 Y108.142 E0.01643
G1 X102.536 Y107.656 E0.01643
G1 X102.811 Y107.210 E0.01643
G1 X103.157 Y106.817 E0.01643
G1 X103.565 Y106.488 E0.01643
G1 X104.022 Y106.232 E0.01643
G1 X104.516 Y106.057 E0.01643
G1 X105.020 Y105.971 E0.01604
G1 X105.279 Y105.960 E0.00812
G1 X105.568 Y105.971 E0.00905
G1 X106.073 Y106.057 E0.01608
G1 X106.567 Y106.232 E0.01643
G1 X107.025 Y106.488 E0.01643
G1 X107.432 Y106.817 E0.01643
G1 X107.778 Y107.210 E0.01643
G1 X108.053 Y107.656 E0.01643
G1 X108.237 Y108.113 E0.01544
G1 X108.359 Y108.651 E0.01730
G1 X108.381 Y109.178 E0.01653
G1 X108.315 Y109.698 E0.01643
G1 X108.161 Y110.199 E0.01643
G1 X107.965 Y110.588 E0.01367
G1 X107.628 Y110.418 F10800.000
;TYPE:External perimeter
G1 F1200.000
G1 X107.330 Y110.838 E0.01614
G1 X106.998 Y111.156 E0.01442
G1 X106.617 Y111.413 E0.01442
G1 X106.198 Y111.603 E0.01442
G1 X105.753 Y111.719 E0.01442
G1 X105.295 Y111.758 E0.01442
G1 X104.837 Y111.719 E0.01442
G1 X104.392 Y111.603 E0.01442
G1 X103.973 Y111.413 E0.01442
G1 X103.592 Y111.156 E0.01442
G1 X103.260 Y110.838 E0.01442
G1 X102.986 Y110.468 E0.01442
G1 X102.779 Y110.058 E0.01442
G1 X102.645 Y109.618 E0.01442
G1 X102.586 Y109.162 E0.01442
G1 X102.606 Y108.703 E0.01442
G1 X102.703 Y108.253 E0.01442
G1 X102.874 Y107.827 E0.01442
G1 X103.115 Y107.435 E0.01442
G1 X103.419 Y107.090 E0.01442
G1 X103.777 Y106.801 E0.01442
G1 X104.178 Y106.577 E0.01442
G1 X104.612 Y106.424 E0.01442
G1 X105.060 Y106.347 E0.01428
G1 X105.529 Y106.347 E0.01468
G1 X105.978 Y106.424 E0.01429
G1 X106.411 Y106.577 E0.01442
G1 X106.813 Y106.801 E0.01442
G1 X107.170 Y107.090 E0.01442
G1 X107.474 Y107.435 E0.01442
G1 X107.715 Y107.827 E0.01442
G1 X107.876 Y108.226 E0.01349
G1 X107.984 Y108.702 E0.01529
G1 X108.003 Y109.162 E0.01445
G1 X107.945 Y109.618 E0.01442
G1 X107.810 Y110.058 E0.01442
G1 X107.655 Y110.365 E0.01078
G1 X107.823 Y110.768 F10800.000
;WIPE_START
G1 F8640.000
G1 X107.330 Y110.838 E-0.13260
G1 X106.998 Y111.156 E-0.10616
G1 X106.617 Y111.413 E-0.10616
G1 X106.198 Y111.603 E-0.10616
G1 X105.753 Y111.719 E-0.10616
G1 X105.295 Y111.758 E-0.10616
G1 X104.878 Y111.722 E-0.09658
;WIPE_END
G1 E-0.04000 F2100.000
G1 Z0.600 F10800.000
G1 X116.831 Y103.083
G1 Z0.200
G1 E0.80000 F2100.000
;TYPE:Perimeter
G1 F1200.000
G1 X133.759 Y103.083 E0.53078
G1 X133.759 Y114.578 E0.36042
G1 X116.831 Y114.578 E0.53078
G1 X116.831 Y103.143 E0.35854
G1 X117.208 Y103.460 F10800.000
G1 F1200.000
G1 X133.382 Y103.460 E0.50713
G1 X133.382 Y114.201 E0.33677
G1 X117.208 Y114.201 E0.50713
G1 X117.208 Y103.520 E0.33489
G1 X117.585 Y103.837 F10800.000
;TYPE:External perimeter
G1 F1200.000
G1 X133.005 Y103.837 E0.48348
G1 X133.005 Y113.824 E0.31313
G1 X117.585 Y113.824 E0.48348
G1 X117.585 Y103.897 E0.31125
G1 X117.454 Y103.459 F10800.000
;WIPE_START
G1 F8640.000
G1 X120.876 Y103.884 E-0.76000
;WIPE_END
G1 E-0.04000 F2100.000
G1 Z0.600 F10800.000
G1 X102.654 Y96.198
G1 Z0.200
G1 E0.80000 F2100.000
;TYPE:Perimeter
G1 F1200.000
G1 X102.390 Y96.723 E0.01844
G1 X102.040 Y97.196 E0.01844
G1 X101.615 Y97.603 E0.01844
G1 X101.128 Y97.932 E0.01844
G1 X100.592 Y98.174 E0.01844
G1 X100.023 Y98.323 E0.01844
G1 X99.437 Y98.372 E0.01844
G1 X98.851 Y98.323 E0.01844
G1 X98.282 Y98.174 E0.01844
G1 X97.746 Y97.932 E0.01844
G1 X97.258 Y97.603 E0.01844
G1 X96.834 Y97.196 E0.01844
G1 X96.484 Y96.723 E0.01844
G1 X96.219 Y96.198 E0.01844
G1 X96.047 Y95.635 E0.01844
G1 X95.972 Y95.052 E0.01844
G1 X95.997 Y94.464 E0.01844
G1 X96.121 Y93.889 E0.01844
G1 X96.341 Y93.344 E0.01844
G1 X96.649 Y92.843 E0.01844
G1 X97.038 Y92.401 E0.01844
G1 X97.495 Y92.032 E0.01844
G1 X98.009 Y91.745 E0.01844
G1 X98.563 Y91.549 E0.01844
G1 X99.123 Y91.453 E0.01780
G1 X99.749 Y91.453 E0.01963
G1 X100.311 Y91.549 E0.01788
G1 X100.865 Y91.745 E0.01844
G1 X101.379 Y92.032 E0.01844
G1 X101.836 Y92.401 E0.01844
G1 X102.225 Y92.843 E0.01844
G1 X102.533 Y93.344 E0.01844
G1 X102.740 Y93.858 E0.01739
G1 X102.876 Y94.459 E0.01932
G1 X102.901 Y95.052 E0.01860
G1 X102.827 Y95.635 E0.01844
G1 X102.672 Y96.140 E0.01656
M73 P1 R131
G1 X102.312 Y96.030 F10800.000
G1 F1200.000
G1 X102.067 Y96.525 E0.01729
G1 X101.756 Y96.946 E0.01643
G1 X101.378 Y97.308 E0.01643
G1 X100.943 Y97.602 E0.01643
G1 X100.466 Y97.818 E0.01643
G1 X99.959 Y97.950 E0.01643
G1 X99.437 Y97.994 E0.01643
G1 X98.915 Y97.950 E0.01643
G1 X98.408 Y97.818 E0.01643
G1 X97.930 Y97.602 E0.01643
G1 X97.496 Y97.308 E0.01643
G1 X97.118 Y96.946 E0.01643
G1 X96.806 Y96.525 E0.01643
G1 X96.570 Y96.057 E0.01643
G1 X96.417 Y95.556 E0.01643
G1 X96.350 Y95.036 E0.01643
G1 X96.373 Y94.512 E0.01643
G1 X96.483 Y94.000 E0.01643
G1 X96.678 Y93.514 E0.01643
G1 X96.953 Y93.068 E0.01643
G1 X97.299 Y92.675 E0.01643
G1 X97.707 Y92.345 E0.01643
G1 X98.164 Y92.090 E0.01643
G1 X98.658 Y91.915 E0.01643
G1 X99.163 Y91.829 E0.01604
G1 X99.710 Y91.829 E0.01715
G1 X100.215 Y91.915 E0.01608
G1 X100.709 Y92.090 E0.01643
G1 X101.167 Y92.345 E0.01643
G1 X101.574 Y92.675 E0.01643
G1 X101.921 Y93.068 E0.01643
G1 X102.195 Y93.514 E0.01643
G1 X102.379 Y93.971 E0.01544
G1 X102.501 Y94.509 E0.01730
G1 X102.523 Y95.036 E0.01653
G1 X102.457 Y95.556 E0.01643
G1 X102.329 Y95.973 E0.01367
G1 X101.969 Y95.862 F10800.000
;TYPE:External perimeter
G1 F1200.000
G1 X101.745 Y96.326 E0.01614
G1 X101.472 Y96.696 E0.01442
G1 X101.140 Y97.014 E0.01442
G1 X100.759 Y97.271 E0.01442
G1 X100.340 Y97.461 E0.01442
G1 X99.895 Y97.577 E0.01442
G1 X99.437 Y97.616 E0.01442
G1 X98.979 Y97.577 E0.01442
G1 X98.534 Y97.461 E0.01442
G1 X98.115 Y97.271 E0.01442
G1 X97.734 Y97.014 E0.01442
G1 X97.402 Y96.696 E0.01442
G1 X97.129 Y96.326 E0.01442
G1 X96.922 Y95.916 E0.01442
G1 X96.787 Y95.476 E0.01442
G1 X96.729 Y95.020 E0.01442
G1 X96.748 Y94.561 E0.01442
G1 X96.845 Y94.111 E0.01442
G1 X97.016 Y93.684 E0.01442
G1 X97.257 Y93.293 E0.01442
G1 X97.561 Y92.948 E0.01442
G1 X97.919 Y92.659 E0.01442
G1 X98.320 Y92.435 E0.01442
G1 X98.754 Y92.282 E0.01442
G1 X99.203 Y92.205 E0.01428
G1 X99.671 Y92.204 E0.01468
G1 X100.120 Y92.282 E0.01429
G1 X100.553 Y92.435 E0.01442
G1 X100.955 Y92.659 E0.01442
G1 X101.313 Y92.948 E0.01442
G1 X101.616 Y93.293 E0.01442
G1 X101.857 Y93.684 E0.01442
G1 X102.018 Y94.084 E0.01349
G1 X102.126 Y94.559 E0.01529
G1 X102.145 Y95.020 E0.01445
G1 X102.087 Y95.476 E0.01442
G1 X101.986 Y95.805 E0.01078
G1 X102.220 Y96.173 F10800.000
;WIPE_START
G1 F8640.000
G1 X101.745 Y96.326 E-0.13260
G1 X101.472 Y96.696 E-0.10616
G1 X101.140 Y97.014 E-0.10616
G1 X100.759 Y97.271 E-0.10616
G1 X100.340 Y97.461 E-0.10616
G1 X99.895 Y97.577 E-0.10616
G1 X99.478 Y97.612 E-0.09658
;WIPE_END
G1 E-0.04000 F2100.000
G1 Z0.600 F10800.000
G1 X88.512 Y90.340
G1 Z0.200
G1 E0.80000 F2100.000
;TYPE:Perimeter
G1 F1200.000
G1 X88.248 Y90.865 E0.01844
G1 X87.898 Y91.338 E0.01844
G1 X87.473 Y91.745 E0.01844
G1 X86.986 Y92.074 E0.01844
G1 X86.450 Y92.317 E0.01844
G1 X85.913 Y92.456 E0.01739
G1 X85.300 Y92.515 E0.01932
G1 X84.709 Y92.465 E0.01860
G1 X84.140 Y92.317 E0.01844
G1 X83.604 Y92.074 E0.01844
G1 X83.116 Y91.745 E0.01844
G1 X82.692 Y91.338 E0.01844
G1 X82.342 Y90.865 E0.01844
G1 X82.077 Y90.340 E0.01844
G1 X81.905 Y89.778 E0.01844
G1 X81.830 Y89.194 E0.01844
G1 X81.855 Y88.607 E0.01844
G1 X81.979 Y88.032 E0.01844
G1 X82.198 Y87.486 E0.01844
G1 X82.507 Y86.985 E0.01844
G1 X82.895 Y86.543 E0.01844
G1 X83.353 Y86.174 E0.01844
G1 X83.866 Y85.887 E0.01844
G1 X84.421 Y85.691 E0.01844
G1 X84.980 Y85.595 E0.01780
G1 X85.607 Y85.595 E0.01963
G1 X86.169 Y85.691 E0.01788
G1 X86.723 Y85.887 E0.01844
G1 X87.237 Y86.174 E0.01844
G1 X87.694 Y86.543 E0.01844
G1 X88.083 Y86.985 E0.01844
G1 X88.391 Y87.486 E0.01844
G1 X88.610 Y88.032 E0.01844
G1 X88.734 Y88.607 E0.01844
G1 X88.759 Y89.194 E0.01844
G1 X88.685 Y89.778 E0.01844
G1 X88.530 Y90.283 E0.01656
G1 X88.169 Y90.172 F10800.000
G1 F1200.000
G1 X87.925 Y90.667 E0.01729
G1 X87.614 Y91.088 E0.01643
G1 X87.235 Y91.450 E0.01643
G1 X86.801 Y91.744 E0.01643
G1 X86.324 Y91.960 E0.01643
G1 X85.847 Y92.084 E0.01544
G1 X85.298 Y92.136 E0.01730
G1 X84.773 Y92.092 E0.01653
G1 X84.266 Y91.960 E0.01643
G1 X83.788 Y91.744 E0.01643
G1 X83.354 Y91.450 E0.01643
G1 X82.976 Y91.088 E0.01643
G1 X82.664 Y90.667 E0.01643
G1 X82.428 Y90.199 E0.01643
G1 X82.275 Y89.698 E0.01643
G1 X82.208 Y89.178 E0.01643
G1 X82.231 Y88.655 E0.01643
G1 X82.341 Y88.142 E0.01643
G1 X82.536 Y87.656 E0.01643
G1 X82.811 Y87.210 E0.01643
G1 X83.157 Y86.817 E0.01643
G1 X83.565 Y86.488 E0.01643
G1 X84.022 Y86.232 E0.01643
G1 X84.516 Y86.057 E0.01643
G1 X85.020 Y85.971 E0.01604
G1 X85.568 Y85.971 E0.01716
G1 X86.073 Y86.057 E0.01608
G1 X86.567 Y86.232 E0.01643
G1 X87.025 Y86.488 E0.01643
G1 X87.432 Y86.817 E0.01643
G1 X87.778 Y87.210 E0.01643
G1 X88.053 Y87.656 E0.01643
G1 X88.249 Y88.142 E0.01643
G1 X88.359 Y88.655 E0.01643
G1 X88.381 Y89.178 E0.01643
G1 X88.315 Y89.698 E0.01643
G1 X88.187 Y90.115 E0.01367
