; generated by PrusaSlicer 2.3.3+win64 on 2021-11-16 at 12:27:50 UTC

; 

; external perimeters extrusion width = 0.45mm
; perimeters extrusion width = 0.45mm
; infill extrusion width = 0.45mm
; solid infill extrusion width = 0.45mm
; top infill extrusion width = 0.40mm
; first layer extrusion width = 0.42mm

; external perimeters extrusion width = 0.45mm
; perimeters extrusion width = 0.45mm
; infill extrusion width = 0.45mm
; solid infill extrusion width = 0.45mm
; top infill extrusion width = 0.40mm
; first layer extrusion width = 0.42mm

; external perimeters extrusion width = 0.45mm
; perimeters extrusion width = 0.45mm
; infill extrusion width = 0.45mm
; solid infill extrusion width = 0.45mm
; top infill extrusion width = 0.40mm
; first layer extrusion width = 0.42mm

; external perimeters extrusion width = 0.45mm
; perimeters extrusion width = 0.45mm
; infill extrusion width = 0.45mm
; solid infill extrusion width = 0.45mm
; top infill extrusion width = 0.40mm
; first layer extrusion width = 0.42mm

; external perimeters extrusion width = 0.45mm
; perimeters extrusion width = 0.45mm
; infill extrusion width = 0.45mm
; solid infill extrusion width = 0.45mm
; top infill extrusion width = 0.40mm
; first layer extrusion width = 0.42mm

; external perimeters extrusion width = 0.45mm
; perimeters extrusion width = 0.45mm
; infill extrusion width = 0.45mm
; solid infill extrusion width = 0.45mm
; top infill extrusion width = 0.40mm
; first layer extrusion width = 0.42mm

M73 P0 R66
M73 Q0 S67
M201 X1000 Y1000 Z200 E8000 ; sets maximum accelerations, mm/sec^2
M203 X200 Y200 Z12 E120 ; sets maximum feedrates, mm/sec
M204 P1250 R1250 T1250 ; sets acceleration (P, T) and retract acceleration (R), mm/sec^2
M205 X8.00 Y8.00 Z0.40 E4.50 ; sets the jerk limits, mm/sec
M205 S0 T0 ; sets the minimum extruding and travel feed rate, mm/sec
M107
;TYPE:Custom
M862.3 P "MK3SMMU2S" ; printer model check
M862.1 P0.4 ; nozzle diameter check
M115 U3.10.0 ; tell printer latest fw version
G90 ; use absolute coordinates
M83 ; extruder relative mode
M104 S215 ; set extruder temp
M140 S60 ; set bed temp
M190 S60 ; wait for bed temp
M109 S215 ; wait for extruder temp
G28 W ; home all without mesh bed level
G80 ; mesh bed leveling

; Send the filament type to the MMU2.0 unit.
; E stands for extruder number, F stands for filament type (0: default; 1:flex; 2: PVA)
M403 E0 F0
M403 E1 F0
M403 E2 F0
M403 E3 F0
M403 E4 F0


;go outside print area
G1 Y-3.0 F1000.0
G1 Z0.4 F1000.0
; select extruder
T1
; initial load
G1 X55.0 E29.0 F1073.0
G1 X5.0 E29.0 F1800.0
M73 Q0 S66
G1 X55.0 E8.0 F2000.0
G1 Z0.3 F1000.0
G92 E0.0
G1 X240.0 E25.0 F2200.0
G1 Y-2.0 F1000.0
G1 X55.0 E25 F1400.0
G1 Z0.20 F1000.0
G1 X5.0 E4.0 F1000.0
G92 E0.0


M221 S95
G92 E0.0

; Don't change E values below. Excessive value can damage the printer.
M907 E430 ; set extruder motor current
G21 ; set units to millimeters
G90 ; use absolute coordinates
M83 ; use relative distances for extrusion
T1
M900 K0.05 ; Filament gcode LA 1.5
M900 K30 ; Filament gcode LA 1.0
G1 Z0.200 F10800.000
;LAYER_CHANGE
;Z:0.2
;HEIGHT:0.2
;BEFORE_LAYER_CHANGE
G92 E0.0
;0.2


G1 E-0.80000 F2100.000
G1 Z0.600 F10800.000
G1 Z0.200
;AFTER_LAYER_CHANGE
;0.2
G1 E-1.20000 F2100.000
G1 Z0.600 F10800.000
G1 X233.000 Y125.000
M73 Q1 S66
G1 Z0.200
G1 E2.00000 F2100.000
;HEIGHT:0.200000
;TYPE:Wipe tower
;WIDTH:0.500000
;-------------------------------------
; CP WIPE TOWER FIRST LAYER BRIM START
G1  X233.000 Y143.340  E1.0456 F2400
M73 P1 R66
G1  X230.457 Y143.797   F7000
G1  Y124.543  E0.8050 F2100
G1  X169.543  E2.5466
G1  Y143.797  E0.8050
G1  X230.457  E2.5466
G1  X230.914 Y144.254   F7000
G1  Y124.086  E0.8432 F2100
G1  X169.086  E2.5849
G1  Y144.254  E0.8432
G1  X230.914  E2.5849
G1  X231.371 Y144.711   F7000
G1  Y123.629  E0.8814 F2100
G1  X168.629  E2.6231
G1  Y144.711  E0.8814
G1  X231.371  E2.6231
G1  X231.828 Y145.168   F7000
G1  Y123.172  E0.9196 F2100
G1  X168.172  E2.6613
M73 P1 R65
G1  Y145.168  E0.9196
G1  X231.828  E2.6613
; CP WIPE TOWER FIRST LAYER BRIM END
;-----------------------------------

;WIPE_START
G1 F8640.000
G1 X231.371 Y144.711 E-0.14925
G1 X228.726 Y144.711 E-0.61075
;WIPE_END
G1 E-0.04000 F2100.000
G1 Z0.600 F10800.000
G1 X233.816 Y145.800
G1 Z0.200
G1 E0.80000 F2100.000
M204 S1000
;TYPE:Skirt
;WIDTH:0.42
;HEIGHT:0.2
G1 F1200.000
G1 X233.398 Y146.495 E0.02543
G1 X233.031 Y146.838 E0.01574
G1 X232.604 Y147.094 E0.01562
G1 X232.130 Y147.257 E0.01574
G1 X231.631 Y147.317 E0.01574
G1 X168.240 Y147.311 E1.98758
G1 X79.380 Y138.686 E2.79925
G1 X78.159 Y138.398 E0.03934
G1 X76.951 Y137.874 E0.04128
G1 X76.117 Y137.354 E0.03081
G1 X75.354 Y136.711 E0.03129
G1 X74.464 Y135.690 E0.04247
G1 X73.880 Y134.731 E0.03522
G1 X73.441 Y133.672 E0.03594
G1 X73.172 Y132.554 E0.03606
G1 X73.080 Y131.453 E0.03463
G1 X73.080 Y86.316 E1.41524
G1 X73.168 Y85.246 E0.03367
G1 X73.393 Y84.273 E0.03129
G1 X73.892 Y83.022 E0.04223
G1 X74.477 Y82.068 E0.03510
G1 X75.121 Y81.300 E0.03141
G1 X76.154 Y80.396 E0.04306
G1 X77.114 Y79.812 E0.03522
G1 X78.177 Y79.372 E0.03606
G1 X79.295 Y79.103 E0.03606
G1 X80.414 Y79.012 E0.03522
G1 X155.460 Y79.011 E2.35301
G1 X156.588 Y79.099 E0.03546
G1 X157.567 Y79.324 E0.03152
G1 X158.869 Y79.849 E0.04401
G1 X233.155 Y121.603 E2.67189
M73 Q2 S65
G1 X233.498 Y121.969 E0.01574
G1 X233.756 Y122.400 E0.01574
G1 X233.918 Y122.875 E0.01574
G1 X233.977 Y123.377 E0.01585
G1 X233.976 Y145.001 E0.67799
M73 P2 R65
G1 X233.828 Y145.741 E0.02367
; printing object body1748626 id:0 copy 0
;WIPE_START
G1 F8640.000
G1 X233.398 Y146.495 E-0.20039
G1 X233.031 Y146.838 E-0.11588
G1 X232.604 Y147.094 E-0.11500
G1 X232.130 Y147.257 E-0.11588
G1 X231.631 Y147.317 E-0.11588
G1 X231.211 Y147.317 E-0.09697
;WIPE_END
G1 E-0.04000 F2100.000
G1 Z0.600 F10800.000
G1 X125.823 Y110.473
G1 Z0.200
G1 E0.80000 F2100.000
;TYPE:Perimeter
G1 F1200.000
G1 X125.587 Y110.941 E0.01643
G1 X125.275 Y111.363 E0.01643
G1 X124.897 Y111.725 E0.01643
G1 X124.463 Y112.018 E0.01643
G1 X123.985 Y112.234 E0.01643
G1 X123.478 Y112.366 E0.01643
G1 X122.956 Y112.411 E0.01643
G1 X122.434 Y112.366 E0.01643
G1 X121.927 Y112.234 E0.01643
G1 X121.450 Y112.018 E0.01643
G1 X121.016 Y111.725 E0.01643
G1 X120.637 Y111.363 E0.01643
G1 X120.326 Y110.941 E0.01643
G1 X120.090 Y110.473 E0.01643
G1 X119.936 Y109.972 E0.01643
G1 X119.870 Y109.453 E0.01643
G1 X119.892 Y108.929 E0.01643
G1 X120.002 Y108.417 E0.01643
G1 X120.198 Y107.931 E0.01643
G1 X120.473 Y107.485 E0.01643
G1 X120.819 Y107.091 E0.01643
G1 X121.226 Y106.762 E0.01643
G1 X121.684 Y106.507 E0.01643
G1 X122.178 Y106.332 E0.01643
G1 X122.682 Y106.246 E0.01604
G1 X123.229 Y106.245 E0.01715
G1 X123.735 Y106.332 E0.01608
G1 X124.229 Y106.507 E0.01643
G1 X124.686 Y106.762 E0.01643
G1 X125.094 Y107.091 E0.01643
G1 X125.440 Y107.485 E0.01643
G1 X125.715 Y107.931 E0.01643
G1 X125.898 Y108.388 E0.01544
G1 X126.020 Y108.926 E0.01730
G1 X126.043 Y109.453 E0.01653
G1 X125.976 Y109.972 E0.01643
G1 X125.840 Y110.416 E0.01455
G1 X125.480 Y110.306 F10800.000
;TYPE:External perimeter
G1 F1200.000
G1 X125.265 Y110.743 E0.01528
G1 X124.991 Y111.113 E0.01442
G1 X124.659 Y111.431 E0.01442
G1 X124.278 Y111.688 E0.01442
G1 X123.859 Y111.877 E0.01442
G1 X123.414 Y111.993 E0.01442
G1 X122.956 Y112.032 E0.01442
G1 X122.498 Y111.993 E0.01442
G1 X122.053 Y111.877 E0.01442
G1 X121.634 Y111.688 E0.01442
G1 X121.253 Y111.431 E0.01442
G1 X120.921 Y111.113 E0.01442
G1 X120.648 Y110.743 E0.01442
G1 X120.441 Y110.332 E0.01442
G1 X120.306 Y109.893 E0.01442
G1 X120.248 Y109.437 E0.01442
G1 X120.267 Y108.977 E0.01442
G1 X120.364 Y108.528 E0.01442
G1 X120.536 Y108.101 E0.01442
G1 X120.777 Y107.710 E0.01442
G1 X121.081 Y107.365 E0.01442
G1 X121.438 Y107.076 E0.01442
G1 X121.840 Y106.851 E0.01442
G1 X122.273 Y106.698 E0.01442
G1 X122.722 Y106.621 E0.01428
G1 X123.190 Y106.621 E0.01468
G1 X123.639 Y106.698 E0.01429
G1 X124.073 Y106.851 E0.01442
G1 X124.474 Y107.076 E0.01442
G1 X124.832 Y107.365 E0.01442
G1 X125.136 Y107.710 E0.01442
G1 X125.377 Y108.101 E0.01442
G1 X125.537 Y108.501 E0.01349
G1 X125.645 Y108.976 E0.01529
G1 X125.665 Y109.437 E0.01445
G1 X125.606 Y109.893 E0.01442
G1 X125.497 Y110.248 E0.01166
G1 X125.729 Y110.619 F10800.000
;WIPE_START
G1 F8640.000
G1 X125.265 Y110.743 E-0.12622
G1 X124.991 Y111.113 E-0.10616
G1 X124.659 Y111.431 E-0.10616
G1 X124.278 Y111.688 E-0.10616
G1 X123.859 Y111.877 E-0.10616
G1 X123.414 Y111.993 E-0.10616
G1 X122.970 Y112.031 E-0.10296
;WIPE_END
G1 E-0.04000 F2100.000
G1 Z0.600 F10800.000
G1 X134.869 Y103.734
G1 Z0.200
G1 E0.80000 F2100.000
;TYPE:Perimeter
G1 F1200.000
G1 X151.043 Y103.734 E0.50713
G1 X151.043 Y114.475 E0.33677
G1 X134.869 Y114.475 E0.50713
G1 X134.869 Y103.794 E0.33489
G1 X135.246 Y104.112 F10800.000
;TYPE:External perimeter
G1 F1200.000
G1 X150.666 Y104.112 E0.48348
G1 X150.666 Y114.098 E0.31313
G1 X135.246 Y114.098 E0.48348
G1 X135.246 Y104.172 E0.31125
G1 X135.116 Y103.733 F10800.000
;WIPE_START
G1 F8640.000
G1 X138.538 Y104.159 E-0.76000
;WIPE_END
G1 E-0.04000 F2100.000
G1 Z0.600 F10800.000
G1 X119.965 Y96.331
G1 Z0.200
G1 E0.80000 F2100.000
;TYPE:Perimeter
G1 F1200.000
G1 X119.729 Y96.799 E0.01643
G1 X119.417 Y97.220 E0.01643
G1 X119.039 Y97.583 E0.01643
G1 X118.605 Y97.876 E0.01643
G1 X118.127 Y98.092 E0.01643
G1 X117.620 Y98.224 E0.01643
G1 X117.098 Y98.269 E0.01643
G1 X116.576 Y98.224 E0.01643
G1 X116.069 Y98.092 E0.01643
G1 X115.592 Y97.876 E0.01643
G1 X115.158 Y97.583 E0.01643
G1 X114.779 Y97.220 E0.01643
G1 X114.468 Y96.799 E0.01643
G1 X114.232 Y96.331 E0.01643
G1 X114.078 Y95.830 E0.01643
G1 X114.012 Y95.311 E0.01643
G1 X114.034 Y94.787 E0.01643
G1 X114.145 Y94.275 E0.01643
G1 X114.340 Y93.789 E0.01643
G1 X114.615 Y93.343 E0.01643
G1 X114.961 Y92.949 E0.01643
G1 X115.368 Y92.620 E0.01643
G1 X115.826 Y92.364 E0.01643
G1 X116.320 Y92.190 E0.01643
G1 X116.824 Y92.103 E0.01604
G1 X117.371 Y92.103 E0.01715
G1 X117.877 Y92.190 E0.01608
G1 X118.371 Y92.364 E0.01643
G1 X118.828 Y92.620 E0.01643
G1 X119.236 Y92.949 E0.01643
G1 X119.582 Y93.343 E0.01643
G1 X119.857 Y93.789 E0.01643
G1 X120.040 Y94.246 E0.01544
G1 X120.162 Y94.784 E0.01730
G1 X120.185 Y95.311 E0.01653
G1 X120.118 Y95.830 E0.01643
G1 X119.982 Y96.274 E0.01455
G1 X119.622 Y96.163 F10800.000
;TYPE:External perimeter
G1 F1200.000
G1 X119.407 Y96.601 E0.01528
G1 X119.133 Y96.970 E0.01442
G1 X118.801 Y97.289 E0.01442
G1 X118.420 Y97.546 E0.01442
G1 X118.001 Y97.735 E0.01442
G1 X117.556 Y97.851 E0.01442
G1 X117.098 Y97.890 E0.01442
G1 X116.640 Y97.851 E0.01442
G1 X116.195 Y97.735 E0.01442
G1 X115.776 Y97.546 E0.01442
G1 X115.395 Y97.289 E0.01442
G1 X115.063 Y96.970 E0.01442
G1 X114.790 Y96.601 E0.01442
G1 X114.583 Y96.190 E0.01442
G1 X114.448 Y95.751 E0.01442
G1 X114.390 Y95.294 E0.01442
G1 X114.410 Y94.835 E0.01442
G1 X114.506 Y94.386 E0.01442
G1 X114.678 Y93.959 E0.01442
G1 X114.919 Y93.568 E0.01442
G1 X115.223 Y93.222 E0.01442
G1 X115.580 Y92.934 E0.01442
G1 X115.982 Y92.709 E0.01442
G1 X116.415 Y92.556 E0.01442
G1 X116.864 Y92.479 E0.01428
G1 X117.332 Y92.479 E0.01468
G1 X117.781 Y92.556 E0.01429
G1 X118.215 Y92.709 E0.01442
G1 X118.616 Y92.934 E0.01442
G1 X118.974 Y93.222 E0.01442
G1 X119.278 Y93.568 E0.01442
G1 X119.519 Y93.959 E0.01442
G1 X119.679 Y94.358 E0.01349
G1 X119.787 Y94.834 E0.01529
G1 X119.807 Y95.294 E0.01445
G1 X119.748 Y95.751 E0.01442
G1 X119.639 Y96.106 E0.01166
G1 X119.871 Y96.476 F10800.000
;WIPE_START
G1 F8640.000
G1 X119.407 Y96.601 E-0.12622
G1 X119.133 Y96.970 E-0.10616
G1 X118.801 Y97.289 E-0.10616
G1 X118.420 Y97.546 E-0.10616
G1 X118.001 Y97.735 E-0.10616
G1 X117.556 Y97.851 E-0.10616
G1 X117.112 Y97.889 E-0.10296
;WIPE_END
G1 E-0.04000 F2100.000
G1 Z0.600 F10800.000
G1 X105.823 Y90.473
G1 Z0.200
G1 E0.80000 F2100.000
;TYPE:Perimeter
G1 F1200.000
G1 X105.587 Y90.941 E0.01643
G1 X105.275 Y91.363 E0.01643
G1 X104.897 Y91.725 E0.01643
G1 X104.463 Y92.019 E0.01643
G1 X103.985 Y92.234 E0.01643
G1 X103.509 Y92.358 E0.01544
G1 X102.959 Y92.411 E0.01730
G1 X102.434 Y92.366 E0.01653
G1 X101.927 Y92.234 E0.01643
G1 X101.450 Y92.019 E0.01643
G1 X101.016 Y91.725 E0.01643
G1 X100.637 Y91.363 E0.01643
G1 X100.326 Y90.941 E0.01643
G1 X100.090 Y90.473 E0.01643
G1 X99.936 Y89.972 E0.01643
G1 X99.870 Y89.453 E0.01643
G1 X99.892 Y88.929 E0.01643
G1 X100.002 Y88.417 E0.01643
G1 X100.198 Y87.931 E0.01643
G1 X100.473 Y87.485 E0.01643
G1 X100.819 Y87.091 E0.01643
G1 X101.226 Y86.762 E0.01643
G1 X101.684 Y86.507 E0.01643
G1 X102.178 Y86.332 E0.01643
G1 X102.682 Y86.246 E0.01604
G1 X103.229 Y86.245 E0.01716
G1 X103.735 Y86.332 E0.01608
G1 X104.229 Y86.507 E0.01643
G1 X104.686 Y86.762 E0.01643
G1 X105.094 Y87.091 E0.01643
G1 X105.440 Y87.485 E0.01643
G1 X105.715 Y87.931 E0.01643
G1 X105.910 Y88.417 E0.01643
G1 X106.020 Y88.929 E0.01643
G1 X106.043 Y89.453 E0.01643
G1 X105.976 Y89.972 E0.01643
G1 X105.840 Y90.416 E0.01455
G1 X105.480 Y90.306 F10800.000
;TYPE:External perimeter
G1 F1200.000
G1 X105.265 Y90.743 E0.01528
G1 X104.991 Y91.113 E0.01442
G1 X104.659 Y91.431 E0.01442
G1 X104.278 Y91.688 E0.01442
G1 X103.859 Y91.877 E0.01442
G1 X103.443 Y91.986 E0.01349
G1 X102.957 Y92.032 E0.01529
G1 X102.498 Y91.993 E0.01445
G1 X102.053 Y91.877 E0.01442
G1 X101.634 Y91.688 E0.01442
G1 X101.253 Y91.431 E0.01442
G1 X100.921 Y91.113 E0.01442
G1 X100.648 Y90.743 E0.01442
G1 X100.441 Y90.332 E0.01442
G1 X100.306 Y89.893 E0.01442
G1 X100.248 Y89.437 E0.01442
G1 X100.267 Y88.977 E0.01442
G1 X100.364 Y88.528 E0.01442
G1 X100.536 Y88.101 E0.01442
G1 X100.777 Y87.710 E0.01442
G1 X101.081 Y87.365 E0.01442
G1 X101.438 Y87.076 E0.01442
G1 X101.840 Y86.851 E0.01442
G1 X102.273 Y86.698 E0.01442
G1 X102.722 Y86.621 E0.01428
G1 X103.190 Y86.621 E0.01468
G1 X103.639 Y86.698 E0.01429
G1 X104.073 Y86.851 E0.01442
G1 X104.474 Y87.076 E0.01442
G1 X104.832 Y87.365 E0.01442
G1 X105.136 Y87.710 E0.01442
G1 X105.377 Y88.101 E0.01442
G1 X105.548 Y88.528 E0.01442
G1 X105.645 Y88.977 E0.01442
G1 X105.665 Y89.437 E0.01442
G1 X105.606 Y89.893 E0.01442
G1 X105.497 Y90.248 E0.01166
G1 X105.729 Y90.619 F10800.000
;WIPE_START
G1 F8640.000
G1 X105.265 Y90.743 E-0.12622
G1 X104.991 Y91.113 E-0.10616
G1 X104.659 Y91.431 E-0.10616
G1 X104.278 Y91.688 E-0.10616
G1 X103.859 Y91.877 E-0.10616
G1 X103.443 Y91.986 E-0.09938
G1 X102.970 Y92.031 E-0.10975
;WIPE_END
G1 E-0.04000 F2100.000
G1 Z0.600 F10800.000
G1 X91.768 Y94.275
G1 Z0.200
G1 E0.80000 F2100.000
;TYPE:Perimeter
G1 F1200.000
G1 X91.878 Y94.787 E0.01643
G1 X91.900 Y95.311 E0.01643
G1 X91.834 Y95.830 E0.01643
G1 X91.681 Y96.331 E0.01643
G1 X91.459 Y96.771 E0.01544
G1 X91.135 Y97.218 E0.01730
G1 X90.755 Y97.583 E0.01653
G1 X90.321 Y97.876 E0.01643
G1 X89.843 Y98.092 E0.01643
G1 X89.336 Y98.224 E0.01643
G1 X88.814 Y98.269 E0.01643
G1 X88.292 Y98.224 E0.01643
G1 X87.785 Y98.092 E0.01643
G1 X87.307 Y97.876 E0.01643
G1 X86.899 Y97.601 E0.01544
G1 X86.497 Y97.223 E0.01730
G1 X86.184 Y96.799 E0.01653
G1 X85.948 Y96.331 E0.01643
G1 X85.794 Y95.830 E0.01643
G1 X85.728 Y95.311 E0.01643
G1 X85.750 Y94.787 E0.01643
G1 X85.860 Y94.275 E0.01643
G1 X86.056 Y93.789 E0.01643
G1 X86.330 Y93.343 E0.01643
G1 X86.677 Y92.949 E0.01643
G1 X87.084 Y92.620 E0.01643
G1 X87.542 Y92.364 E0.01643
G1 X88.036 Y92.190 E0.01643
G1 X88.540 Y92.103 E0.01604
G1 X88.798 Y92.092 E0.00812
G1 X89.087 Y92.103 E0.00905
G1 X89.592 Y92.190 E0.01608
G1 X90.087 Y92.364 E0.01643
G1 X90.544 Y92.620 E0.01643
G1 X90.952 Y92.949 E0.01643
G1 X91.298 Y93.343 E0.01643
G1 X91.573 Y93.789 E0.01643
G1 X91.746 Y94.219 E0.01455
G1 X91.396 Y94.360 F10800.000
;TYPE:External perimeter
G1 F1200.000
G1 X91.503 Y94.835 E0.01528
G1 X91.522 Y95.294 E0.01442
G1 X91.464 Y95.751 E0.01442
G1 X91.329 Y96.190 E0.01442
G1 X91.136 Y96.574 E0.01349
G1 X90.850 Y96.970 E0.01529
G1 X90.517 Y97.289 E0.01445
G1 X90.136 Y97.546 E0.01442
G1 X89.717 Y97.735 E0.01442
G1 X89.272 Y97.851 E0.01442
G1 X88.814 Y97.890 E0.01442
G1 X88.356 Y97.851 E0.01442
G1 X87.911 Y97.735 E0.01442
G1 X87.492 Y97.546 E0.01442
G1 X87.135 Y97.305 E0.01349
G1 X86.780 Y96.971 E0.01529
G1 X86.506 Y96.601 E0.01445
G1 X86.299 Y96.190 E0.01442
G1 X86.164 Y95.751 E0.01442
