; generated by PrusaSlicer 2.3.3+win64 on 2022-02-02 at 09:59:06 UTC

; 

; external perimeters extrusion width = 0.60mm
; perimeters extrusion width = 0.50mm
; infill extrusion width = 0.50mm
; solid infill extrusion width = 0.50mm
; top infill extrusion width = 0.45mm
; first layer extrusion width = 0.42mm

; external perimeters extrusion width = 0.60mm
; perimeters extrusion width = 0.50mm
; infill extrusion width = 0.50mm
; solid infill extrusion width = 0.50mm
; top infill extrusion width = 0.45mm
; first layer extrusion width = 0.42mm

; external perimeters extrusion width = 0.60mm
; perimeters extrusion width = 0.50mm
; infill extrusion width = 0.50mm
; solid infill extrusion width = 0.50mm
; top infill extrusion width = 0.45mm
; first layer extrusion width = 0.42mm

; external perimeters extrusion width = 0.60mm
; perimeters extrusion width = 0.50mm
; infill extrusion width = 0.50mm
; solid infill extrusion width = 0.50mm
; top infill extrusion width = 0.45mm
; first layer extrusion width = 0.42mm

; external perimeters extrusion width = 0.60mm
; perimeters extrusion width = 0.50mm
; infill extrusion width = 0.50mm
; solid infill extrusion width = 0.50mm
; top infill extrusion width = 0.45mm
; first layer extrusion width = 0.42mm

; external perimeters extrusion width = 0.60mm
; perimeters extrusion width = 0.50mm
; infill extrusion width = 0.50mm
; solid infill extrusion width = 0.50mm
; top infill extrusion width = 0.45mm
; first layer extrusion width = 0.42mm

M73 P0 R242
M73 Q0 S243
M201 X1000 Y1000 Z200 E8000 ; sets maximum accelerations, mm/sec^2
M203 X200 Y200 Z12 E120 ; sets maximum feedrates, mm/sec
M204 P1250 R1250 T1250 ; sets acceleration (P, T) and retract acceleration (R), mm/sec^2
M205 X8.00 Y8.00 Z0.40 E4.50 ; sets the jerk limits, mm/sec
M205 S0 T0 ; sets the minimum extruding and travel feed rate, mm/sec
M107
;TYPE:Custom
M862.3 P "MK3SMMU2S" ; printer model check
M862.1 P0.4 ; nozzle diameter check
M115 U3.10.0 ; tell printer latest fw version
G90 ; use absolute coordinates
M83 ; extruder relative mode
M104 S215 ; set extruder temp
M140 S60 ; set bed temp
M190 S60 ; wait for bed temp
M109 S215 ; wait for extruder temp
G28 W ; home all without mesh bed level
G80 ; mesh bed leveling

; Send the filament type to the MMU2.0 unit.
; E stands for extruder number, F stands for filament type (0: default; 1:flex; 2: PVA)
M403 E0 F0
M403 E1 F0
M403 E2 F0
M403 E3 F0
M403 E4 F0


;go outside print area
G1 Y-3.0 F1000.0
G1 Z0.4 F1000.0
; select extruder
T1
; initial load
G1 X55.0 E29.0 F1073.0
G1 X5.0 E29.0 F1800.0
G1 X55.0 E8.0 F2000.0
G1 Z0.3 F1000.0
G92 E0.0
G1 X240.0 E25.0 F2200.0
G1 Y-2.0 F1000.0
G1 X55.0 E25 F1400.0
G1 Z0.20 F1000.0
G1 X5.0 E4.0 F1000.0
G92 E0.0


M221 S95
G92 E0.0

; Don't change E values below. Excessive value can damage the printer.

M907 E538 ; set extruder motor current
G21 ; set units to millimeters
G90 ; use absolute coordinates
M83 ; use relative distances for extrusion
T1
M900 K0.05 ; Filament gcode LA 1.5
M900 K30 ; Filament gcode LA 1.0
G1 Z0.200 F10800.000
;LAYER_CHANGE
;Z:0.2
;HEIGHT:0.2
;BEFORE_LAYER_CHANGE
G92 E0.0
;0.2


G1 E-0.80000 F2100.000
G1 Z0.600 F10800.000
G1 Z0.200
;AFTER_LAYER_CHANGE
;0.2
G1 E-1.20000 F2100.000
G1 Z0.600 F10800.000
G1 X241.616 Y16.705
M73 Q0 S242
G1 Z0.200
G1 E2.00000 F2100.000
;HEIGHT:0.200000
;TYPE:Wipe tower
;WIDTH:0.500000
;-------------------------------------
; CP WIPE TOWER FIRST LAYER BRIM START
G1  X241.616 Y81.765  E3.7090 F2400
G1  X239.073 Y82.222   F7000
G1  Y16.248  E2.7582 F2100
M73 P0 R241
G1  X178.159  E2.5466
G1  Y82.222  E2.7582
G1  X239.073  E2.5466
G1  X239.530 Y82.679   F7000
G1  Y15.791  E2.7964 F2100
G1  X177.702  E2.5849
G1  Y82.679  E2.7964
G1  X239.530  E2.5849
G1  X239.987 Y83.136   F7000
G1  Y15.334  E2.8346 F2100
G1  X177.245  E2.6231
G1  Y83.136  E2.8346
G1  X239.987  E2.6231
G1  X240.444 Y83.593   F7000
G1  Y14.877  E2.8728 F2100
G1  X176.788  E2.6613
G1  Y83.593  E2.8728
G1  X240.444  E2.6613
; CP WIPE TOWER FIRST LAYER BRIM END
;-----------------------------------

; printing object body1103920 id:0 copy 0
;WIPE_START
G1 F8640.000
G1 X239.987 Y83.136 E-0.14926
G1 X237.342 Y83.136 E-0.61074
;WIPE_END
G1 E-0.04000 F2100.000
G1 Z0.600 F10800.000
G1 X150.141 Y77.644
G1 Z0.200
G1 E0.80000 F2100.000
M204 S1000
;TYPE:Perimeter
;WIDTH:0.42
;HEIGHT:0.2
G1 F1200.000
G1 X150.052 Y78.160 E0.01643
G1 X149.878 Y78.654 E0.01643
G1 X149.622 Y79.112 E0.01643
G1 X149.293 Y79.519 E0.01643
G1 X148.900 Y79.866 E0.01643
G1 X148.453 Y80.140 E0.01643
G1 X147.967 Y80.336 E0.01643
G1 X147.455 Y80.446 E0.01643
G1 X146.932 Y80.468 E0.01643
G1 X146.412 Y80.402 E0.01643
G1 X145.911 Y80.248 E0.01643
G1 X145.443 Y80.012 E0.01643
G1 X145.022 Y79.701 E0.01643
G1 X144.659 Y79.323 E0.01643
G1 X144.366 Y78.888 E0.01643
G1 X144.150 Y78.411 E0.01643
G1 X144.018 Y77.904 E0.01643
G1 X143.973 Y77.382 E0.01643
G1 X144.018 Y76.860 E0.01643
G1 X144.145 Y76.371 E0.01584
G1 X144.365 Y75.877 E0.01695
G1 X144.659 Y75.441 E0.01649
G1 X145.022 Y75.063 E0.01643
G1 X145.443 Y74.751 E0.01643
G1 X145.911 Y74.515 E0.01643
G1 X146.412 Y74.362 E0.01643
G1 X146.913 Y74.298 E0.01584
G1 X147.453 Y74.317 E0.01695
G1 X147.967 Y74.428 E0.01649
G1 X148.453 Y74.623 E0.01643
G1 X148.900 Y74.898 E0.01643
G1 X149.293 Y75.244 E0.01643
G1 X149.622 Y75.652 E0.01643
G1 X149.878 Y76.109 E0.01643
G1 X150.052 Y76.603 E0.01643
G1 X150.141 Y77.120 E0.01643
G1 X150.141 Y77.584 E0.01455
G1 X149.764 Y77.584 F10800.000
;TYPE:External perimeter
G1 F1200.000
G1 X149.686 Y78.065 E0.01528
G1 X149.533 Y78.498 E0.01442
G1 X149.309 Y78.900 E0.01442
G1 X149.020 Y79.258 E0.01442
G1 X148.675 Y79.561 E0.01442
G1 X148.283 Y79.802 E0.01442
G1 X147.856 Y79.974 E0.01442
G1 X147.407 Y80.071 E0.01442
G1 X146.948 Y80.090 E0.01442
G1 X146.492 Y80.032 E0.01442
G1 X146.052 Y79.897 E0.01442
G1 X145.641 Y79.690 E0.01442
G1 X145.272 Y79.417 E0.01442
G1 X144.954 Y79.085 E0.01442
G1 X144.696 Y78.704 E0.01442
G1 X144.507 Y78.285 E0.01442
G1 X144.391 Y77.840 E0.01442
G1 X144.352 Y77.382 E0.01442
G1 X144.391 Y76.924 E0.01442
G1 X144.502 Y76.496 E0.01386
G1 X144.696 Y76.060 E0.01494
G1 X144.954 Y75.679 E0.01444
G1 X145.272 Y75.347 E0.01442
G1 X145.641 Y75.074 E0.01442
G1 X146.052 Y74.867 E0.01442
G1 X146.492 Y74.732 E0.01442
G1 X146.930 Y74.676 E0.01386
G1 X147.406 Y74.693 E0.01494
G1 X147.856 Y74.790 E0.01444
G1 X148.283 Y74.961 E0.01442
G1 X148.675 Y75.202 E0.01442
G1 X149.020 Y75.506 E0.01442
G1 X149.309 Y75.864 E0.01442
G1 X149.533 Y76.265 E0.01442
G1 X149.686 Y76.699 E0.01442
G1 X149.764 Y77.152 E0.01442
G1 X149.764 Y77.524 E0.01166
G1 X150.094 Y77.810 F10800.000
;WIPE_START
G1 F8640.000
G1 X149.686 Y78.065 E-0.12622
G1 X149.533 Y78.498 E-0.10616
G1 X149.309 Y78.900 E-0.10616
G1 X149.020 Y79.258 E-0.10616
G1 X148.675 Y79.561 E-0.10616
G1 X148.283 Y79.802 E-0.10616
G1 X147.869 Y79.969 E-0.10296
;WIPE_END
G1 E-0.04000 F2100.000
G1 Z0.600 F10800.000
G1 X147.457 Y68.446
G1 Z0.200
G1 E0.80000 F2100.000
;TYPE:Perimeter
G1 F1200.000
G1 X146.932 Y68.468 E0.01649
G1 X146.412 Y68.402 E0.01643
G1 X145.911 Y68.248 E0.01643
G1 X145.443 Y68.012 E0.01643
G1 X145.022 Y67.701 E0.01643
G1 X144.659 Y67.323 E0.01643
G1 X144.366 Y66.888 E0.01643
G1 X144.150 Y66.411 E0.01643
G1 X144.018 Y65.904 E0.01643
G1 X143.973 Y65.382 E0.01643
G1 X144.018 Y64.860 E0.01643
G1 X144.150 Y64.353 E0.01643
G1 X144.366 Y63.875 E0.01643
G1 X144.659 Y63.441 E0.01643
G1 X145.022 Y63.063 E0.01643
G1 X145.443 Y62.751 E0.01643
G1 X145.911 Y62.515 E0.01643
G1 X146.412 Y62.362 E0.01643
G1 X146.913 Y62.298 E0.01584
G1 X147.453 Y62.317 E0.01695
G1 X147.967 Y62.428 E0.01649
G1 X148.453 Y62.623 E0.01643
G1 X148.900 Y62.898 E0.01643
G1 X149.293 Y63.244 E0.01643
G1 X149.622 Y63.652 E0.01643
G1 X149.878 Y64.109 E0.01643
G1 X150.046 Y64.586 E0.01584
G1 X150.141 Y65.118 E0.01695
G1 X150.141 Y65.644 E0.01649
G1 X150.052 Y66.160 E0.01643
G1 X149.878 Y66.654 E0.01643
G1 X149.622 Y67.112 E0.01643
G1 X149.293 Y67.519 E0.01643
G1 X148.900 Y67.866 E0.01643
G1 X148.453 Y68.140 E0.01643
G1 X147.985 Y68.329 E0.01584
G1 X147.516 Y68.433 E0.01507
G1 X147.434 Y68.065 F10800.000
;TYPE:External perimeter
G1 F1200.000
G1 X146.948 Y68.090 E0.01526
G1 X146.492 Y68.032 E0.01442
G1 X146.052 Y67.897 E0.01442
G1 X145.641 Y67.690 E0.01442
G1 X145.272 Y67.417 E0.01442
G1 X144.954 Y67.085 E0.01442
G1 X144.696 Y66.704 E0.01442
G1 X144.507 Y66.285 E0.01442
G1 X144.391 Y65.840 E0.01442
G1 X144.352 Y65.382 E0.01442
G1 X144.391 Y64.924 E0.01442
G1 X144.507 Y64.479 E0.01442
G1 X144.696 Y64.060 E0.01442
G1 X144.954 Y63.679 E0.01442
G1 X145.272 Y63.347 E0.01442
G1 X145.641 Y63.074 E0.01442
G1 X146.052 Y62.867 E0.01442
G1 X146.492 Y62.732 E0.01442
G1 X146.930 Y62.676 E0.01386
G1 X147.406 Y62.693 E0.01494
G1 X147.856 Y62.790 E0.01444
G1 X148.283 Y62.961 E0.01442
G1 X148.675 Y63.202 E0.01442
G1 X149.020 Y63.506 E0.01442
G1 X149.309 Y63.864 E0.01442
G1 X149.533 Y64.265 E0.01442
G1 X149.680 Y64.682 E0.01386
G1 X149.764 Y65.151 E0.01494
G1 X149.764 Y65.612 E0.01444
G1 X149.686 Y66.065 E0.01442
G1 X149.533 Y66.498 E0.01442
G1 X149.309 Y66.900 E0.01442
G1 X149.020 Y67.258 E0.01442
G1 X148.675 Y67.561 E0.01442
G1 X148.283 Y67.802 E0.01442
G1 X147.873 Y67.967 E0.01386
G1 X147.492 Y68.052 E0.01222
G1 X147.282 Y68.435 F10800.000
;WIPE_START
G1 F8640.000
G1 X146.948 Y68.090 E-0.12607
G1 X146.492 Y68.032 E-0.10616
G1 X146.052 Y67.897 E-0.10616
G1 X145.641 Y67.690 E-0.10616
G1 X145.272 Y67.417 E-0.10616
G1 X144.954 Y67.085 E-0.10616
G1 X144.704 Y66.715 E-0.10311
;WIPE_END
G1 E-0.04000 F2100.000
G1 Z0.600 F10800.000
G1 X158.776 Y59.669
G1 Z0.200
G1 E0.80000 F2100.000
;TYPE:Perimeter
G1 F1200.000
G1 X158.776 Y83.095 E0.73450
G1 X135.350 Y83.095 E0.73450
G1 X135.350 Y59.669 E0.73450
G1 X158.716 Y59.669 E0.73262
G1 X159.153 Y59.292 F10800.000
;TYPE:External perimeter
G1 F1200.000
G1 X159.153 Y83.472 E0.75815
G1 X134.973 Y83.472 E0.75815
G1 X134.973 Y59.292 E0.75815
G1 X159.093 Y59.292 E0.75627
G1 X159.049 Y59.678 F10800.000
;WIPE_START
G1 F8640.000
G1 X159.101 Y62.583 E-0.76000
;WIPE_END
G1 E-0.04000 F2100.000
G1 Z0.600 F10800.000
G1 X157.899 Y59.782
G1 Z0.200
G1 E0.80000 F2100.000
;TYPE:Solid infill
;WIDTH:0.42065
G1 F1200.000
G1 X158.493 Y60.376 E0.02638
G1 X158.493 Y60.910 E0.01678
G1 X157.534 Y59.952 E0.04257
G1 X157.000 Y59.952 E0.01678
G1 X158.493 Y61.444 E0.06630
G1 X158.493 Y61.979 E0.01678
G1 X156.466 Y59.952 E0.09003
G1 X155.932 Y59.952 E0.01678
G1 X158.493 Y62.513 E0.11376
G1 X158.493 Y63.047 E0.01678
G1 X155.398 Y59.952 E0.13748
G1 X154.863 Y59.952 E0.01678
G1 X158.493 Y63.581 E0.16121
G1 X158.493 Y64.115 E0.01678
G1 X154.329 Y59.952 E0.18494
G1 X153.795 Y59.952 E0.01678
G1 X158.493 Y64.650 E0.20867
G1 X158.493 Y65.184 E0.01678
G1 X153.261 Y59.952 E0.23240
G1 X152.727 Y59.952 E0.01678
G1 X158.493 Y65.718 E0.25612
G1 X158.493 Y66.252 E0.01678
G1 X152.192 Y59.952 E0.27985
G1 X151.658 Y59.952 E0.01678
G1 X158.493 Y66.786 E0.30358
G1 X158.493 Y67.321 E0.01678
G1 X151.124 Y59.952 E0.32731
G1 X150.590 Y59.952 E0.01678
G1 X158.493 Y67.855 E0.35103
G1 X158.493 Y68.389 E0.01678
G1 X150.056 Y59.952 E0.37476
G1 X149.521 Y59.952 E0.01678
G1 X158.493 Y68.923 E0.39849
G1 X158.493 Y69.457 E0.01678
G1 X148.987 Y59.952 E0.42222
G1 X148.453 Y59.952 E0.01678
G1 X158.493 Y69.991 E0.44595
G1 X158.493 Y70.526 E0.01678
G1 X147.919 Y59.952 E0.46967
G1 X147.385 Y59.952 E0.01678
G1 X158.493 Y71.060 E0.49340
G1 X158.493 Y71.594 E0.01678
G1 X146.850 Y59.952 E0.51713
G1 X146.316 Y59.952 E0.01678
G1 X158.493 Y72.128 E0.54086
G1 X158.493 Y72.662 E0.01678
G1 X150.307 Y64.477 E0.36358
M73 Q0 S241
G1 X150.424 Y65.127 E0.02075
G1 X158.493 Y73.197 E0.35842
G1 X158.493 Y73.731 E0.01678
G1 X150.424 Y65.662 E0.35842
G1 X150.346 Y66.118 E0.01456
G1 X158.493 Y74.265 E0.36185
G1 X158.493 Y74.799 E0.01678
G1 X150.222 Y66.528 E0.36737
G1 X150.136 Y66.771 E0.00809
G1 X150.063 Y66.903 E0.00475
G1 X158.493 Y75.333 E0.37445
M73 P0 R240
G1 X158.493 Y75.868 E0.01678
G1 X149.871 Y67.246 E0.38296
G1 X149.636 Y67.545 E0.01195
G1 X158.493 Y76.402 E0.39341
G1 X158.493 Y76.936 E0.01678
G1 X149.378 Y67.821 E0.40486
G1 X149.094 Y68.071 E0.01189
G1 X158.493 Y77.470 E0.41748
G1 X158.493 Y78.004 E0.01678
G1 X148.767 Y68.279 E0.43198
G1 X148.581 Y68.394 E0.00687
G1 X148.415 Y68.461 E0.00563
G1 X158.493 Y78.539 E0.44764
G1 X158.493 Y79.073 E0.01678
G1 X148.029 Y68.609 E0.46480
G1 X147.592 Y68.706 E0.01406
G1 X158.493 Y79.607 E0.48421
G1 X158.493 Y80.141 E0.01678
G1 X147.096 Y68.744 E0.50622
G1 X146.919 Y68.752 E0.00555
G1 X146.518 Y68.700 E0.01272
G1 X158.662 Y80.845 E0.53944
;WIPE_START
G1 F8640.000
G1 X156.335 Y78.518 E-0.76000
;WIPE_END
G1 E-0.04000 F2100.000
G1 Z0.600 F10800.000
G1 X145.612 Y59.782
G1 Z0.200
G1 E0.80000 F2100.000
G1 F1200.000
G1 X147.970 Y62.139 E0.10470
G1 X147.488 Y62.036 E0.01547
G1 X147.326 Y62.030 E0.00510
G1 X145.248 Y59.952 E0.09230
G1 X144.714 Y59.952 E0.01678
G1 X146.790 Y62.028 E0.09224
G1 X146.322 Y62.094 E0.01487
G1 X144.180 Y59.952 E0.09515
G1 X143.645 Y59.952 E0.01678
G1 X145.913 Y62.219 E0.10071
G1 X145.805 Y62.252 E0.00354
G1 X145.543 Y62.384 E0.00920
G1 X143.111 Y59.952 E0.10804
G1 X142.577 Y59.952 E0.01678
G1 X145.203 Y62.577 E0.11663
G1 X144.896 Y62.804 E0.01200
G1 X142.043 Y59.952 E0.12671
G1 X141.509 Y59.952 E0.01678
G1 X144.625 Y63.068 E0.13842
G1 X144.438 Y63.263 E0.00847
G1 X144.377 Y63.354 E0.00346
G1 X140.974 Y59.952 E0.15112
G1 X140.440 Y59.952 E0.01678
G1 X144.161 Y63.673 E0.16528
G1 X143.985 Y64.031 E0.01253
G1 X139.906 Y59.952 E0.18118
G1 X139.372 Y59.952 E0.01678
G1 X143.840 Y64.420 E0.19848
G1 X143.735 Y64.849 E0.01387
G1 X138.838 Y59.952 E0.21753
G1 X138.303 Y59.952 E0.01678
G1 X143.693 Y65.341 E0.23940
G1 X143.735 Y65.918 E0.01815
G1 X137.769 Y59.952 E0.26500
G1 X137.235 Y59.952 E0.01678
G1 X143.959 Y66.676 E0.29868
G1 X144.118 Y67.027 E0.01209
G1 X144.438 Y67.501 E0.01797
G1 X144.834 Y67.914 E0.01797
G1 X145.294 Y68.254 E0.01797
G1 X145.785 Y68.501 E0.01726
G1 X158.493 Y81.209 E0.56447
G1 X158.493 Y81.744 E0.01678
G1 X136.701 Y59.952 E0.96796
G1 X136.167 Y59.952 E0.01678
G1 X158.493 Y82.278 E0.99168
G1 X158.493 Y82.812 E0.01678
G1 X135.633 Y59.952 E1.01541
G1 X135.633 Y60.486 E0.01678
G1 X157.959 Y82.812 E0.99168
G1 X157.424 Y82.812 E0.01678
G1 X135.633 Y61.020 E0.96795
G1 X135.633 Y61.554 E0.01678
G1 X148.359 Y74.281 E0.56528
G1 X148.581 Y74.370 E0.00753
G1 X149.068 Y74.670 E0.01797
G1 X149.498 Y75.048 E0.01797
G1 X149.857 Y75.493 E0.01797
G1 X150.136 Y75.993 E0.01797
G1 X150.172 Y76.094 E0.00338
G1 X156.890 Y82.812 E0.29840
G1 X156.356 Y82.812 E0.01678
G1 X150.379 Y76.835 E0.26550
G1 X150.424 Y77.096 E0.00832
M73 P1 R240
M73 Q1 S241
G1 X150.424 Y77.414 E0.00999
G1 X155.822 Y82.812 E0.23978
G1 X155.288 Y82.812 E0.01678
G1 X150.383 Y77.907 E0.21787
G1 X150.327 Y78.232 E0.01035
G1 X150.287 Y78.345 E0.00378
G1 X154.753 Y82.812 E0.19840
G1 X154.219 Y82.812 E0.01678
G1 X150.147 Y78.740 E0.18087
G1 X149.960 Y79.087 E0.01238
G1 X153.685 Y82.812 E0.16546
G1 X153.151 Y82.812 E0.01678
G1 X149.747 Y79.408 E0.15121
G1 X149.508 Y79.703 E0.01193
G1 X152.617 Y82.812 E0.13808
G1 X152.082 Y82.812 E0.01678
G1 X149.226 Y79.955 E0.12689
G1 X149.068 Y80.094 E0.00658
G1 X148.921 Y80.185 E0.00544
G1 X151.548 Y82.812 E0.11670
G1 X151.014 Y82.812 E0.01678
G1 X148.590 Y80.388 E0.10766
G1 X148.211 Y80.543 E0.01287
G1 X150.480 Y82.812 E0.10080
G1 X149.946 Y82.812 E0.01678
G1 X147.796 Y80.662 E0.09550
G1 X147.491 Y80.728 E0.00978
G1 X147.334 Y80.734 E0.00495
G1 X149.411 Y82.812 E0.09229
G1 X148.877 Y82.812 E0.01678
G1 X146.802 Y80.737 E0.09218
G1 X146.352 Y80.679 E0.01425
G1 X146.148 Y80.617 E0.00671
G1 X148.513 Y82.982 E0.10505
;WIPE_START
G1 F8640.000
G1 X146.185 Y80.654 E-0.76000
;WIPE_END
G1 E-0.04000 F2100.000
G1 Z0.600 F10800.000
G1 X147.826 Y74.282
G1 Z0.200
G1 E0.80000 F2100.000
G1 F1200.000
G1 X135.633 Y62.089 E0.54161
G1 X135.633 Y62.623 E0.01678
G1 X147.029 Y74.019 E0.50620
M73 Q1 S240
G1 X146.900 Y74.014 E0.00405
G1 X146.537 Y74.061 E0.01150
G1 X135.633 Y63.157 E0.48433
G1 X135.633 Y63.691 E0.01678
G1 X146.102 Y74.161 E0.46505
G1 X145.805 Y74.252 E0.00977
G1 X145.708 Y74.301 E0.00341
