; generated by PrusaSlicer 2.3.3+win64 on 2022-01-26 at 08:30:03 UTC

; 

; external perimeters extrusion width = 0.45mm
; perimeters extrusion width = 0.45mm
; infill extrusion width = 0.45mm
; solid infill extrusion width = 0.45mm
; top infill extrusion width = 0.40mm
; first layer extrusion width = 0.42mm

; external perimeters extrusion width = 0.45mm
; perimeters extrusion width = 0.45mm
; infill extrusion width = 0.45mm
; solid infill extrusion width = 0.45mm
; top infill extrusion width = 0.40mm
; first layer extrusion width = 0.42mm

; external perimeters extrusion width = 0.45mm
; perimeters extrusion width = 0.45mm
; infill extrusion width = 0.45mm
; solid infill extrusion width = 0.45mm
; top infill extrusion width = 0.40mm
; first layer extrusion width = 0.42mm

; external perimeters extrusion width = 0.45mm
; perimeters extrusion width = 0.45mm
; infill extrusion width = 0.45mm
; solid infill extrusion width = 0.45mm
; top infill extrusion width = 0.40mm
; first layer extrusion width = 0.42mm

; external perimeters extrusion width = 0.45mm
; perimeters extrusion width = 0.45mm
; infill extrusion width = 0.45mm
; solid infill extrusion width = 0.45mm
; top infill extrusion width = 0.40mm
; first layer extrusion width = 0.42mm

; external perimeters extrusion width = 0.45mm
; perimeters extrusion width = 0.45mm
; infill extrusion width = 0.45mm
; solid infill extrusion width = 0.45mm
; top infill extrusion width = 0.40mm
; first layer extrusion width = 0.42mm

M73 P0 R401
M73 Q0 S402
M201 X1000 Y1000 Z200 E8000 ; sets maximum accelerations, mm/sec^2
M203 X200 Y200 Z12 E120 ; sets maximum feedrates, mm/sec
M204 P1250 R1250 T1250 ; sets acceleration (P, T) and retract acceleration (R), mm/sec^2
M205 X8.00 Y8.00 Z0.40 E4.50 ; sets the jerk limits, mm/sec
M205 S0 T0 ; sets the minimum extruding and travel feed rate, mm/sec
M107
;TYPE:Custom
M862.3 P "MK3SMMU2S" ; printer model check
M862.1 P0.4 ; nozzle diameter check
M115 U3.10.0 ; tell printer latest fw version
G90 ; use absolute coordinates
M83 ; extruder relative mode
M104 S215 ; set extruder temp
M140 S60 ; set bed temp
M190 S60 ; wait for bed temp
M109 S215 ; wait for extruder temp
G28 W ; home all without mesh bed level
G80 ; mesh bed leveling

; Send the filament type to the MMU2.0 unit.
; E stands for extruder number, F stands for filament type (0: default; 1:flex; 2: PVA)
M403 E0 F0
M403 E1 F0
M403 E2 F0
M403 E3 F0
M403 E4 F0


;go outside print area
G1 Y-3.0 F1000.0
G1 Z0.4 F1000.0
; select extruder
T1
; initial load
G1 X55.0 E29.0 F1073.0
G1 X5.0 E29.0 F1800.0
G1 X55.0 E8.0 F2000.0
G1 Z0.3 F1000.0
G92 E0.0
G1 X240.0 E25.0 F2200.0
M73 P0 R400
G1 Y-2.0 F1000.0
G1 X55.0 E25 F1400.0
G1 Z0.20 F1000.0
G1 X5.0 E4.0 F1000.0
G92 E0.0


M221 S95
G92 E0.0

; Don't change E values below. Excessive value can damage the printer.

M907 E538 ; set extruder motor current
G21 ; set units to millimeters
G90 ; use absolute coordinates
M83 ; use relative distances for extrusion
T1
M900 K0.05 ; Filament gcode LA 1.5
M900 K30 ; Filament gcode LA 1.0
G1 Z0.200 F10800.000
;LAYER_CHANGE
;Z:0.2
;HEIGHT:0.2
;BEFORE_LAYER_CHANGE
G92 E0.0
;0.2


G1 E-0.80000 F2100.000
G1 Z0.600 F10800.000
G1 Z0.200
;AFTER_LAYER_CHANGE
;0.2
G1 E-1.20000 F2100.000
G1 Z0.600 F10800.000
G1 X214.424 Y49.763
G1 Z0.200
G1 E2.00000 F2100.000
;HEIGHT:0.200000
;TYPE:Wipe tower
;WIDTH:0.500000
;-------------------------------------
; CP WIPE TOWER FIRST LAYER BRIM START
G1  X214.424 Y142.823  E5.3053 F2400
G1  X211.881 Y143.280   F7000
G1  Y49.306  E3.9288 F2100
G1  X150.967  E2.5466
G1  Y143.280  E3.9288
G1  X211.881  E2.5466
G1  X212.338 Y143.737   F7000
G1  Y48.849  E3.9670 F2100
G1  X150.510  E2.5849
M73 Q0 S401
G1  Y143.737  E3.9670
G1  X212.338  E2.5849
G1  X212.795 Y144.194   F7000
G1  Y48.392  E4.0052 F2100
G1  X150.053  E2.6231
G1  Y144.194  E4.0052
G1  X212.795  E2.6231
G1  X213.252 Y144.651   F7000
G1  Y47.935  E4.0434 F2100
G1  X149.596  E2.6613
G1  Y144.651  E4.0434
G1  X213.252  E2.6613
; CP WIPE TOWER FIRST LAYER BRIM END
;-----------------------------------

;WIPE_START
G1 F8640.000
G1 X212.796 Y144.195 E-0.14926
G1 X210.151 Y144.195 E-0.61074
;WIPE_END
G1 E-0.04000 F2100.000
G1 Z0.600 F10800.000
G1 X213.752 Y146.686
G1 Z0.200
G1 E0.80000 F2100.000
M204 S1000
;TYPE:Skirt
;WIDTH:0.42
;HEIGHT:0.2
G1 F1200.000
G1 X213.037 Y146.800 E0.02272
G1 X149.821 Y146.800 E1.98209
G1 X149.215 Y146.721 E0.01917
G1 X148.434 Y146.351 E0.02708
G1 X111.103 Y119.423 E1.44321
M73 P0 R399
G1 X110.564 Y118.879 E0.02402
G1 X110.238 Y118.232 E0.02272
G1 X110.123 Y117.516 E0.02272
G1 X110.123 Y92.473 E0.78521
G1 X110.194 Y91.923 E0.01740
G1 X110.392 Y91.401 E0.01752
G1 X110.680 Y90.971 E0.01621
G1 X148.006 Y46.633 E1.81724
G1 X148.445 Y46.228 E0.01870
G1 X149.092 Y45.902 E0.02272
G1 X149.807 Y45.787 E0.02272
G1 X213.028 Y45.787 E1.98225
G1 X213.930 Y45.966 E0.02884
G1 X214.694 Y46.472 E0.02872
G1 X215.211 Y47.232 E0.02884
G1 X215.401 Y48.132 E0.02884
G1 X215.401 Y144.446 E3.01986
G1 X215.330 Y145.000 E0.01752
G1 X215.132 Y145.522 E0.01752
G1 X214.817 Y145.984 E0.01752
G1 X214.403 Y146.359 E0.01752
G1 X213.806 Y146.659 E0.02096
; printing object body3002431 id:0 copy 0
;WIPE_START
G1 F8640.000
G1 X213.037 Y146.800 E-0.18059
G1 X210.527 Y146.800 E-0.57941
;WIPE_END
G1 E-0.04000 F2100.000
G1 Z0.600 F10800.000
G1 X121.815 Y112.272
G1 Z0.200
G1 E0.80000 F2100.000
;TYPE:Perimeter
G1 F1200.000
G1 X121.559 Y112.730 E0.01643
G1 X121.230 Y113.138 E0.01643
G1 X120.837 Y113.484 E0.01643
G1 X120.391 Y113.758 E0.01643
G1 X119.905 Y113.954 E0.01643
G1 X119.392 Y114.064 E0.01643
G1 X118.869 Y114.086 E0.01643
G1 X118.349 Y114.020 E0.01643
G1 X117.848 Y113.866 E0.01643
G1 X117.380 Y113.631 E0.01643
G1 X116.959 Y113.319 E0.01643
G1 X116.596 Y112.941 E0.01643
G1 X116.303 Y112.507 E0.01643
G1 X116.087 Y112.029 E0.01643
G1 X115.955 Y111.522 E0.01643
G1 X115.911 Y111.000 E0.01643
G1 X115.955 Y110.478 E0.01643
G1 X116.087 Y109.971 E0.01643
G1 X116.303 Y109.493 E0.01643
G1 X116.596 Y109.059 E0.01643
G1 X116.959 Y108.681 E0.01643
G1 X117.380 Y108.369 E0.01643
G1 X117.848 Y108.134 E0.01643
G1 X118.349 Y107.980 E0.01643
G1 X118.850 Y107.916 E0.01584
G1 X119.391 Y107.935 E0.01695
G1 X119.905 Y108.046 E0.01649
G1 X120.391 Y108.242 E0.01643
G1 X120.837 Y108.516 E0.01643
G1 X121.230 Y108.862 E0.01643
G1 X121.559 Y109.270 E0.01643
G1 X121.815 Y109.728 E0.01643
G1 X121.990 Y110.222 E0.01643
G1 X122.078 Y110.738 E0.01643
G1 X122.078 Y111.262 E0.01643
G1 X121.990 Y111.778 E0.01643
G1 X121.835 Y112.216 E0.01455
G1 X121.479 Y112.090 F10800.000
;TYPE:External perimeter
G1 F1200.000
G1 X121.246 Y112.518 E0.01528
G1 X120.957 Y112.876 E0.01442
G1 X120.612 Y113.179 E0.01442
G1 X120.220 Y113.421 E0.01442
G1 X119.794 Y113.592 E0.01442
G1 X119.344 Y113.689 E0.01442
G1 X118.885 Y113.708 E0.01442
G1 X118.429 Y113.650 E0.01442
G1 X117.989 Y113.515 E0.01442
G1 X117.579 Y113.308 E0.01442
G1 X117.209 Y113.035 E0.01442
G1 X116.891 Y112.703 E0.01442
G1 X116.633 Y112.322 E0.01442
G1 X116.444 Y111.903 E0.01442
G1 X116.328 Y111.458 E0.01442
G1 X116.289 Y111.000 E0.01442
G1 X116.328 Y110.542 E0.01442
G1 X116.444 Y110.097 E0.01442
G1 X116.633 Y109.678 E0.01442
G1 X116.891 Y109.297 E0.01442
G1 X117.209 Y108.965 E0.01442
G1 X117.579 Y108.692 E0.01442
G1 X117.989 Y108.485 E0.01442
G1 X118.429 Y108.350 E0.01442
G1 X118.867 Y108.294 E0.01386
G1 X119.344 Y108.311 E0.01494
G1 X119.794 Y108.408 E0.01444
G1 X120.220 Y108.579 E0.01442
G1 X120.612 Y108.821 E0.01442
G1 X120.957 Y109.124 E0.01442
G1 X121.246 Y109.482 E0.01442
G1 X121.470 Y109.883 E0.01442
G1 X121.623 Y110.317 E0.01442
G1 X121.701 Y110.770 E0.01442
G1 X121.701 Y111.230 E0.01442
G1 X121.623 Y111.683 E0.01442
G1 X121.499 Y112.034 E0.01166
G1 X121.715 Y112.413 F10800.000
;WIPE_START
G1 F8640.000
G1 X121.246 Y112.518 E-0.12622
G1 X120.957 Y112.876 E-0.10616
G1 X120.612 Y113.179 E-0.10616
G1 X120.220 Y113.421 E-0.10616
G1 X119.794 Y113.592 E-0.10616
G1 X119.344 Y113.689 E-0.10616
G1 X118.899 Y113.708 E-0.10296
;WIPE_END
G1 E-0.04000 F2100.000
G1 Z0.600 F10800.000
G1 X129.380 Y101.631
G1 Z0.200
G1 E0.80000 F2100.000
;TYPE:Perimeter
G1 F1200.000
G1 X128.959 Y101.319 E0.01643
G1 X128.596 Y100.941 E0.01643
G1 X128.303 Y100.507 E0.01643
G1 X128.095 Y100.046 E0.01584
G1 X127.955 Y99.524 E0.01695
G1 X127.911 Y99.000 E0.01649
G1 X127.955 Y98.478 E0.01643
G1 X128.083 Y97.989 E0.01584
G1 X128.302 Y97.495 E0.01695
G1 X128.596 Y97.059 E0.01649
G1 X128.959 Y96.681 E0.01643
G1 X129.380 Y96.369 E0.01643
G1 X129.848 Y96.134 E0.01643
G1 X130.349 Y95.980 E0.01643
G1 X130.850 Y95.916 E0.01584
G1 X131.391 Y95.935 E0.01695
G1 X131.905 Y96.046 E0.01649
G1 X132.391 Y96.242 E0.01643
G1 X132.837 Y96.516 E0.01643
G1 X133.230 Y96.862 E0.01643
G1 X133.548 Y97.255 E0.01584
G1 X133.814 Y97.726 E0.01695
G1 X133.990 Y98.222 E0.01649
G1 X134.078 Y98.738 E0.01643
G1 X134.078 Y99.262 E0.01643
G1 X133.990 Y99.778 E0.01643
G1 X133.815 Y100.272 E0.01643
G1 X133.559 Y100.730 E0.01643
G1 X133.230 Y101.138 E0.01643
G1 X132.837 Y101.484 E0.01643
G1 X132.391 Y101.758 E0.01643
G1 X131.922 Y101.947 E0.01584
G1 X131.394 Y102.064 E0.01695
G1 X130.869 Y102.086 E0.01649
G1 X130.349 Y102.020 E0.01643
G1 X129.848 Y101.866 E0.01643
G1 X129.434 Y101.658 E0.01455
G1 X129.604 Y101.321 F10800.000
;TYPE:External perimeter
G1 F1200.000
G1 X129.209 Y101.035 E0.01528
G1 X128.891 Y100.703 E0.01442
G1 X128.633 Y100.322 E0.01442
G1 X128.451 Y99.919 E0.01386
G1 X128.328 Y99.459 E0.01494
G1 X128.289 Y99.000 E0.01444
G1 X128.328 Y98.542 E0.01442
G1 X128.440 Y98.114 E0.01386
G1 X128.633 Y97.679 E0.01494
G1 X128.891 Y97.297 E0.01444
G1 X129.209 Y96.965 E0.01442
G1 X129.579 Y96.692 E0.01442
G1 X129.989 Y96.485 E0.01442
G1 X130.429 Y96.350 E0.01442
G1 X130.867 Y96.294 E0.01386
G1 X131.344 Y96.311 E0.01494
G1 X131.794 Y96.408 E0.01444
G1 X132.220 Y96.579 E0.01442
G1 X132.612 Y96.821 E0.01442
G1 X132.957 Y97.124 E0.01442
G1 X133.235 Y97.468 E0.01386
G1 X133.470 Y97.883 E0.01494
G1 X133.623 Y98.317 E0.01444
G1 X133.701 Y98.770 E0.01442
G1 X133.701 Y99.230 E0.01442
G1 X133.623 Y99.683 E0.01442
G1 X133.470 Y100.117 E0.01442
G1 X133.246 Y100.518 E0.01442
G1 X132.957 Y100.876 E0.01442
G1 X132.612 Y101.179 E0.01442
G1 X132.220 Y101.421 E0.01442
G1 X131.810 Y101.585 E0.01386
G1 X131.345 Y101.689 E0.01494
G1 X130.885 Y101.708 E0.01444
G1 X130.429 Y101.650 E0.01442
G1 X129.989 Y101.515 E0.01442
G1 X129.657 Y101.348 E0.01166
G1 X129.253 Y101.514 F10800.000
;WIPE_START
G1 F8640.000
G1 X129.209 Y101.035 E-0.12622
G1 X128.891 Y100.703 E-0.10616
G1 X128.633 Y100.322 E-0.10616
G1 X128.451 Y99.919 E-0.10209
G1 X128.328 Y99.459 E-0.11003
G1 X128.289 Y99.000 E-0.10632
G1 X128.327 Y98.555 E-0.10302
;WIPE_END
G1 E-0.04000 F2100.000
G1 Z0.600 F10800.000
G1 X136.713 Y93.287
G1 Z0.200
G1 E0.80000 F2100.000
;TYPE:Perimeter
G1 F1200.000
G1 X136.713 Y116.713 E0.73450
G1 X113.287 Y116.713 E0.73450
G1 X113.287 Y93.287 E0.73450
G1 X136.653 Y93.287 E0.73262
G1 X137.090 Y92.910 F10800.000
;TYPE:External perimeter
G1 F1200.000
G1 X137.090 Y117.090 E0.75815
G1 X112.910 Y117.090 E0.75815
G1 X112.910 Y92.910 E0.75815
G1 X137.030 Y92.910 E0.75627
G1 X136.986 Y93.296 F10800.000
;WIPE_START
G1 F8640.000
G1 X137.038 Y96.201 E-0.76000
;WIPE_END
G1 E-0.04000 F2100.000
G1 Z0.600 F10800.000
G1 X135.836 Y93.400
G1 Z0.200
G1 E0.80000 F2100.000
;TYPE:Solid infill
;WIDTH:0.42065
G1 F1200.000
G1 X136.430 Y93.994 E0.02638
G1 X136.430 Y94.528 E0.01678
G1 X135.472 Y93.570 E0.04257
G1 X134.937 Y93.570 E0.01678
G1 X136.430 Y95.063 E0.06630
G1 X136.430 Y95.597 E0.01678
G1 X134.403 Y93.570 E0.09003
M73 Q0 S400
G1 X133.869 Y93.570 E0.01678
G1 X136.430 Y96.131 E0.11376
G1 X136.430 Y96.665 E0.01678
G1 X133.335 Y93.570 E0.13748
G1 X132.801 Y93.570 E0.01678
G1 X136.430 Y97.199 E0.16121
G1 X136.430 Y97.733 E0.01678
G1 X132.267 Y93.570 E0.18494
G1 X131.732 Y93.570 E0.01678
G1 X136.430 Y98.268 E0.20867
G1 X136.430 Y98.802 E0.01678
G1 X131.198 Y93.570 E0.23240
G1 X130.664 Y93.570 E0.01678
G1 X136.430 Y99.336 E0.25612
G1 X136.430 Y99.870 E0.01678
G1 X130.130 Y93.570 E0.27985
G1 X129.596 Y93.570 E0.01678
G1 X131.749 Y95.723 E0.09566
G1 X131.426 Y95.654 E0.01039
G1 X131.135 Y95.643 E0.00914
G1 X129.061 Y93.570 E0.09209
G1 X128.527 Y93.570 E0.01678
G1 X130.618 Y95.661 E0.09287
G1 X130.289 Y95.703 E0.01040
G1 X130.164 Y95.741 E0.00411
G1 X127.993 Y93.570 E0.09644
G1 X127.459 Y93.570 E0.01678
G1 X129.755 Y95.866 E0.10200
G1 X129.398 Y96.044 E0.01252
G1 X126.925 Y93.570 E0.10988
G1 X126.390 Y93.570 E0.01678
G1 X129.069 Y96.248 E0.11897
G1 X128.763 Y96.477 E0.01199
G1 X125.856 Y93.570 E0.12912
G1 X125.322 Y93.570 E0.01678
G1 X128.502 Y96.750 E0.14123
G1 X128.376 Y96.881 E0.00572
G1 X128.264 Y97.046 E0.00626
G1 X124.788 Y93.570 E0.15441
G1 X124.254 Y93.570 E0.01678
G1 X128.050 Y97.366 E0.16862
G1 X127.886 Y97.736 E0.01271
G1 X123.719 Y93.570 E0.18505
G1 X123.185 Y93.570 E0.01678
G1 X127.752 Y98.137 E0.20284
G1 X127.675 Y98.430 E0.00952
G1 X127.663 Y98.581 E0.00477
G1 X122.651 Y93.570 E0.22260
G1 X122.117 Y93.570 E0.01678
G1 X127.634 Y99.087 E0.24508
G1 X127.676 Y99.573 E0.01530
G1 X127.709 Y99.696 E0.00400
G1 X121.413 Y93.400 E0.27964
;WIPE_START
G1 F8640.000
G1 X123.740 Y95.728 E-0.76000
;WIPE_END
G1 E-0.04000 F2100.000
G1 Z0.600 F10800.000
G1 X134.034 Y98.009
G1 Z0.200
G1 E0.80000 F2100.000
G1 F1200.000
G1 X136.430 Y100.404 E0.10642
G1 X136.430 Y100.939 E0.01678
G1 X134.361 Y98.869 E0.09191
G1 X134.361 Y99.286 E0.01309
G1 X134.344 Y99.386 E0.00320
G1 X136.430 Y101.473 E0.09268
G1 X136.430 Y102.007 E0.01678
G1 X134.265 Y99.842 E0.09615
G1 X134.127 Y100.238 E0.01317
G1 X136.430 Y102.541 E0.10230
G1 X136.430 Y103.075 E0.01678
G1 X133.955 Y100.601 E0.10992
G1 X133.757 Y100.936 E0.01224
G1 X136.430 Y103.610 E0.11876
G1 X136.430 Y104.144 E0.01678
G1 X133.518 Y101.232 E0.12936
G1 X133.435 Y101.334 E0.00413
G1 X133.249 Y101.497 E0.00777
G1 X136.430 Y104.678 E0.14128
G1 X136.430 Y105.212 E0.01678
G1 X132.959 Y101.741 E0.15419
G1 X132.628 Y101.944 E0.01219
G1 X136.430 Y105.746 E0.16888
G1 X136.430 Y106.281 E0.01678
G1 X132.264 Y102.114 E0.18506
G1 X132.006 Y102.218 E0.00872
G1 X131.865 Y102.249 E0.00455
G1 X136.430 Y106.815 E0.20279
G1 X136.430 Y107.349 E0.01678
G1 X131.427 Y102.346 E0.22223
G1 X130.915 Y102.368 E0.01611
G1 X136.430 Y107.883 E0.24499
G1 X136.430 Y108.417 E0.01678
G1 X130.063 Y102.051 E0.28279
;WIPE_START
G1 F8640.000
G1 X132.391 Y104.378 E-0.76000
;WIPE_END
G1 E-0.04000 F2100.000
G1 Z0.600 F10800.000
G1 X136.600 Y109.121
G1 Z0.200
G1 E0.80000 F2100.000
G1 F1200.000
G1 X121.048 Y93.570 E0.69076
G1 X120.514 Y93.570 E0.01678
G1 X136.430 Y109.486 E0.70695
G1 X136.430 Y110.020 E0.01678
G1 X119.980 Y93.570 E0.73068
G1 X119.446 Y93.570 E0.01678
G1 X136.430 Y110.554 E0.75441
G1 X136.430 Y111.088 E0.01678
G1 X118.912 Y93.570 E0.77813
G1 X118.378 Y93.570 E0.01678
M73 P0 R398
G1 X136.430 Y111.622 E0.80186
G1 X136.430 Y112.157 E0.01678
G1 X117.843 Y93.570 E0.82559
G1 X117.309 Y93.570 E0.01678
G1 X136.430 Y112.691 E0.84932
G1 X136.430 Y113.225 E0.01678
G1 X116.775 Y93.570 E0.87305
G1 X116.241 Y93.570 E0.01678
G1 X136.430 Y113.759 E0.89677
G1 X136.430 Y114.293 E0.01678
G1 X115.707 Y93.570 E0.92050
G1 X115.172 Y93.570 E0.01678
G1 X136.430 Y114.828 E0.94423
G1 X136.430 Y115.362 E0.01678
G1 X114.638 Y93.570 E0.96796
G1 X114.104 Y93.570 E0.01678
G1 X136.430 Y115.896 E0.99168
G1 X136.430 Y116.430 E0.01678
G1 X113.570 Y93.570 E1.01541
M73 Q0 S399
G1 X113.570 Y94.104 E0.01678
G1 X135.896 Y116.430 E0.99168
G1 X135.362 Y116.430 E0.01678
G1 X113.570 Y94.638 E0.96795
G1 X113.570 Y95.172 E0.01678
G1 X134.827 Y116.430 E0.94422
G1 X134.293 Y116.430 E0.01678
G1 X113.570 Y95.707 E0.92050
G1 X113.570 Y96.241 E0.01678
G1 X133.759 Y116.430 E0.89677
G1 X133.225 Y116.430 E0.01678
G1 X113.570 Y96.775 E0.87304
G1 X113.570 Y97.309 E0.01678
G1 X132.691 Y116.430 E0.84931
G1 X132.157 Y116.430 E0.01678
G1 X113.570 Y97.843 E0.82559
G1 X113.570 Y98.378 E0.01678
G1 X131.622 Y116.430 E0.80186
G1 X131.088 Y116.430 E0.01678
G1 X113.570 Y98.912 E0.77813
G1 X113.570 Y99.446 E0.01678
G1 X130.554 Y116.430 E0.75440
G1 X130.020 Y116.430 E0.01678
G1 X113.570 Y99.980 E0.73067
