; generated by PrusaSlicer 2.3.3+win64 on 2022-01-31 at 10:47:54 UTC

; 

; external perimeters extrusion width = 0.60mm
; perimeters extrusion width = 0.50mm
; infill extrusion width = 0.50mm
; solid infill extrusion width = 0.50mm
; top infill extrusion width = 0.45mm
; first layer extrusion width = 0.42mm

; external perimeters extrusion width = 0.60mm
; perimeters extrusion width = 0.50mm
; infill extrusion width = 0.50mm
; solid infill extrusion width = 0.50mm
; top infill extrusion width = 0.45mm
; first layer extrusion width = 0.42mm

; external perimeters extrusion width = 0.45mm
; perimeters extrusion width = 0.45mm
; infill extrusion width = 0.45mm
; solid infill extrusion width = 0.45mm
; top infill extrusion width = 0.40mm
; first layer extrusion width = 0.42mm

; external perimeters extrusion width = 0.45mm
; perimeters extrusion width = 0.45mm
; infill extrusion width = 0.45mm
; solid infill extrusion width = 0.45mm
; top infill extrusion width = 0.40mm
; first layer extrusion width = 0.42mm

; external perimeters extrusion width = 0.45mm
; perimeters extrusion width = 0.45mm
; infill extrusion width = 0.45mm
; solid infill extrusion width = 0.45mm
; top infill extrusion width = 0.40mm
; first layer extrusion width = 0.42mm

; external perimeters extrusion width = 0.45mm
; perimeters extrusion width = 0.45mm
; infill extrusion width = 0.45mm
; solid infill extrusion width = 0.45mm
; top infill extrusion width = 0.40mm
; first layer extrusion width = 0.42mm

M73 P0 R229
M73 Q0 S230
M201 X1000 Y1000 Z200 E8000 ; sets maximum accelerations, mm/sec^2
M203 X200 Y200 Z12 E120 ; sets maximum feedrates, mm/sec
M204 P1250 R1250 T1250 ; sets acceleration (P, T) and retract acceleration (R), mm/sec^2
M205 X8.00 Y8.00 Z0.40 E4.50 ; sets the jerk limits, mm/sec
M205 S0 T0 ; sets the minimum extruding and travel feed rate, mm/sec
M107
;TYPE:Custom
M862.3 P "MK3SMMU2S" ; printer model check
M862.1 P0.4 ; nozzle diameter check
M115 U3.10.0 ; tell printer latest fw version
G90 ; use absolute coordinates
M83 ; extruder relative mode
M104 S215 ; set extruder temp
M140 S60 ; set bed temp
M190 S60 ; wait for bed temp
M109 S215 ; wait for extruder temp
G28 W ; home all without mesh bed level
G80 ; mesh bed leveling

; Send the filament type to the MMU2.0 unit.
; E stands for extruder number, F stands for filament type (0: default; 1:flex; 2: PVA)
M403 E0 F0
M403 E1 F0
M403 E2 F0
M403 E3 F0
M403 E4 F0


;go outside print area
G1 Y-3.0 F1000.0
G1 Z0.4 F1000.0
; select extruder
T1
; initial load
G1 X55.0 E29.0 F1073.0
G1 X5.0 E29.0 F1800.0
G1 X55.0 E8.0 F2000.0
G1 Z0.3 F1000.0
G92 E0.0
G1 X240.0 E25.0 F2200.0
G1 Y-2.0 F1000.0
G1 X55.0 E25 F1400.0
G1 Z0.20 F1000.0
G1 X5.0 E4.0 F1000.0
G92 E0.0


M221 S95
G92 E0.0

; Don't change E values below. Excessive value can damage the printer.

M907 E538 ; set extruder motor current
G21 ; set units to millimeters
G90 ; use absolute coordinates
M83 ; use relative distances for extrusion
T1
M900 K0.05 ; Filament gcode LA 1.5
M900 K30 ; Filament gcode LA 1.0
G1 Z0.200 F10800.000
;LAYER_CHANGE
;Z:0.2
;HEIGHT:0.2
;BEFORE_LAYER_CHANGE
G92 E0.0
;0.2


G1 E-0.80000 F2100.000
G1 Z0.600 F10800.000
G1 Z0.200
;AFTER_LAYER_CHANGE
;0.2
M73 P0 R228
G1 E-1.20000 F2100.000
G1 Z0.600 F10800.000
G1 X235.634 Y21.866
G1 Z0.200
G1 E2.00000 F2100.000
;HEIGHT:0.200000
;TYPE:Wipe tower
;WIDTH:0.500000
;-------------------------------------
; CP WIPE TOWER FIRST LAYER BRIM START
G1  X235.634 Y86.926  E3.7090 F2400
G1  X233.091 Y87.383   F7000
G1  Y21.409  E2.7582 F2100
G1  X172.177  E2.5466
G1  Y87.383  E2.7582
G1  X233.091  E2.5466
G1  X233.548 Y87.840   F7000
G1  Y20.952  E2.7964 F2100
M73 Q0 S229
G1  X171.720  E2.5849
G1  Y87.840  E2.7964
G1  X233.548  E2.5849
G1  X234.005 Y88.297   F7000
G1  Y20.495  E2.8346 F2100
G1  X171.263  E2.6231
G1  Y88.297  E2.8346
G1  X234.005  E2.6231
G1  X234.462 Y88.754   F7000
G1  Y20.038  E2.8728 F2100
G1  X170.806  E2.6613
G1  Y88.754  E2.8728
G1  X234.462  E2.6613
; CP WIPE TOWER FIRST LAYER BRIM END
;-----------------------------------

;WIPE_START
G1 F8640.000
G1 X234.005 Y88.297 E-0.14926
G1 X231.360 Y88.297 E-0.61074
;WIPE_END
G1 E-0.04000 F2100.000
G1 Z0.600 F10800.000
G1 X235.740 Y90.365
G1 Z0.200
G1 E0.80000 F2100.000
M204 S1000
;TYPE:Skirt
;WIDTH:0.42
;HEIGHT:0.2
G1 F1200.000
G1 X234.918 Y90.802 E0.02919
G1 X138.031 Y119.817 E3.17113
G1 X137.506 Y119.877 E0.01657
G1 X112.431 Y119.876 E0.78620
G1 X111.930 Y119.808 E0.01585
G1 X111.452 Y119.633 E0.01597
G1 X111.021 Y119.361 E0.01597
G1 X110.661 Y119.006 E0.01585
G1 X110.264 Y118.307 E0.02520
G1 X110.123 Y117.520 E0.02508
G1 X110.123 Y92.470 E0.78544
G1 X110.210 Y91.864 E0.01917
G1 X110.448 Y91.301 E0.01917
G1 X169.528 Y18.427 E2.94147
G1 X170.227 Y18.030 E0.02520
G1 X171.014 Y17.889 E0.02508
G1 X234.238 Y17.889 E1.98233
G1 X235.136 Y18.067 E0.02872
G1 X235.898 Y18.569 E0.02860
G1 X236.415 Y19.321 E0.02860
G1 X236.610 Y20.216 E0.02872
G1 X236.611 Y88.556 E2.14277
G1 X236.548 Y89.069 E0.01621
G1 X236.376 Y89.557 E0.01621
G1 X236.102 Y89.996 E0.01621
G1 X235.782 Y90.322 E0.01433
; printing object body1103920 id:0 copy 0
;WIPE_START
G1 F8640.000
G1 X234.918 Y90.802 E-0.22821
G1 X232.712 Y91.463 E-0.53179
;WIPE_END
G1 E-0.04000 F2100.000
G1 Z0.600 F10800.000
G1 X127.990 Y110.222
G1 Z0.200
G1 E0.80000 F2100.000
;TYPE:Perimeter
G1 F1200.000
G1 X128.078 Y110.738 E0.01643
G1 X128.078 Y111.262 E0.01643
G1 X127.990 Y111.778 E0.01643
G1 X127.815 Y112.272 E0.01643
G1 X127.559 Y112.730 E0.01643
G1 X127.230 Y113.138 E0.01643
G1 X126.837 Y113.484 E0.01643
G1 X126.391 Y113.758 E0.01643
G1 X125.905 Y113.954 E0.01643
G1 X125.392 Y114.064 E0.01643
G1 X124.869 Y114.086 E0.01643
G1 X124.349 Y114.020 E0.01643
G1 X123.848 Y113.866 E0.01643
G1 X123.380 Y113.631 E0.01643
G1 X122.959 Y113.319 E0.01643
G1 X122.596 Y112.941 E0.01643
G1 X122.303 Y112.507 E0.01643
G1 X122.087 Y112.029 E0.01643
G1 X121.955 Y111.522 E0.01643
G1 X121.911 Y111.000 E0.01643
G1 X121.955 Y110.478 E0.01643
G1 X122.083 Y109.989 E0.01584
G1 X122.302 Y109.495 E0.01695
G1 X122.596 Y109.059 E0.01649
G1 X122.959 Y108.681 E0.01643
G1 X123.380 Y108.369 E0.01643
G1 X123.848 Y108.134 E0.01643
G1 X124.349 Y107.980 E0.01643
G1 X124.850 Y107.916 E0.01584
G1 X125.391 Y107.935 E0.01695
G1 X125.905 Y108.046 E0.01649
G1 X126.391 Y108.242 E0.01643
G1 X126.837 Y108.516 E0.01643
G1 X127.230 Y108.862 E0.01643
G1 X127.559 Y109.270 E0.01643
G1 X127.815 Y109.728 E0.01643
G1 X127.970 Y110.165 E0.01455
G1 X127.614 Y110.291 F10800.000
;TYPE:External perimeter
G1 F1200.000
G1 X127.701 Y110.770 E0.01528
G1 X127.701 Y111.230 E0.01442
G1 X127.623 Y111.683 E0.01442
G1 X127.470 Y112.117 E0.01442
G1 X127.246 Y112.518 E0.01442
G1 X126.957 Y112.876 E0.01442
G1 X126.612 Y113.179 E0.01442
G1 X126.220 Y113.421 E0.01442
G1 X125.794 Y113.592 E0.01442
G1 X125.344 Y113.689 E0.01442
G1 X124.885 Y113.708 E0.01442
G1 X124.429 Y113.650 E0.01442
G1 X123.989 Y113.515 E0.01442
G1 X123.579 Y113.308 E0.01442
G1 X123.209 Y113.035 E0.01442
G1 X122.891 Y112.703 E0.01442
G1 X122.633 Y112.322 E0.01442
G1 X122.444 Y111.903 E0.01442
G1 X122.328 Y111.458 E0.01442
G1 X122.289 Y111.000 E0.01442
G1 X122.328 Y110.542 E0.01442
G1 X122.440 Y110.114 E0.01386
G1 X122.633 Y109.679 E0.01494
G1 X122.891 Y109.297 E0.01444
G1 X123.209 Y108.965 E0.01442
G1 X123.579 Y108.692 E0.01442
G1 X123.989 Y108.485 E0.01442
G1 X124.429 Y108.350 E0.01442
G1 X124.867 Y108.294 E0.01386
G1 X125.344 Y108.311 E0.01494
G1 X125.794 Y108.408 E0.01444
G1 X126.220 Y108.579 E0.01442
G1 X126.612 Y108.821 E0.01442
G1 X126.957 Y109.124 E0.01442
G1 X127.246 Y109.482 E0.01442
G1 X127.470 Y109.883 E0.01442
G1 X127.594 Y110.234 E0.01166
G1 X128.000 Y110.394 F10800.000
;WIPE_START
G1 F8640.000
G1 X127.701 Y110.770 E-0.12621
G1 X127.701 Y111.230 E-0.10616
G1 X127.623 Y111.683 E-0.10617
G1 X127.470 Y112.117 E-0.10616
G1 X127.246 Y112.518 E-0.10616
G1 X126.957 Y112.876 E-0.10616
G1 X126.622 Y113.170 E-0.10296
;WIPE_END
G1 E-0.04000 F2100.000
G1 Z0.600 F10800.000
G1 X125.394 Y102.064
G1 Z0.200
G1 E0.80000 F2100.000
;TYPE:Perimeter
G1 F1200.000
G1 X124.869 Y102.086 E0.01649
G1 X124.349 Y102.020 E0.01643
G1 X123.848 Y101.866 E0.01643
G1 X123.380 Y101.631 E0.01643
G1 X122.959 Y101.319 E0.01643
G1 X122.596 Y100.941 E0.01643
G1 X122.303 Y100.507 E0.01643
G1 X122.087 Y100.029 E0.01643
G1 X121.955 Y99.522 E0.01643
G1 X121.911 Y99.000 E0.01643
G1 X121.955 Y98.478 E0.01643
G1 X122.087 Y97.971 E0.01643
G1 X122.303 Y97.493 E0.01643
G1 X122.596 Y97.059 E0.01643
G1 X122.959 Y96.681 E0.01643
G1 X123.380 Y96.369 E0.01643
G1 X123.848 Y96.134 E0.01643
G1 X124.349 Y95.980 E0.01643
G1 X124.850 Y95.916 E0.01584
G1 X125.391 Y95.935 E0.01695
G1 X125.905 Y96.046 E0.01649
G1 X126.391 Y96.242 E0.01643
G1 X126.837 Y96.516 E0.01643
G1 X127.230 Y96.862 E0.01643
G1 X127.559 Y97.270 E0.01643
G1 X127.815 Y97.728 E0.01643
G1 X127.983 Y98.204 E0.01584
G1 X128.078 Y98.736 E0.01695
G1 X128.078 Y99.262 E0.01649
G1 X127.990 Y99.778 E0.01643
G1 X127.815 Y100.272 E0.01643
G1 X127.559 Y100.730 E0.01643
G1 X127.230 Y101.138 E0.01643
G1 X126.837 Y101.484 E0.01643
G1 X126.391 Y101.758 E0.01643
G1 X125.922 Y101.947 E0.01584
G1 X125.453 Y102.051 E0.01507
G1 X125.371 Y101.683 F10800.000
;TYPE:External perimeter
G1 F1200.000
G1 X124.885 Y101.708 E0.01526
G1 X124.429 Y101.650 E0.01442
G1 X123.989 Y101.515 E0.01442
G1 X123.579 Y101.308 E0.01442
G1 X123.209 Y101.035 E0.01442
G1 X122.891 Y100.703 E0.01442
G1 X122.633 Y100.322 E0.01442
G1 X122.444 Y99.903 E0.01442
G1 X122.328 Y99.458 E0.01442
G1 X122.289 Y99.000 E0.01442
G1 X122.328 Y98.542 E0.01442
G1 X122.444 Y98.097 E0.01442
G1 X122.633 Y97.678 E0.01442
G1 X122.891 Y97.297 E0.01442
G1 X123.209 Y96.965 E0.01442
G1 X123.579 Y96.692 E0.01442
G1 X123.989 Y96.485 E0.01442
G1 X124.429 Y96.350 E0.01442
G1 X124.867 Y96.294 E0.01386
G1 X125.344 Y96.311 E0.01494
G1 X125.794 Y96.408 E0.01444
G1 X126.220 Y96.579 E0.01442
G1 X126.612 Y96.821 E0.01442
G1 X126.957 Y97.124 E0.01442
G1 X127.246 Y97.482 E0.01442
G1 X127.470 Y97.883 E0.01442
G1 X127.617 Y98.300 E0.01386
G1 X127.701 Y98.769 E0.01494
G1 X127.701 Y99.230 E0.01444
G1 X127.623 Y99.683 E0.01442
G1 X127.470 Y100.117 E0.01442
G1 X127.246 Y100.518 E0.01442
G1 X126.957 Y100.876 E0.01442
G1 X126.612 Y101.179 E0.01442
G1 X126.220 Y101.421 E0.01442
G1 X125.810 Y101.585 E0.01386
G1 X125.430 Y101.670 E0.01222
G1 X125.219 Y102.053 F10800.000
;WIPE_START
G1 F8640.000
G1 X124.885 Y101.708 E-0.12607
G1 X124.429 Y101.650 E-0.10616
G1 X123.989 Y101.515 E-0.10616
G1 X123.579 Y101.308 E-0.10616
G1 X123.209 Y101.035 E-0.10616
G1 X122.891 Y100.703 E-0.10616
G1 X122.641 Y100.333 E-0.10311
;WIPE_END
G1 E-0.04000 F2100.000
G1 Z0.600 F10800.000
G1 X136.713 Y93.287
G1 Z0.200
G1 E0.80000 F2100.000
;TYPE:Perimeter
G1 F1200.000
G1 X136.713 Y116.713 E0.73450
M73 P0 R227
G1 X113.287 Y116.713 E0.73450
G1 X113.287 Y93.287 E0.73450
G1 X136.653 Y93.287 E0.73262
G1 X137.090 Y92.910 F10800.000
;TYPE:External perimeter
G1 F1200.000
G1 X137.090 Y117.090 E0.75815
G1 X112.910 Y117.090 E0.75815
G1 X112.910 Y92.910 E0.75815
G1 X137.030 Y92.910 E0.75627
G1 X136.986 Y93.296 F10800.000
;WIPE_START
G1 F8640.000
G1 X137.038 Y96.201 E-0.76000
;WIPE_END
G1 E-0.04000 F2100.000
G1 Z0.600 F10800.000
G1 X135.836 Y93.400
G1 Z0.200
G1 E0.80000 F2100.000
;TYPE:Solid infill
;WIDTH:0.42065
G1 F1200.000
G1 X136.430 Y93.994 E0.02638
G1 X136.430 Y94.528 E0.01678
G1 X135.472 Y93.570 E0.04257
G1 X134.937 Y93.570 E0.01678
G1 X136.430 Y95.063 E0.06630
G1 X136.430 Y95.597 E0.01678
G1 X134.403 Y93.570 E0.09003
G1 X133.869 Y93.570 E0.01678
G1 X136.430 Y96.131 E0.11376
G1 X136.430 Y96.665 E0.01678
G1 X133.335 Y93.570 E0.13748
G1 X132.801 Y93.570 E0.01678
G1 X136.430 Y97.199 E0.16121
M73 Q0 S228
G1 X136.430 Y97.733 E0.01678
G1 X132.267 Y93.570 E0.18494
G1 X131.732 Y93.570 E0.01678
G1 X136.430 Y98.268 E0.20867
G1 X136.430 Y98.802 E0.01678
G1 X131.198 Y93.570 E0.23240
G1 X130.664 Y93.570 E0.01678
G1 X136.430 Y99.336 E0.25612
G1 X136.430 Y99.870 E0.01678
G1 X130.130 Y93.570 E0.27985
G1 X129.596 Y93.570 E0.01678
G1 X136.430 Y100.404 E0.30358
G1 X136.430 Y100.939 E0.01678
G1 X129.061 Y93.570 E0.32731
G1 X128.527 Y93.570 E0.01678
G1 X136.430 Y101.473 E0.35103
G1 X136.430 Y102.007 E0.01678
G1 X127.993 Y93.570 E0.37476
G1 X127.459 Y93.570 E0.01678
G1 X136.430 Y102.541 E0.39849
G1 X136.430 Y103.075 E0.01678
G1 X126.925 Y93.570 E0.42222
G1 X126.390 Y93.570 E0.01678
G1 X136.430 Y103.610 E0.44595
G1 X136.430 Y104.144 E0.01678
G1 X125.856 Y93.570 E0.46967
G1 X125.322 Y93.570 E0.01678
G1 X136.430 Y104.678 E0.49340
G1 X136.430 Y105.212 E0.01678
G1 X124.788 Y93.570 E0.51713
G1 X124.254 Y93.570 E0.01678
G1 X136.430 Y105.746 E0.54086
G1 X136.430 Y106.281 E0.01678
G1 X128.245 Y98.095 E0.36358
G1 X128.361 Y98.745 E0.02075
G1 X136.430 Y106.815 E0.35842
G1 X136.430 Y107.349 E0.01678
G1 X128.361 Y99.280 E0.35842
G1 X128.284 Y99.737 E0.01456
G1 X136.430 Y107.883 E0.36185
G1 X136.430 Y108.417 E0.01678
G1 X128.159 Y100.147 E0.36737
G1 X128.074 Y100.389 E0.00809
G1 X128.000 Y100.521 E0.00475
G1 X136.430 Y108.951 E0.37445
G1 X136.430 Y109.486 E0.01678
G1 X127.808 Y100.864 E0.38296
G1 X127.573 Y101.163 E0.01195
G1 X136.430 Y110.020 E0.39341
G1 X136.430 Y110.554 E0.01678
G1 X127.315 Y101.439 E0.40486
G1 X127.031 Y101.689 E0.01189
G1 X136.430 Y111.088 E0.41748
G1 X136.430 Y111.622 E0.01678
G1 X126.705 Y101.897 E0.43198
G1 X126.519 Y102.012 E0.00687
G1 X126.352 Y102.079 E0.00563
G1 X136.430 Y112.157 E0.44764
G1 X136.430 Y112.691 E0.01678
G1 X125.966 Y102.227 E0.46480
G1 X125.529 Y102.324 E0.01406
G1 X136.430 Y113.225 E0.48421
G1 X136.430 Y113.759 E0.01678
G1 X125.033 Y102.362 E0.50622
G1 X124.857 Y102.370 E0.00555
G1 X124.455 Y102.319 E0.01272
G1 X136.600 Y114.463 E0.53944
;WIPE_START
G1 F8640.000
G1 X134.272 Y112.136 E-0.76000
;WIPE_END
G1 E-0.04000 F2100.000
G1 Z0.600 F10800.000
G1 X123.550 Y93.400
G1 Z0.200
G1 E0.80000 F2100.000
G1 F1200.000
G1 X125.907 Y95.757 E0.10470
G1 X125.426 Y95.654 E0.01547
G1 X125.263 Y95.648 E0.00510
G1 X123.185 Y93.570 E0.09230
G1 X122.651 Y93.570 E0.01678
G1 X124.728 Y95.647 E0.09224
G1 X124.259 Y95.712 E0.01487
G1 X122.117 Y93.570 E0.09515
G1 X121.583 Y93.570 E0.01678
G1 X123.850 Y95.837 E0.10071
G1 X123.742 Y95.870 E0.00354
G1 X123.481 Y96.002 E0.00920
G1 X121.048 Y93.570 E0.10804
G1 X120.514 Y93.570 E0.01678
G1 X123.140 Y96.195 E0.11663
G1 X122.833 Y96.423 E0.01200
G1 X119.980 Y93.570 E0.12671
G1 X119.446 Y93.570 E0.01678
G1 X122.562 Y96.686 E0.13842
G1 X122.376 Y96.881 E0.00847
G1 X122.314 Y96.972 E0.00346
G1 X118.912 Y93.570 E0.15112
G1 X118.378 Y93.570 E0.01678
G1 X122.099 Y97.291 E0.16528
G1 X121.922 Y97.649 E0.01253
G1 X117.843 Y93.570 E0.18118
G1 X117.309 Y93.570 E0.01678
G1 X121.777 Y98.038 E0.19848
G1 X121.672 Y98.467 E0.01387
G1 X116.775 Y93.570 E0.21753
G1 X116.241 Y93.570 E0.01678
M73 P1 R226
M73 Q1 S228
G1 X121.630 Y98.960 E0.23940
G1 X121.673 Y99.536 E0.01815
G1 X115.707 Y93.570 E0.26500
G1 X115.172 Y93.570 E0.01678
G1 X121.897 Y100.294 E0.29868
G1 X122.055 Y100.645 E0.01209
G1 X122.376 Y101.119 E0.01797
G1 X122.772 Y101.532 E0.01797
G1 X123.231 Y101.872 E0.01797
G1 X123.722 Y102.120 E0.01726
G1 X136.430 Y114.828 E0.56447
G1 X136.430 Y115.362 E0.01678
G1 X114.638 Y93.570 E0.96796
G1 X114.104 Y93.570 E0.01678
G1 X136.430 Y115.896 E0.99168
G1 X136.430 Y116.430 E0.01678
G1 X113.570 Y93.570 E1.01541
G1 X113.570 Y94.104 E0.01678
G1 X135.896 Y116.430 E0.99168
M73 Q1 S227
G1 X135.362 Y116.430 E0.01678
G1 X113.570 Y94.638 E0.96795
G1 X113.570 Y95.172 E0.01678
G1 X126.296 Y107.899 E0.56528
G1 X126.519 Y107.988 E0.00753
G1 X127.006 Y108.288 E0.01797
G1 X127.435 Y108.666 E0.01797
G1 X127.795 Y109.111 E0.01797
G1 X128.074 Y109.611 E0.01797
G1 X128.109 Y109.712 E0.00338
G1 X134.827 Y116.430 E0.29840
G1 X134.293 Y116.430 E0.01678
G1 X128.316 Y110.453 E0.26550
G1 X128.361 Y110.714 E0.00832
G1 X128.361 Y111.032 E0.00999
G1 X133.759 Y116.430 E0.23978
G1 X133.225 Y116.430 E0.01678
G1 X128.320 Y111.525 E0.21787
G1 X128.264 Y111.850 E0.01035
G1 X128.224 Y111.963 E0.00378
G1 X132.691 Y116.430 E0.19840
G1 X132.157 Y116.430 E0.01678
G1 X128.085 Y112.358 E0.18087
