; generated by PrusaSlicer 2.3.3+win64 on 2022-01-28 at 08:51:20 UTC

; 

; external perimeters extrusion width = 0.60mm
; perimeters extrusion width = 0.50mm
; infill extrusion width = 0.50mm
; solid infill extrusion width = 0.50mm
; top infill extrusion width = 0.45mm
; first layer extrusion width = 0.42mm

; external perimeters extrusion width = 0.60mm
; perimeters extrusion width = 0.50mm
; infill extrusion width = 0.50mm
; solid infill extrusion width = 0.50mm
; top infill extrusion width = 0.45mm
; first layer extrusion width = 0.42mm

; external perimeters extrusion width = 0.45mm
; perimeters extrusion width = 0.45mm
; infill extrusion width = 0.45mm
; solid infill extrusion width = 0.45mm
; top infill extrusion width = 0.40mm
; first layer extrusion width = 0.42mm

; external perimeters extrusion width = 0.45mm
; perimeters extrusion width = 0.45mm
; infill extrusion width = 0.45mm
; solid infill extrusion width = 0.45mm
; top infill extrusion width = 0.40mm
; first layer extrusion width = 0.42mm

; external perimeters extrusion width = 0.45mm
; perimeters extrusion width = 0.45mm
; infill extrusion width = 0.45mm
; solid infill extrusion width = 0.45mm
; top infill extrusion width = 0.40mm
; first layer extrusion width = 0.42mm

; external perimeters extrusion width = 0.45mm
; perimeters extrusion width = 0.45mm
; infill extrusion width = 0.45mm
; solid infill extrusion width = 0.45mm
; top infill extrusion width = 0.40mm
; first layer extrusion width = 0.42mm

M73 P0 R231
M73 Q0 S232
M201 X1000 Y1000 Z200 E8000 ; sets maximum accelerations, mm/sec^2
M203 X200 Y200 Z12 E120 ; sets maximum feedrates, mm/sec
M204 P1250 R1250 T1250 ; sets acceleration (P, T) and retract acceleration (R), mm/sec^2
M205 X8.00 Y8.00 Z0.40 E4.50 ; sets the jerk limits, mm/sec
M205 S0 T0 ; sets the minimum extruding and travel feed rate, mm/sec
M107
;TYPE:Custom
M862.3 P "MK3SMMU2S" ; printer model check
M862.1 P0.4 ; nozzle diameter check
M115 U3.10.0 ; tell printer latest fw version
G90 ; use absolute coordinates
M83 ; extruder relative mode
M104 S215 ; set extruder temp
M140 S60 ; set bed temp
M190 S60 ; wait for bed temp
M109 S215 ; wait for extruder temp
G28 W ; home all without mesh bed level
G80 ; mesh bed leveling

; Send the filament type to the MMU2.0 unit.
; E stands for extruder number, F stands for filament type (0: default; 1:flex; 2: PVA)
M403 E0 F0
M403 E1 F0
M403 E2 F0
M403 E3 F0
M403 E4 F0


;go outside print area
G1 Y-3.0 F1000.0
M73 P0 R230
M73 Q0 S231
G1 Z0.4 F1000.0
; select extruder
T1
; initial load
G1 X55.0 E29.0 F1073.0
G1 X5.0 E29.0 F1800.0
G1 X55.0 E8.0 F2000.0
G1 Z0.3 F1000.0
G92 E0.0
G1 X240.0 E25.0 F2200.0
G1 Y-2.0 F1000.0
G1 X55.0 E25 F1400.0
G1 Z0.20 F1000.0
G1 X5.0 E4.0 F1000.0
G92 E0.0


M221 S95
G92 E0.0

; Don't change E values below. Excessive value can damage the printer.

M907 E538 ; set extruder motor current
G21 ; set units to millimeters
G90 ; use absolute coordinates
M83 ; use relative distances for extrusion
T1
M900 K0.05 ; Filament gcode LA 1.5
M900 K30 ; Filament gcode LA 1.0
G1 Z0.200 F10800.000
;LAYER_CHANGE
;Z:0.2
;HEIGHT:0.2
;BEFORE_LAYER_CHANGE
G92 E0.0
;0.2


G1 E-0.80000 F2100.000
G1 Z0.600 F10800.000
G1 Z0.200
;AFTER_LAYER_CHANGE
;0.2
G1 E-1.20000 F2100.000
G1 Z0.600 F10800.000
G1 X224.615 Y37.413
G1 Z0.200
G1 E2.00000 F2100.000
;HEIGHT:0.200000
;TYPE:Wipe tower
;WIDTH:0.500000
;-------------------------------------
; CP WIPE TOWER FIRST LAYER BRIM START
G1  X224.615 Y102.473  E3.7090 F2400
G1  X222.072 Y102.930   F7000
G1  Y36.956  E2.7582 F2100
G1  X161.158  E2.5466
G1  Y102.930  E2.7582
G1  X222.072  E2.5466
G1  X222.529 Y103.387   F7000
G1  Y36.499  E2.7964 F2100
G1  X160.701  E2.5849
G1  Y103.387  E2.7964
G1  X222.529  E2.5849
G1  X222.986 Y103.844   F7000
G1  Y36.042  E2.8346 F2100
G1  X160.244  E2.6231
G1  Y103.844  E2.8346
G1  X222.986  E2.6231
G1  X223.443 Y104.301   F7000
G1  Y35.585  E2.8728 F2100
G1  X159.787  E2.6613
G1  Y104.301  E2.8728
M73 P0 R229
G1  X223.443  E2.6613
; CP WIPE TOWER FIRST LAYER BRIM END
;-----------------------------------

;WIPE_START
M73 Q0 S230
G1 F8640.000
G1 X222.987 Y103.844 E-0.14926
G1 X220.341 Y103.844 E-0.61074
;WIPE_END
G1 E-0.04000 F2100.000
G1 Z0.600 F10800.000
G1 X225.398 Y34.871
G1 Z0.200
G1 E0.80000 F2100.000
M204 S1000
;TYPE:Skirt
;WIDTH:0.42
;HEIGHT:0.2
G1 F1200.000
G1 X225.592 Y35.766 E0.02872
G1 X225.592 Y104.107 E2.14277
G1 X225.518 Y104.661 E0.01752
G1 X225.319 Y105.178 E0.01740
G1 X225.005 Y105.636 E0.01740
G1 X224.591 Y106.011 E0.01752
G1 X224.037 Y106.303 E0.01965
G1 X223.425 Y106.440 E0.01965
G1 X138.874 Y113.645 E2.66065
G1 X113.646 Y113.648 E0.79103
G1 X113.108 Y113.566 E0.01704
G1 X112.604 Y113.364 E0.01704
G1 X112.158 Y113.053 E0.01704
G1 X111.795 Y112.648 E0.01704
G1 X111.469 Y111.997 E0.02284
G1 X111.356 Y111.281 E0.02272
G1 X111.356 Y86.242 E0.78509
G1 X111.445 Y85.629 E0.01941
G1 X111.690 Y85.057 E0.01953
G1 X158.264 Y34.206 E2.16205
G1 X158.637 Y33.876 E0.01562
G1 X159.285 Y33.551 E0.02272
G1 X160.000 Y33.436 E0.02272
G1 X223.219 Y33.436 E1.98218
G1 X224.117 Y33.614 E0.02872
G1 X224.879 Y34.116 E0.02860
G1 X225.364 Y34.821 E0.02684
; printing object body1103920 id:0 copy 0
;WIPE_START
G1 F8640.000
G1 X225.592 Y35.766 E-0.22440
G1 X225.592 Y38.086 E-0.53560
;WIPE_END
G1 E-0.04000 F2100.000
G1 Z0.600 F10800.000
G1 X128.793 Y103.042
G1 Z0.200
G1 E0.80000 F2100.000
;TYPE:Perimeter
G1 F1200.000
G1 X129.048 Y103.500 E0.01643
G1 X129.223 Y103.994 E0.01643
G1 X129.311 Y104.510 E0.01643
G1 X129.311 Y105.034 E0.01643
G1 X129.223 Y105.551 E0.01643
G1 X129.048 Y106.045 E0.01643
G1 X128.793 Y106.502 E0.01643
G1 X128.463 Y106.910 E0.01643
G1 X128.070 Y107.256 E0.01643
G1 X127.624 Y107.531 E0.01643
G1 X127.138 Y107.726 E0.01643
G1 X126.626 Y107.836 E0.01643
G1 X126.102 Y107.859 E0.01643
G1 X125.582 Y107.792 E0.01643
G1 X125.081 Y107.639 E0.01643
G1 X124.613 Y107.403 E0.01643
G1 X124.192 Y107.091 E0.01643
G1 X123.830 Y106.713 E0.01643
G1 X123.536 Y106.279 E0.01643
G1 X123.320 Y105.801 E0.01643
G1 X123.188 Y105.294 E0.01643
G1 X123.144 Y104.772 E0.01643
G1 X123.188 Y104.250 E0.01643
G1 X123.316 Y103.761 E0.01584
G1 X123.535 Y103.267 E0.01695
G1 X123.830 Y102.831 E0.01649
G1 X124.192 Y102.453 E0.01643
G1 X124.613 Y102.142 E0.01643
G1 X125.081 Y101.906 E0.01643
G1 X125.582 Y101.752 E0.01643
G1 X126.083 Y101.688 E0.01584
G1 X126.624 Y101.708 E0.01695
G1 X127.138 Y101.818 E0.01649
G1 X127.624 Y102.014 E0.01643
G1 X128.070 Y102.288 E0.01643
G1 X128.463 Y102.635 E0.01643
G1 X128.755 Y102.996 E0.01455
G1 X128.462 Y103.233 F10800.000
;TYPE:External perimeter
G1 F1200.000
G1 X128.703 Y103.656 E0.01528
G1 X128.856 Y104.089 E0.01442
G1 X128.934 Y104.542 E0.01442
G1 X128.934 Y105.002 E0.01442
G1 X128.856 Y105.455 E0.01442
G1 X128.703 Y105.889 E0.01442
G1 X128.479 Y106.290 E0.01442
G1 X128.190 Y106.648 E0.01442
G1 X127.845 Y106.952 E0.01442
G1 X127.454 Y107.193 E0.01442
G1 X127.027 Y107.364 E0.01442
G1 X126.577 Y107.461 E0.01442
G1 X126.118 Y107.480 E0.01442
G1 X125.662 Y107.422 E0.01442
G1 X125.222 Y107.287 E0.01442
G1 X124.812 Y107.080 E0.01442
G1 X124.442 Y106.807 E0.01442
G1 X124.124 Y106.475 E0.01442
G1 X123.867 Y106.094 E0.01442
G1 X123.677 Y105.675 E0.01442
G1 X123.561 Y105.230 E0.01442
G1 X123.522 Y104.772 E0.01442
G1 X123.561 Y104.314 E0.01442
G1 X123.673 Y103.886 E0.01386
G1 X123.866 Y103.451 E0.01494
G1 X124.124 Y103.069 E0.01444
G1 X124.442 Y102.737 E0.01442
G1 X124.812 Y102.464 E0.01442
G1 X125.222 Y102.257 E0.01442
G1 X125.662 Y102.122 E0.01442
G1 X126.101 Y102.066 E0.01386
G1 X126.577 Y102.083 E0.01494
G1 X127.027 Y102.180 E0.01444
G1 X127.454 Y102.352 E0.01442
G1 X127.845 Y102.593 E0.01442
G1 X128.190 Y102.896 E0.01442
G1 X128.424 Y103.186 E0.01166
G1 X128.860 Y103.201 F10800.000
;WIPE_START
G1 F8640.000
G1 X128.703 Y103.656 E-0.12622
G1 X128.856 Y104.089 E-0.10616
G1 X128.934 Y104.542 E-0.10616
G1 X128.934 Y105.002 E-0.10616
G1 X128.856 Y105.455 E-0.10617
G1 X128.703 Y105.889 E-0.10616
G1 X128.486 Y106.278 E-0.10296
;WIPE_END
G1 E-0.04000 F2100.000
G1 Z0.600 F10800.000
G1 X126.627 Y95.836
G1 Z0.200
G1 E0.80000 F2100.000
;TYPE:Perimeter
G1 F1200.000
G1 X126.102 Y95.859 E0.01649
G1 X125.582 Y95.792 E0.01643
G1 X125.081 Y95.639 E0.01643
G1 X124.613 Y95.403 E0.01643
G1 X124.192 Y95.091 E0.01643
G1 X123.830 Y94.713 E0.01643
G1 X123.536 Y94.279 E0.01643
G1 X123.320 Y93.801 E0.01643
G1 X123.188 Y93.294 E0.01643
G1 X123.144 Y92.772 E0.01643
G1 X123.188 Y92.250 E0.01643
G1 X123.320 Y91.743 E0.01643
G1 X123.536 Y91.266 E0.01643
G1 X123.830 Y90.831 E0.01643
G1 X124.192 Y90.453 E0.01643
G1 X124.613 Y90.142 E0.01643
G1 X125.081 Y89.906 E0.01643
G1 X125.582 Y89.752 E0.01643
G1 X126.083 Y89.688 E0.01584
G1 X126.624 Y89.708 E0.01695
G1 X127.138 Y89.818 E0.01649
G1 X127.624 Y90.014 E0.01643
G1 X128.070 Y90.288 E0.01643
G1 X128.463 Y90.635 E0.01643
G1 X128.793 Y91.042 E0.01643
G1 X129.048 Y91.500 E0.01643
G1 X129.216 Y91.976 E0.01584
G1 X129.311 Y92.508 E0.01695
G1 X129.311 Y93.034 E0.01649
G1 X129.223 Y93.551 E0.01643
G1 X129.048 Y94.045 E0.01643
G1 X128.793 Y94.502 E0.01643
G1 X128.463 Y94.910 E0.01643
G1 X128.070 Y95.256 E0.01643
G1 X127.624 Y95.531 E0.01643
G1 X127.155 Y95.719 E0.01584
G1 X126.686 Y95.823 E0.01507
G1 X126.604 Y95.455 F10800.000
;TYPE:External perimeter
G1 F1200.000
G1 X126.118 Y95.480 E0.01526
G1 X125.662 Y95.422 E0.01442
G1 X125.222 Y95.287 E0.01442
G1 X124.812 Y95.080 E0.01442
G1 X124.442 Y94.807 E0.01442
G1 X124.124 Y94.475 E0.01442
G1 X123.867 Y94.094 E0.01442
G1 X123.677 Y93.675 E0.01442
G1 X123.561 Y93.230 E0.01442
G1 X123.522 Y92.772 E0.01442
G1 X123.561 Y92.314 E0.01442
G1 X123.677 Y91.869 E0.01442
G1 X123.867 Y91.450 E0.01442
G1 X124.124 Y91.069 E0.01442
G1 X124.442 Y90.737 E0.01442
G1 X124.812 Y90.464 E0.01442
G1 X125.222 Y90.257 E0.01442
G1 X125.662 Y90.122 E0.01442
G1 X126.101 Y90.066 E0.01386
G1 X126.577 Y90.083 E0.01494
G1 X127.027 Y90.180 E0.01444
G1 X127.454 Y90.352 E0.01442
G1 X127.845 Y90.593 E0.01442
G1 X128.190 Y90.897 E0.01442
G1 X128.479 Y91.254 E0.01442
G1 X128.703 Y91.656 E0.01442
G1 X128.851 Y92.072 E0.01386
G1 X128.934 Y92.542 E0.01494
G1 X128.934 Y93.002 E0.01444
G1 X128.856 Y93.455 E0.01442
G1 X128.703 Y93.889 E0.01442
G1 X128.479 Y94.290 E0.01442
G1 X128.190 Y94.648 E0.01442
G1 X127.845 Y94.952 E0.01442
G1 X127.454 Y95.193 E0.01442
G1 X127.043 Y95.358 E0.01386
G1 X126.663 Y95.442 E0.01222
G1 X126.453 Y95.825 F10800.000
;WIPE_START
G1 F8640.000
G1 X126.118 Y95.480 E-0.12607
G1 X125.662 Y95.422 E-0.10616
G1 X125.222 Y95.287 E-0.10616
G1 X124.812 Y95.080 E-0.10616
G1 X124.442 Y94.807 E-0.10616
G1 X124.124 Y94.475 E-0.10616
G1 X123.874 Y94.105 E-0.10311
;WIPE_END
G1 E-0.04000 F2100.000
G1 Z0.600 F10800.000
G1 X137.946 Y87.059
G1 Z0.200
G1 E0.80000 F2100.000
;TYPE:Perimeter
G1 F1200.000
G1 X137.946 Y110.485 E0.73450
G1 X114.520 Y110.485 E0.73450
G1 X114.520 Y87.059 E0.73450
G1 X137.886 Y87.059 E0.73262
G1 X138.323 Y86.682 F10800.000
;TYPE:External perimeter
G1 F1200.000
G1 X138.323 Y110.862 E0.75815
G1 X114.143 Y110.862 E0.75815
G1 X114.143 Y86.682 E0.75815
G1 X138.263 Y86.682 E0.75627
G1 X138.220 Y87.069 F10800.000
;WIPE_START
G1 F8640.000
G1 X138.271 Y89.974 E-0.76000
;WIPE_END
G1 E-0.04000 F2100.000
G1 Z0.600 F10800.000
G1 X137.069 Y87.172
G1 Z0.200
G1 E0.80000 F2100.000
;TYPE:Solid infill
;WIDTH:0.42065
G1 F1200.000
G1 X137.663 Y87.766 E0.02638
G1 X137.663 Y88.301 E0.01678
G1 X136.705 Y87.342 E0.04257
G1 X136.171 Y87.342 E0.01678
G1 X137.663 Y88.835 E0.06630
G1 X137.663 Y89.369 E0.01678
G1 X135.636 Y87.342 E0.09003
G1 X135.102 Y87.342 E0.01678
G1 X137.663 Y89.903 E0.11376
G1 X137.663 Y90.437 E0.01678
G1 X134.568 Y87.342 E0.13748
G1 X134.034 Y87.342 E0.01678
G1 X137.663 Y90.971 E0.16121
G1 X137.663 Y91.506 E0.01678
G1 X133.500 Y87.342 E0.18494
G1 X132.965 Y87.342 E0.01678
G1 X137.663 Y92.040 E0.20867
G1 X137.663 Y92.574 E0.01678
G1 X132.431 Y87.342 E0.23240
G1 X131.897 Y87.342 E0.01678
G1 X137.663 Y93.108 E0.25612
G1 X137.663 Y93.642 E0.01678
G1 X131.363 Y87.342 E0.27985
G1 X130.829 Y87.342 E0.01678
G1 X137.663 Y94.177 E0.30358
G1 X137.663 Y94.711 E0.01678
G1 X130.295 Y87.342 E0.32731
G1 X129.760 Y87.342 E0.01678
G1 X137.663 Y95.245 E0.35103
G1 X137.663 Y95.779 E0.01678
G1 X129.226 Y87.342 E0.37476
G1 X128.692 Y87.342 E0.01678
G1 X137.663 Y96.313 E0.39849
G1 X137.663 Y96.848 E0.01678
G1 X128.158 Y87.342 E0.42222
G1 X127.624 Y87.342 E0.01678
G1 X137.663 Y97.382 E0.44595
G1 X137.663 Y97.916 E0.01678
G1 X127.089 Y87.342 E0.46967
G1 X126.555 Y87.342 E0.01678
G1 X137.663 Y98.450 E0.49340
G1 X137.663 Y98.984 E0.01678
G1 X126.021 Y87.342 E0.51713
G1 X125.487 Y87.342 E0.01678
G1 X137.663 Y99.519 E0.54086
G1 X137.663 Y100.053 E0.01678
G1 X129.478 Y91.867 E0.36358
G1 X129.594 Y92.518 E0.02075
G1 X137.663 Y100.587 E0.35842
G1 X137.663 Y101.121 E0.01678
G1 X129.594 Y93.052 E0.35842
G1 X129.517 Y93.509 E0.01456
G1 X137.663 Y101.655 E0.36185
G1 X137.663 Y102.189 E0.01678
G1 X129.393 Y93.919 E0.36737
G1 X129.307 Y94.162 E0.00809
G1 X129.233 Y94.293 E0.00475
G1 X137.663 Y102.724 E0.37445
G1 X137.663 Y103.258 E0.01678
G1 X129.042 Y94.636 E0.38296
G1 X128.806 Y94.935 E0.01195
G1 X137.663 Y103.792 E0.39341
G1 X137.663 Y104.326 E0.01678
G1 X128.549 Y95.212 E0.40486
G1 X128.264 Y95.462 E0.01189
G1 X137.663 Y104.860 E0.41748
G1 X137.663 Y105.395 E0.01678
G1 X127.938 Y95.669 E0.43198
G1 X127.752 Y95.784 E0.00687
G1 X127.585 Y95.851 E0.00563
G1 X137.663 Y105.929 E0.44764
G1 X137.663 Y106.463 E0.01678
G1 X127.199 Y95.999 E0.46480
G1 X126.762 Y96.096 E0.01406
G1 X137.663 Y106.997 E0.48421
G1 X137.663 Y107.531 E0.01678
G1 X126.267 Y96.135 E0.50622
G1 X126.090 Y96.142 E0.00555
G1 X125.688 Y96.091 E0.01272
G1 X137.833 Y108.235 E0.53944
;WIPE_START
G1 F8640.000
G1 X135.506 Y105.908 E-0.76000
;WIPE_END
G1 E-0.04000 F2100.000
G1 Z0.600 F10800.000
G1 X124.783 Y87.172
G1 Z0.200
G1 E0.80000 F2100.000
G1 F1200.000
G1 X127.140 Y89.530 E0.10470
M73 P0 R228
G1 X126.659 Y89.426 E0.01547
G1 X126.496 Y89.420 E0.00510
G1 X124.418 Y87.342 E0.09230
G1 X123.884 Y87.342 E0.01678
G1 X125.961 Y89.419 E0.09224
G1 X125.492 Y89.484 E0.01487
G1 X123.350 Y87.342 E0.09515
G1 X122.816 Y87.342 E0.01678
G1 X125.083 Y89.609 E0.10071
G1 X124.976 Y89.642 E0.00354
G1 X124.714 Y89.774 E0.00920
G1 X122.282 Y87.342 E0.10804
G1 X121.747 Y87.342 E0.01678
G1 X124.373 Y89.968 E0.11663
G1 X124.066 Y90.195 E0.01200
G1 X121.213 Y87.342 E0.12671
G1 X120.679 Y87.342 E0.01678
G1 X123.795 Y90.458 E0.13842
G1 X123.609 Y90.653 E0.00847
G1 X123.547 Y90.744 E0.00346
G1 X120.145 Y87.342 E0.15112
G1 X119.611 Y87.342 E0.01678
G1 X123.332 Y91.063 E0.16528
M73 Q0 S229
G1 X123.156 Y91.421 E0.01253
G1 X119.077 Y87.342 E0.18118
G1 X118.542 Y87.342 E0.01678
G1 X123.011 Y91.810 E0.19848
G1 X122.905 Y92.239 E0.01387
G1 X118.008 Y87.342 E0.21753
M73 P1 R228
M73 Q1 S229
G1 X117.474 Y87.342 E0.01678
G1 X122.864 Y92.732 E0.23940
G1 X122.906 Y93.308 E0.01815
G1 X116.940 Y87.342 E0.26500
G1 X116.406 Y87.342 E0.01678
G1 X123.130 Y94.066 E0.29868
G1 X123.288 Y94.417 E0.01209
G1 X123.609 Y94.891 E0.01797
G1 X124.005 Y95.304 E0.01797
G1 X124.465 Y95.644 E0.01797
G1 X124.955 Y95.892 E0.01726
G1 X137.663 Y108.600 E0.56447
G1 X137.663 Y109.134 E0.01678
G1 X115.871 Y87.342 E0.96796
G1 X115.337 Y87.342 E0.01678
G1 X137.663 Y109.668 E0.99168
G1 X137.663 Y110.202 E0.01678
G1 X114.803 Y87.342 E1.01541
G1 X114.803 Y87.876 E0.01678
G1 X137.129 Y110.202 E0.99168
G1 X136.595 Y110.202 E0.01678
G1 X114.803 Y88.410 E0.96795
G1 X114.803 Y88.945 E0.01678
G1 X127.529 Y101.671 E0.56528
G1 X127.752 Y101.760 E0.00753
G1 X128.239 Y102.060 E0.01797
G1 X128.668 Y102.438 E0.01797
G1 X129.028 Y102.883 E0.01797
G1 X129.307 Y103.383 E0.01797
G1 X129.343 Y103.484 E0.00338
G1 X136.061 Y110.202 E0.29840
G1 X135.526 Y110.202 E0.01678
G1 X129.549 Y104.225 E0.26550
G1 X129.594 Y104.486 E0.00832
G1 X129.594 Y104.804 E0.00999
G1 X134.992 Y110.202 E0.23978
G1 X134.458 Y110.202 E0.01678
G1 X129.553 Y105.297 E0.21787
G1 X129.497 Y105.622 E0.01035
G1 X129.457 Y105.736 E0.00378
G1 X133.924 Y110.202 E0.19840
G1 X133.390 Y110.202 E0.01678
G1 X129.318 Y106.130 E0.18087
G1 X129.130 Y106.477 E0.01238
