; generated by PrusaSlicer 2.3.3+win64 on 2022-02-07 at 12:02:23 UTC

; 

; external perimeters extrusion width = 0.60mm
; perimeters extrusion width = 0.50mm
; infill extrusion width = 0.50mm
; solid infill extrusion width = 0.50mm
; top infill extrusion width = 0.45mm
; first layer extrusion width = 0.42mm

; external perimeters extrusion width = 0.60mm
; perimeters extrusion width = 0.50mm
; infill extrusion width = 0.50mm
; solid infill extrusion width = 0.50mm
; top infill extrusion width = 0.45mm
; first layer extrusion width = 0.42mm

; external perimeters extrusion width = 0.45mm
; perimeters extrusion width = 0.45mm
; infill extrusion width = 0.45mm
; solid infill extrusion width = 0.45mm
; top infill extrusion width = 0.40mm
; first layer extrusion width = 0.42mm

; external perimeters extrusion width = 0.45mm
; perimeters extrusion width = 0.45mm
; infill extrusion width = 0.45mm
; solid infill extrusion width = 0.45mm
; top infill extrusion width = 0.40mm
; first layer extrusion width = 0.42mm

; external perimeters extrusion width = 0.45mm
; perimeters extrusion width = 0.45mm
; infill extrusion width = 0.45mm
; solid infill extrusion width = 0.45mm
; top infill extrusion width = 0.40mm
; first layer extrusion width = 0.42mm

; external perimeters extrusion width = 0.45mm
; perimeters extrusion width = 0.45mm
; infill extrusion width = 0.45mm
; solid infill extrusion width = 0.45mm
; top infill extrusion width = 0.40mm
; first layer extrusion width = 0.42mm

M73 P0 R237
M73 Q0 S238
M201 X1000 Y1000 Z200 E8000 ; sets maximum accelerations, mm/sec^2
M203 X200 Y200 Z12 E120 ; sets maximum feedrates, mm/sec
M204 P1250 R1250 T1250 ; sets acceleration (P, T) and retract acceleration (R), mm/sec^2
M205 X8.00 Y8.00 Z0.40 E4.50 ; sets the jerk limits, mm/sec
M205 S0 T0 ; sets the minimum extruding and travel feed rate, mm/sec
M107
;TYPE:Custom
M862.3 P "MK3SMMU2S" ; printer model check
M862.1 P0.4 ; nozzle diameter check
M115 U3.10.0 ; tell printer latest fw version
G90 ; use absolute coordinates
M83 ; extruder relative mode
M104 S215 ; set extruder temp
M140 S60 ; set bed temp
M190 S60 ; wait for bed temp
M109 S215 ; wait for extruder temp
G28 W ; home all without mesh bed level
G80 ; mesh bed leveling

; Send the filament type to the MMU2.0 unit.
; E stands for extruder number, F stands for filament type (0: default; 1:flex; 2: PVA)
M403 E0 F0
M403 E1 F0
M403 E2 F0
M403 E3 F0
M403 E4 F0


;go outside print area
G1 Y-3.0 F1000.0
G1 Z0.4 F1000.0
; select extruder
T1
; initial load
G1 X55.0 E29.0 F1073.0
G1 X5.0 E29.0 F1800.0
G1 X55.0 E8.0 F2000.0
G1 Z0.3 F1000.0
G92 E0.0
G1 X240.0 E25.0 F2200.0
G1 Y-2.0 F1000.0
G1 X55.0 E25 F1400.0
G1 Z0.20 F1000.0
G1 X5.0 E4.0 F1000.0
G92 E0.0


M221 S95
G92 E0.0

; Don't change E values below. Excessive value can damage the printer.

M907 E538 ; set extruder motor current
G21 ; set units to millimeters
G90 ; use absolute coordinates
M83 ; use relative distances for extrusion
T1
M900 K0.05 ; Filament gcode LA 1.5
M900 K30 ; Filament gcode LA 1.0
G1 Z0.200 F10800.000
;LAYER_CHANGE
;Z:0.2
;HEIGHT:0.2
;BEFORE_LAYER_CHANGE
G92 E0.0
;0.2


G1 E-0.80000 F2100.000
G1 Z0.600 F10800.000
G1 Z0.200
;AFTER_LAYER_CHANGE
;0.2
G1 E-1.20000 F2100.000
G1 Z0.600 F10800.000
G1 X217.134 Y65.439
G1 Z0.200
G1 E2.00000 F2100.000
;HEIGHT:0.200000
;TYPE:Wipe tower
;WIDTH:0.500000
;-------------------------------------
; CP WIPE TOWER FIRST LAYER BRIM START
G1  X217.134 Y130.499  E3.7090 F2400
M73 Q0 S237
G1  X214.591 Y130.956   F7000
G1  Y64.982  E2.7582 F2100
G1  X153.677  E2.5466
G1  Y130.956  E2.7582
G1  X214.591  E2.5466
G1  X215.048 Y131.413   F7000
G1  Y64.525  E2.7964 F2100
M73 P0 R236
G1  X153.220  E2.5849
G1  Y131.413  E2.7964
G1  X215.048  E2.5849
G1  X215.505 Y131.870   F7000
G1  Y64.068  E2.8346 F2100
G1  X152.763  E2.6231
G1  Y131.870  E2.8346
G1  X215.505  E2.6231
G1  X215.962 Y132.327   F7000
G1  Y63.611  E2.8728 F2100
G1  X152.306  E2.6613
G1  Y132.327  E2.8728
G1  X215.962  E2.6613
; CP WIPE TOWER FIRST LAYER BRIM END
;-----------------------------------

;WIPE_START
G1 F8640.000
G1 X215.505 Y131.870 E-0.14926
G1 X212.860 Y131.870 E-0.61074
;WIPE_END
G1 E-0.04000 F2100.000
G1 Z0.600 F10800.000
G1 X216.639 Y61.641
G1 Z0.200
G1 E0.80000 F2100.000
M204 S1000
;TYPE:Skirt
;WIDTH:0.42
;HEIGHT:0.2
G1 F1200.000
G1 X217.403 Y62.147 E0.02872
G1 X217.919 Y62.904 E0.02872
G1 X218.110 Y63.800 E0.02872
G1 X218.110 Y132.140 E2.14277
G1 X218.016 Y132.760 E0.01965
G1 X217.764 Y133.334 E0.01965
G1 X217.374 Y133.819 E0.01953
G1 X216.867 Y134.188 E0.01965
G1 X216.322 Y134.401 E0.01835
G1 X215.742 Y134.476 E0.01835
G1 X152.192 Y134.451 E1.99256
G1 X111.657 Y119.723 E1.35224
G1 X110.936 Y119.290 E0.02637
G1 X110.410 Y118.633 E0.02637
G1 X110.199 Y118.096 E0.01811
G1 X110.123 Y117.527 E0.01799
G1 X110.123 Y92.485 E0.78518
G1 X110.240 Y91.762 E0.02296
G1 X110.572 Y91.109 E0.02296
G1 X111.112 Y90.571 E0.02390
G1 X151.398 Y61.751 E1.55311
G1 X151.943 Y61.536 E0.01835
G1 X152.523 Y61.462 E0.01835
G1 X215.737 Y61.462 E1.98203
G1 X216.580 Y61.630 E0.02696
; printing object body1103920 id:0 copy 0
;WIPE_START
G1 F8640.000
G1 X217.403 Y62.147 E-0.22439
G1 X217.919 Y62.904 E-0.21151
G1 X218.110 Y63.800 E-0.21151
G1 X218.110 Y64.287 E-0.11259
;WIPE_END
G1 E-0.04000 F2100.000
G1 Z0.600 F10800.000
G1 X127.697 Y103.493
G1 Z0.200
G1 E0.80000 F2100.000
;TYPE:Perimeter
G1 F1200.000
G1 X127.913 Y103.971 E0.01643
G1 X128.045 Y104.478 E0.01643
G1 X128.089 Y105.000 E0.01643
G1 X128.045 Y105.522 E0.01643
G1 X127.913 Y106.029 E0.01643
G1 X127.697 Y106.507 E0.01643
G1 X127.404 Y106.941 E0.01643
G1 X127.041 Y107.319 E0.01643
G1 X126.620 Y107.631 E0.01643
G1 X126.152 Y107.866 E0.01643
G1 X125.651 Y108.020 E0.01643
G1 X125.131 Y108.086 E0.01643
G1 X124.608 Y108.064 E0.01643
G1 X124.095 Y107.954 E0.01643
G1 X123.609 Y107.758 E0.01643
G1 X123.163 Y107.484 E0.01643
G1 X122.770 Y107.138 E0.01643
G1 X122.441 Y106.730 E0.01643
G1 X122.185 Y106.272 E0.01643
G1 X122.010 Y105.778 E0.01645
G1 X121.922 Y105.253 E0.01670
G1 X121.922 Y104.738 E0.01614
G1 X122.010 Y104.222 E0.01642
G1 X122.185 Y103.728 E0.01643
G1 X122.441 Y103.270 E0.01643
G1 X122.770 Y102.862 E0.01643
G1 X123.163 Y102.516 E0.01643
G1 X123.609 Y102.242 E0.01643
G1 X124.095 Y102.046 E0.01643
G1 X124.608 Y101.936 E0.01643
G1 X125.112 Y101.914 E0.01584
G1 X125.649 Y101.980 E0.01695
G1 X126.152 Y102.134 E0.01649
G1 X126.620 Y102.369 E0.01643
G1 X127.041 Y102.681 E0.01643
G1 X127.404 Y103.059 E0.01643
G1 X127.663 Y103.444 E0.01455
G1 X127.351 Y103.655 F10800.000
;TYPE:External perimeter
G1 F1200.000
G1 X127.556 Y104.097 E0.01528
G1 X127.672 Y104.542 E0.01442
G1 X127.711 Y105.000 E0.01442
G1 X127.672 Y105.458 E0.01442
G1 X127.556 Y105.903 E0.01442
G1 X127.367 Y106.322 E0.01442
G1 X127.109 Y106.703 E0.01442
G1 X126.791 Y107.035 E0.01442
G1 X126.421 Y107.308 E0.01442
G1 X126.011 Y107.515 E0.01442
G1 X125.571 Y107.650 E0.01442
G1 X125.115 Y107.708 E0.01442
G1 X124.656 Y107.689 E0.01442
G1 X124.206 Y107.592 E0.01442
G1 X123.780 Y107.421 E0.01442
G1 X123.388 Y107.179 E0.01442
G1 X123.043 Y106.876 E0.01442
G1 X122.754 Y106.518 E0.01442
G1 X122.530 Y106.117 E0.01442
G1 X122.377 Y105.683 E0.01442
G1 X122.299 Y105.221 E0.01468
G1 X122.299 Y104.770 E0.01414
G1 X122.377 Y104.317 E0.01441
G1 X122.530 Y103.883 E0.01442
G1 X122.754 Y103.482 E0.01442
G1 X123.043 Y103.124 E0.01442
G1 X123.388 Y102.821 E0.01442
G1 X123.780 Y102.579 E0.01442
G1 X124.206 Y102.408 E0.01442
G1 X124.656 Y102.311 E0.01442
G1 X125.097 Y102.292 E0.01386
G1 X125.570 Y102.350 E0.01494
G1 X126.011 Y102.485 E0.01444
G1 X126.421 Y102.692 E0.01442
G1 X126.791 Y102.965 E0.01442
G1 X127.109 Y103.297 E0.01442
G1 X127.317 Y103.605 E0.01166
G1 X127.751 Y103.658 F10800.000
;WIPE_START
G1 F8640.000
G1 X127.556 Y104.097 E-0.12622
G1 X127.672 Y104.542 E-0.10616
G1 X127.711 Y105.000 E-0.10616
G1 X127.672 Y105.458 E-0.10616
G1 X127.556 Y105.903 E-0.10616
G1 X127.367 Y106.322 E-0.10616
G1 X127.117 Y106.691 E-0.10296
;WIPE_END
G1 E-0.04000 F2100.000
G1 Z0.600 F10800.000
G1 X120.197 Y99.007
G1 Z0.200
G1 E0.80000 F2100.000
;TYPE:Perimeter
G1 F1200.000
G1 X119.904 Y99.441 E0.01643
G1 X119.541 Y99.819 E0.01643
G1 X119.120 Y100.131 E0.01643
G1 X118.652 Y100.366 E0.01643
G1 X118.151 Y100.520 E0.01643
G1 X117.631 Y100.586 E0.01643
G1 X117.108 Y100.564 E0.01643
G1 X116.595 Y100.454 E0.01643
G1 X116.109 Y100.258 E0.01643
G1 X115.663 Y99.984 E0.01643
G1 X115.284 Y99.650 E0.01584
G1 X114.942 Y99.232 E0.01695
G1 X114.685 Y98.772 E0.01649
G1 X114.510 Y98.278 E0.01643
G1 X114.422 Y97.762 E0.01643
G1 X114.422 Y97.238 E0.01643
G1 X114.510 Y96.722 E0.01643
G1 X114.685 Y96.228 E0.01643
G1 X114.941 Y95.770 E0.01643
G1 X115.270 Y95.362 E0.01643
G1 X115.663 Y95.016 E0.01643
G1 X116.109 Y94.742 E0.01643
G1 X116.597 Y94.546 E0.01647
G1 X117.122 Y94.435 E0.01682
G1 X117.630 Y94.413 E0.01594
G1 X118.151 Y94.480 E0.01648
G1 X118.652 Y94.634 E0.01643
G1 X119.120 Y94.869 E0.01643
G1 X119.541 Y95.181 E0.01643
G1 X119.904 Y95.559 E0.01643
G1 X120.197 Y95.993 E0.01643
G1 X120.413 Y96.471 E0.01643
G1 X120.545 Y96.978 E0.01643
G1 X120.589 Y97.500 E0.01643
G1 X120.545 Y98.022 E0.01643
G1 X120.413 Y98.529 E0.01643
G1 X120.222 Y98.952 E0.01455
G1 X119.878 Y98.797 F10800.000
;TYPE:External perimeter
G1 F1200.000
G1 X119.609 Y99.203 E0.01528
G1 X119.291 Y99.535 E0.01442
G1 X118.921 Y99.808 E0.01442
G1 X118.511 Y100.015 E0.01442
G1 X118.071 Y100.150 E0.01442
G1 X117.615 Y100.208 E0.01442
G1 X117.156 Y100.189 E0.01442
G1 X116.706 Y100.092 E0.01442
G1 X116.280 Y99.921 E0.01442
G1 X115.888 Y99.679 E0.01442
G1 X115.556 Y99.387 E0.01386
G1 X115.254 Y99.019 E0.01494
G1 X115.030 Y98.617 E0.01444
G1 X114.877 Y98.183 E0.01442
G1 X114.799 Y97.730 E0.01442
G1 X114.799 Y97.270 E0.01442
G1 X114.877 Y96.817 E0.01442
G1 X115.030 Y96.383 E0.01442
G1 X115.254 Y95.982 E0.01442
G1 X115.543 Y95.624 E0.01442
G1 X115.888 Y95.321 E0.01442
G1 X116.280 Y95.079 E0.01442
G1 X116.707 Y94.908 E0.01443
G1 X117.169 Y94.810 E0.01481
G1 X117.613 Y94.791 E0.01395
G1 X118.071 Y94.850 E0.01447
G1 X118.511 Y94.985 E0.01442
G1 X118.921 Y95.192 E0.01442
G1 X119.291 Y95.465 E0.01442
G1 X119.609 Y95.797 E0.01442
G1 X119.867 Y96.178 E0.01442
G1 X120.056 Y96.597 E0.01442
G1 X120.172 Y97.042 E0.01442
G1 X120.211 Y97.500 E0.01442
G1 X120.172 Y97.958 E0.01442
G1 X120.056 Y98.403 E0.01442
G1 X119.903 Y98.742 E0.01166
G1 X120.085 Y99.139 F10800.000
;WIPE_START
G1 F8640.000
G1 X119.609 Y99.203 E-0.12622
G1 X119.291 Y99.535 E-0.10616
G1 X118.921 Y99.808 E-0.10616
G1 X118.511 Y100.015 E-0.10616
G1 X118.071 Y100.150 E-0.10616
G1 X117.615 Y100.208 E-0.10616
G1 X117.170 Y100.189 E-0.10297
;WIPE_END
G1 E-0.04000 F2100.000
G1 Z0.600 F10800.000
G1 X129.422 Y97.762
G1 Z0.200
G1 E0.80000 F2100.000
;TYPE:Perimeter
G1 F1200.000
G1 X129.422 Y97.238 E0.01643
G1 X129.510 Y96.722 E0.01643
G1 X129.685 Y96.228 E0.01643
G1 X129.941 Y95.770 E0.01643
G1 X130.270 Y95.362 E0.01643
G1 X130.663 Y95.016 E0.01643
G1 X131.109 Y94.742 E0.01643
G1 X131.597 Y94.546 E0.01647
G1 X132.122 Y94.435 E0.01682
G1 X132.630 Y94.413 E0.01594
G1 X133.151 Y94.480 E0.01648
G1 X133.652 Y94.634 E0.01643
G1 X134.120 Y94.869 E0.01643
G1 X134.541 Y95.181 E0.01643
G1 X134.904 Y95.559 E0.01643
G1 X135.197 Y95.993 E0.01643
G1 X135.413 Y96.471 E0.01643
G1 X135.545 Y96.978 E0.01643
G1 X135.589 Y97.500 E0.01643
G1 X135.545 Y98.022 E0.01643
G1 X135.413 Y98.529 E0.01643
G1 X135.197 Y99.007 E0.01643
G1 X134.904 Y99.441 E0.01643
G1 X134.541 Y99.819 E0.01643
G1 X134.120 Y100.131 E0.01643
G1 X133.652 Y100.366 E0.01643
G1 X133.151 Y100.520 E0.01643
G1 X132.631 Y100.586 E0.01643
G1 X132.108 Y100.564 E0.01643
G1 X131.595 Y100.454 E0.01643
G1 X131.109 Y100.258 E0.01643
G1 X130.663 Y99.984 E0.01643
G1 X130.284 Y99.650 E0.01584
G1 X129.942 Y99.232 E0.01695
G1 X129.685 Y98.772 E0.01649
G1 X129.510 Y98.278 E0.01643
G1 X129.432 Y97.821 E0.01455
G1 X129.804 Y97.757 F10800.000
;TYPE:External perimeter
G1 F1200.000
G1 X129.799 Y97.270 E0.01528
G1 X129.877 Y96.817 E0.01442
G1 X130.030 Y96.383 E0.01442
G1 X130.254 Y95.982 E0.01442
G1 X130.543 Y95.624 E0.01442
G1 X130.888 Y95.321 E0.01442
G1 X131.280 Y95.079 E0.01442
G1 X131.707 Y94.908 E0.01443
G1 X132.169 Y94.810 E0.01481
G1 X132.613 Y94.791 E0.01395
G1 X133.071 Y94.850 E0.01447
G1 X133.511 Y94.985 E0.01442
G1 X133.921 Y95.192 E0.01442
G1 X134.291 Y95.465 E0.01442
G1 X134.609 Y95.797 E0.01442
G1 X134.867 Y96.178 E0.01442
G1 X135.056 Y96.597 E0.01442
G1 X135.172 Y97.042 E0.01442
G1 X135.211 Y97.500 E0.01442
G1 X135.172 Y97.958 E0.01442
G1 X135.056 Y98.403 E0.01442
G1 X134.867 Y98.822 E0.01442
G1 X134.609 Y99.203 E0.01442
G1 X134.291 Y99.535 E0.01442
G1 X133.921 Y99.808 E0.01442
G1 X133.511 Y100.015 E0.01442
G1 X133.071 Y100.150 E0.01442
G1 X132.615 Y100.208 E0.01442
G1 X132.156 Y100.189 E0.01442
G1 X131.706 Y100.092 E0.01442
G1 X131.280 Y99.921 E0.01442
G1 X130.888 Y99.679 E0.01442
G1 X130.556 Y99.387 E0.01386
G1 X130.254 Y99.019 E0.01494
G1 X130.030 Y98.617 E0.01444
G1 X129.877 Y98.183 E0.01442
G1 X129.814 Y97.817 E0.01166
G1 X129.440 Y97.590 F10800.000
;WIPE_START
G1 F8640.000
G1 X129.799 Y97.270 E-0.12622
G1 X129.877 Y96.817 E-0.10616
G1 X130.030 Y96.383 E-0.10616
G1 X130.254 Y95.982 E-0.10617
G1 X130.543 Y95.624 E-0.10616
G1 X130.888 Y95.321 E-0.10616
G1 X131.268 Y95.087 E-0.10297
;WIPE_END
G1 E-0.04000 F2100.000
G1 Z0.600 F10800.000
G1 X132.108 Y109.436
G1 Z0.200
G1 E0.80000 F2100.000
;TYPE:Perimeter
G1 F1200.000
G1 X132.612 Y109.414 E0.01584
G1 X133.149 Y109.480 E0.01695
G1 X133.652 Y109.634 E0.01649
G1 X134.120 Y109.869 E0.01643
G1 X134.541 Y110.181 E0.01643
G1 X134.904 Y110.559 E0.01643
G1 X135.197 Y110.993 E0.01643
G1 X135.405 Y111.454 E0.01584
G1 X135.545 Y111.976 E0.01695
G1 X135.589 Y112.500 E0.01649
G1 X135.545 Y113.022 E0.01643
G1 X135.413 Y113.529 E0.01643
G1 X135.197 Y114.007 E0.01643
G1 X134.904 Y114.441 E0.01643
G1 X134.541 Y114.819 E0.01643
G1 X134.120 Y115.131 E0.01643
G1 X133.652 Y115.366 E0.01643
G1 X133.151 Y115.520 E0.01643
G1 X132.629 Y115.587 E0.01649
G1 X132.107 Y115.564 E0.01638
G1 X131.595 Y115.454 E0.01642
G1 X131.109 Y115.258 E0.01643
G1 X130.663 Y114.984 E0.01643
G1 X130.270 Y114.638 E0.01643
G1 X129.941 Y114.230 E0.01643
G1 X129.685 Y113.772 E0.01643
G1 X129.510 Y113.278 E0.01643
G1 X129.422 Y112.762 E0.01643
G1 X129.422 Y112.238 E0.01643
G1 X129.510 Y111.722 E0.01643
G1 X129.685 Y111.228 E0.01643
G1 X129.941 Y110.770 E0.01643
G1 X130.270 Y110.362 E0.01643
G1 X130.663 Y110.016 E0.01643
G1 X131.109 Y109.742 E0.01643
G1 X131.595 Y109.546 E0.01643
G1 X132.049 Y109.448 E0.01455
G1 X132.128 Y109.817 F10800.000
;TYPE:External perimeter
G1 F1200.000
G1 X132.597 Y109.792 E0.01473
G1 X133.070 Y109.850 E0.01494
G1 X133.511 Y109.985 E0.01444
G1 X133.921 Y110.192 E0.01442
G1 X134.291 Y110.465 E0.01442
G1 X134.609 Y110.797 E0.01442
G1 X134.867 Y111.178 E0.01442
G1 X135.049 Y111.581 E0.01386
G1 X135.172 Y112.041 E0.01494
G1 X135.211 Y112.500 E0.01444
G1 X135.172 Y112.958 E0.01442
G1 X135.056 Y113.403 E0.01442
G1 X134.867 Y113.822 E0.01442
G1 X134.609 Y114.203 E0.01442
G1 X134.291 Y114.535 E0.01442
G1 X133.921 Y114.808 E0.01442
G1 X133.511 Y115.015 E0.01442
G1 X133.071 Y115.150 E0.01442
G1 X132.613 Y115.209 E0.01447
G1 X132.156 Y115.189 E0.01436
G1 X131.706 Y115.092 E0.01441
G1 X131.280 Y114.921 E0.01442
G1 X130.888 Y114.679 E0.01442
G1 X130.543 Y114.376 E0.01442
G1 X130.254 Y114.018 E0.01442
G1 X130.030 Y113.617 E0.01442
G1 X129.877 Y113.183 E0.01442
G1 X129.799 Y112.730 E0.01442
G1 X129.799 Y112.270 E0.01442
G1 X129.877 Y111.817 E0.01442
G1 X130.030 Y111.383 E0.01442
G1 X130.254 Y110.982 E0.01442
G1 X130.543 Y110.624 E0.01442
G1 X130.888 Y110.321 E0.01442
G1 X131.280 Y110.079 E0.01442
G1 X131.706 Y109.908 E0.01442
G1 X132.070 Y109.830 E0.01166
G1 X132.280 Y109.447 F10800.000
;WIPE_START
G1 F8640.000
G1 X132.597 Y109.792 E-0.12214
G1 X133.070 Y109.850 E-0.11003
G1 X133.511 Y109.985 E-0.10632
G1 X133.921 Y110.192 E-0.10616
G1 X134.291 Y110.465 E-0.10616
G1 X134.609 Y110.797 E-0.10616
G1 X134.859 Y111.167 E-0.10302
;WIPE_END
G1 E-0.04000 F2100.000
G1 Z0.600 F10800.000
G1 X120.545 Y111.976
G1 Z0.200
