; generated by PrusaSlicer 2.3.3+win64 on 2021-11-16 at 12:31:38 UTC

; 

; external perimeters extrusion width = 0.45mm
; perimeters extrusion width = 0.45mm
; infill extrusion width = 0.45mm
; solid infill extrusion width = 0.45mm
; top infill extrusion width = 0.40mm
; first layer extrusion width = 0.42mm

; external perimeters extrusion width = 0.45mm
; perimeters extrusion width = 0.45mm
; infill extrusion width = 0.45mm
; solid infill extrusion width = 0.45mm
; top infill extrusion width = 0.40mm
; first layer extrusion width = 0.42mm

; external perimeters extrusion width = 0.45mm
; perimeters extrusion width = 0.45mm
; infill extrusion width = 0.45mm
; solid infill extrusion width = 0.45mm
; top infill extrusion width = 0.40mm
; first layer extrusion width = 0.42mm

M73 P0 R86
M73 Q0 S86
M201 X1000 Y1000 Z200 E8000 ; sets maximum accelerations, mm/sec^2
M203 X200 Y200 Z12 E120 ; sets maximum feedrates, mm/sec
M204 P1250 R1250 T1250 ; sets acceleration (P, T) and retract acceleration (R), mm/sec^2
M205 X8.00 Y8.00 Z0.40 E4.50 ; sets the jerk limits, mm/sec
M205 S0 T0 ; sets the minimum extruding and travel feed rate, mm/sec
M107
;TYPE:Custom
M862.3 P "MK3SMMU2S" ; printer model check
M862.1 P0.4 ; nozzle diameter check
M115 U3.10.0 ; tell printer latest fw version
G90 ; use absolute coordinates
M83 ; extruder relative mode
M104 S215 ; set extruder temp
M140 S60 ; set bed temp
M190 S60 ; wait for bed temp
M109 S215 ; wait for extruder temp
G28 W ; home all without mesh bed level
G80 ; mesh bed leveling

; Send the filament type to the MMU2.0 unit.
; E stands for extruder number, F stands for filament type (0: default; 1:flex; 2: PVA)
M403 E0 F0
M403 E1 F0
M403 E2 F0
M403 E3 F0
M403 E4 F0


;go outside print area
G1 Y-3.0 F1000.0
M73 P0 R85
G1 Z0.4 F1000.0
; select extruder
T1
; initial load
G1 X55.0 E29.0 F1073.0
G1 X5.0 E29.0 F1800.0
G1 X55.0 E8.0 F2000.0
G1 Z0.3 F1000.0
G92 E0.0
G1 X240.0 E25.0 F2200.0
G1 Y-2.0 F1000.0
G1 X55.0 E25 F1400.0
G1 Z0.20 F1000.0
G1 X5.0 E4.0 F1000.0
G92 E0.0


M221 S95
G92 E0.0

; Don't change E values below. Excessive value can damage the printer.
M907 E430 ; set extruder motor current
G21 ; set units to millimeters
G90 ; use absolute coordinates
M83 ; use relative distances for extrusion
T1
M900 K0.05 ; Filament gcode LA 1.5
M900 K30 ; Filament gcode LA 1.0
G1 Z0.200 F10800.000
;LAYER_CHANGE
;Z:0.2
;HEIGHT:0.2
;BEFORE_LAYER_CHANGE
G92 E0.0
;0.2


G1 E-0.80000 F2100.000
G1 Z0.600 F10800.000
G1 Z0.200
;AFTER_LAYER_CHANGE
;0.2
G1 E-1.20000 F2100.000
G1 Z0.600 F10800.000
G1 X233.000 Y125.000
G1 Z0.200
G1 E2.00000 F2100.000
;HEIGHT:0.200000
;TYPE:Wipe tower
;WIDTH:0.500000
;-------------------------------------
; CP WIPE TOWER FIRST LAYER BRIM START
G1  X233.000 Y143.340  E1.0456 F2400
G1  X230.457 Y143.797   F7000
G1  Y124.543  E0.8050 F2100
G1  X169.543  E2.5466
M73 Q0 S85
G1  Y143.797  E0.8050
G1  X230.457  E2.5466
G1  X230.914 Y144.254   F7000
G1  Y124.086  E0.8432 F2100
G1  X169.086  E2.5849
G1  Y144.254  E0.8432
G1  X230.914  E2.5849
G1  X231.371 Y144.711   F7000
G1  Y123.629  E0.8814 F2100
G1  X168.629  E2.6231
M73 P1 R85
M73 Q1 S85
G1  Y144.711  E0.8814
G1  X231.371  E2.6231
G1  X231.828 Y145.168   F7000
G1  Y123.172  E0.9196 F2100
G1  X168.172  E2.6613
G1  Y145.168  E0.9196
G1  X231.828  E2.6613
; CP WIPE TOWER FIRST LAYER BRIM END
;-----------------------------------

;WIPE_START
G1 F8640.000
G1 X231.371 Y144.711 E-0.14925
G1 X228.726 Y144.711 E-0.61075
;WIPE_END
G1 E-0.04000 F2100.000
G1 Z0.600 F10800.000
G1 X233.770 Y145.909
G1 Z0.200
G1 E0.80000 F2100.000
M204 S1000
;TYPE:Skirt
;WIDTH:0.42
;HEIGHT:0.2
G1 F1200.000
G1 X233.415 Y146.474 E0.02095
G1 X232.913 Y146.921 E0.02107
G1 X232.310 Y147.208 E0.02095
G1 X231.650 Y147.316 E0.02095
G1 X168.017 Y147.286 E1.99517
G1 X89.553 Y129.308 E2.52394
M73 P1 R84
G1 X83.276 Y127.269 E0.20692
G1 X82.611 Y126.913 E0.02367
G1 X82.148 Y126.447 E0.02060
G1 X78.304 Y121.155 E0.20508
G1 X77.965 Y120.481 E0.02367
G1 X77.854 Y119.799 E0.02166
G1 X77.856 Y113.178 E0.20759
G1 X77.975 Y112.517 E0.02107
G1 X78.275 Y111.916 E0.02107
G1 X82.150 Y106.581 E0.20675
G1 X82.650 Y106.088 E0.02201
G1 X83.280 Y105.760 E0.02225
G1 X89.515 Y103.734 E0.20556
G1 X90.151 Y103.625 E0.02024
G1 X135.666 Y102.202 E1.42779
G1 X232.057 Y121.068 E3.07963
G1 X232.568 Y121.229 E0.01680
G1 X233.123 Y121.575 E0.02048
G1 X233.562 Y122.058 E0.02048
G1 X233.853 Y122.643 E0.02048
G1 X233.974 Y123.284 E0.02048
G1 X233.977 Y144.963 E0.67970
G1 X233.783 Y145.850 E0.02848
; printing object body1344183 id:0 copy 0
;WIPE_START
G1 F8640.000
G1 X233.415 Y146.474 E-0.16738
G1 X232.913 Y146.921 E-0.15515
G1 X232.310 Y147.208 E-0.15428
G1 X231.650 Y147.316 E-0.15428
G1 X231.092 Y147.316 E-0.12891
;WIPE_END
G1 E-0.04000 F2100.000
G1 Z0.600 F10800.000
G1 X96.339 Y113.024
G1 Z0.200
G1 E0.80000 F2100.000
;TYPE:Perimeter
G1 F1200.000
G1 X96.305 Y113.099 E0.00259
G1 X96.094 Y113.376 E0.01090
G1 X95.870 Y113.522 E0.00838
G1 X95.776 Y113.560 E0.00318
G1 X95.682 Y113.585 E0.00305
G1 X95.431 Y113.601 E0.00789
G1 X95.111 Y113.523 E0.01034
G1 X94.828 Y113.320 E0.01091
G1 X94.642 Y113.026 E0.01090
G1 X94.582 Y112.766 E0.00838
G1 X94.579 Y112.665 E0.00318
G1 X94.588 Y112.568 E0.00305
G1 X94.659 Y112.327 E0.00788
G1 X94.843 Y112.053 E0.01033
G1 X95.057 Y111.893 E0.00838
G1 X95.374 Y111.794 E0.01041
G1 X95.703 Y111.809 E0.01034
G1 X95.935 Y111.903 E0.00786
G1 X96.135 Y112.052 E0.00778
G1 X96.330 Y112.343 E0.01100
G1 X96.386 Y112.530 E0.00613
G1 X96.394 Y112.782 E0.00789
G1 X96.352 Y112.965 E0.00590
G1 X96.698 Y113.143 F10800.000
;TYPE:External perimeter
G1 F1200.000
G1 X96.636 Y113.285 E0.00487
G1 X96.439 Y113.566 E0.01075
G1 X96.330 Y113.672 E0.00476
G1 X96.046 Y113.857 E0.01065
G1 X95.896 Y113.918 E0.00509
G1 X95.743 Y113.959 E0.00496
G1 X95.407 Y113.980 E0.01055
G1 X95.080 Y113.917 E0.01043
G1 X94.936 Y113.859 E0.00488
G1 X94.652 Y113.674 E0.01064
G1 X94.540 Y113.566 E0.00487
G1 X94.344 Y113.285 E0.01075
G1 X94.282 Y113.146 E0.00476
G1 X94.206 Y112.815 E0.01065
G1 X94.201 Y112.653 E0.00509
G1 X94.216 Y112.495 E0.00496
G1 X94.312 Y112.173 E0.01054
G1 X94.486 Y111.885 E0.01054
G1 X94.588 Y111.773 E0.00476
G1 X94.860 Y111.570 E0.01065
G1 X95.000 Y111.502 E0.00487
G1 X95.325 Y111.417 E0.01054
G1 X95.658 Y111.417 E0.01043
G1 X95.810 Y111.446 E0.00487
G1 X96.122 Y111.572 E0.01054
G1 X96.389 Y111.771 E0.01043
G1 X96.494 Y111.886 E0.00487
G1 X96.671 Y112.179 E0.01075
G1 X96.761 Y112.482 E0.00992
G1 X96.772 Y112.818 E0.01055
G1 X96.712 Y113.084 E0.00855
G1 X96.546 Y113.176 F10800.000
G1 X96.275 Y112.615
;TYPE:Solid infill
;WIDTH:0.449847
G1 F1200.000
G1 X95.796 Y112.152 E0.02256
G1 X95.642 Y112.089 E0.00562
G1 X95.411 Y112.079 E0.00782
G1 X95.222 Y112.138 E0.00668
G1 X96.044 Y112.960 E0.03934
G1 X95.941 Y113.123 E0.00652
G1 X95.761 Y113.252 E0.00751
G1 X94.932 Y112.423 E0.03967
G1 X94.869 Y112.613 E0.00677
G1 X94.866 Y112.732 E0.00402
G1 X94.932 Y112.970 E0.00838
G1 X95.024 Y113.090 E0.00511
G1 X95.416 Y113.482 E0.01877
; stop printing object body1344183 id:0 copy 0
; printing object body1344183 id:2 copy 0
;WIPE_START
G1 F8640.000
G1 X95.024 Y113.090 E-0.12809
G1 X94.932 Y112.970 E-0.03484
G1 X94.866 Y112.732 E-0.05716
G1 X94.869 Y112.613 E-0.02746
G1 X94.932 Y112.423 E-0.04617
G1 X95.761 Y113.252 E-0.27074
G1 X95.941 Y113.123 E-0.05127
G1 X96.044 Y112.960 E-0.04447
G1 X95.739 Y112.654 E-0.09980
;WIPE_END
G1 E-0.04000 F2100.000
G1 Z0.600 F10800.000
G1 X117.412 Y119.692
G1 Z0.200
G1 E0.80000 F2100.000
;TYPE:Perimeter
;WIDTH:0.42
G1 F1200.000
G1 X117.468 Y119.447 E0.00789
G1 X117.634 Y119.162 E0.01034
G1 X117.909 Y118.948 E0.01091
G1 X118.155 Y118.866 E0.00815
G1 X118.322 Y118.850 E0.00524
G1 X118.485 Y118.866 E0.00513
G1 X118.714 Y118.942 E0.00759
G1 X118.982 Y119.135 E0.01033
G1 X119.168 Y119.429 E0.01093
G1 X119.228 Y119.692 E0.00845
G1 X119.231 Y119.790 E0.00307
G1 X119.222 Y119.887 E0.00307
G1 X119.145 Y120.146 E0.00848
G1 X118.952 Y120.413 E0.01032
G1 X118.679 Y120.597 E0.01032
G1 X118.339 Y120.671 E0.01092
G1 X118.074 Y120.637 E0.00838
G1 X117.977 Y120.605 E0.00318
G1 X117.890 Y120.563 E0.00305
G1 X117.688 Y120.413 E0.00788
G1 X117.495 Y120.146 E0.01033
G1 X117.419 Y119.890 E0.00838
G1 X117.410 Y119.752 E0.00434
G1 X117.031 Y119.802 F10800.000
;TYPE:External perimeter
G1 F1200.000
G1 X117.036 Y119.644 E0.00496
G1 X117.111 Y119.316 E0.01055
M73 P2 R84
M73 Q2 S84
G1 X117.265 Y119.020 E0.01043
G1 X117.362 Y118.899 E0.00488
G1 X117.620 Y118.679 E0.01064
G1 X117.755 Y118.602 E0.00487
G1 X118.077 Y118.495 E0.01064
G1 X118.322 Y118.472 E0.00771
G1 X118.563 Y118.495 E0.00760
G1 X118.879 Y118.600 E0.01044
G1 X119.161 Y118.783 E0.01054
G1 X119.270 Y118.889 E0.00476
G1 X119.464 Y119.167 E0.01065
G1 X119.528 Y119.309 E0.00487
G1 X119.604 Y119.644 E0.01075
G1 X119.594 Y119.960 E0.00992
G1 X119.496 Y120.289 E0.01076
G1 X119.426 Y120.423 E0.00476
G1 X119.216 Y120.686 E0.01054
G1 X118.947 Y120.887 E0.01054
G1 X118.810 Y120.953 E0.00476
G1 X118.478 Y121.040 E0.01076
G1 X118.327 Y121.050 E0.00476
G1 X117.990 Y121.007 E0.01065
G1 X117.836 Y120.956 E0.00509
G1 X117.693 Y120.887 E0.00496
G1 X117.424 Y120.686 E0.01054
G1 X117.214 Y120.423 E0.01054
G1 X117.144 Y120.289 E0.00476
G1 X117.047 Y119.963 E0.01065
G1 X117.037 Y119.861 E0.00320
G1 X117.164 Y119.715 F10800.000
;WIPE_START
G1 F8640.000
G1 X117.036 Y119.644 E-0.05030
G1 X117.111 Y119.316 E-0.07767
G1 X117.265 Y119.020 E-0.07683
G1 X117.362 Y118.899 E-0.03591
G1 X117.620 Y118.679 E-0.07834
G1 X117.755 Y118.602 E-0.03589
G1 X118.077 Y118.495 E-0.07836
G1 X118.322 Y118.472 E-0.05680
G1 X118.563 Y118.495 E-0.05595
G1 X118.879 Y118.600 E-0.07688
G1 X119.161 Y118.783 E-0.07765
G1 X119.270 Y118.889 E-0.03504
G1 X119.330 Y118.975 E-0.02438
;WIPE_END
G1 E-0.04000 F2100.000
G1 Z0.600 F10800.000
G1 X118.395 Y118.971
G1 Z0.200
G1 E0.80000 F2100.000
;TYPE:Solid infill
;WIDTH:0.449665
G1 F1200.000
G1 X118.800 Y119.376 E0.01939
G1 X118.903 Y119.539 E0.00652
G1 X118.944 Y119.719 E0.00624
G1 X118.941 Y119.835 E0.00393
G1 X118.875 Y120.026 E0.00683
G1 X118.056 Y119.208 E0.03917
G1 X117.984 Y119.235 E0.00262
G1 X117.854 Y119.346 E0.00575
G1 X117.768 Y119.494 E0.00582
G1 X118.590 Y120.317 E0.03934
G1 X118.387 Y120.380 E0.00719
G1 X118.140 Y120.359 E0.00838
G1 X118.029 Y120.314 E0.00402
G1 X117.527 Y119.829 E0.02365
; stop printing object body1344183 id:2 copy 0
; printing object body1344183 id:1 copy 0
;WIPE_START
G1 F8640.000
G1 X118.029 Y120.314 E-0.16148
G1 X118.140 Y120.359 E-0.02746
G1 X118.387 Y120.380 E-0.05724
G1 X118.590 Y120.317 E-0.04910
G1 X117.768 Y119.494 E-0.26855
G1 X117.854 Y119.346 E-0.03972
G1 X117.984 Y119.235 E-0.03927
G1 X118.056 Y119.208 E-0.01791
G1 X118.360 Y119.512 E-0.09928
;WIPE_END
G1 E-0.04000 F2100.000
G1 Z0.600 F10800.000
G1 X140.011 Y111.345
G1 Z0.200
G1 E0.80000 F2100.000
;TYPE:Perimeter
;WIDTH:0.42
G1 F1200.000
G1 X140.017 Y111.147 E0.00622
G1 X140.088 Y110.906 E0.00788
G1 X140.219 Y110.691 E0.00788
G1 X140.486 Y110.473 E0.01083
G1 X140.803 Y110.373 E0.01041
G1 X141.132 Y110.388 E0.01034
G1 X141.365 Y110.482 E0.00786
G1 X141.619 Y110.692 E0.01034
G1 X141.759 Y110.922 E0.00845
G1 X141.815 Y111.110 E0.00613
G1 X141.823 Y111.361 E0.00789
G1 X141.734 Y111.679 E0.01034
G1 X141.523 Y111.955 E0.01090
G1 X141.299 Y112.101 E0.00838
G1 X141.111 Y112.164 E0.00622
G1 X140.860 Y112.180 E0.00789
G1 X140.617 Y112.132 E0.00778
G1 X140.317 Y111.956 E0.01091
G1 X140.103 Y111.678 E0.01100
G1 X140.025 Y111.404 E0.00895
G1 X139.630 Y111.232 F10800.000
;TYPE:External perimeter
G1 F1200.000
G1 X139.645 Y111.074 E0.00496
G1 X139.741 Y110.752 E0.01054
G1 X139.915 Y110.464 E0.01054
G1 X140.017 Y110.352 E0.00476
G1 X140.289 Y110.149 E0.01065
G1 X140.429 Y110.081 E0.00487
G1 X140.754 Y109.996 E0.01054
G1 X141.087 Y109.996 E0.01043
G1 X141.240 Y110.025 E0.00487
G1 X141.551 Y110.151 E0.01054
G1 X141.818 Y110.350 E0.01043
G1 X141.923 Y110.465 E0.00487
G1 X142.100 Y110.758 E0.01075
G1 X142.155 Y110.907 E0.00497
G1 X142.190 Y111.061 E0.00497
G1 X142.201 Y111.397 E0.01055
G1 X142.127 Y111.722 E0.01043
G1 X142.065 Y111.864 E0.00487
G1 X141.869 Y112.145 E0.01075
G1 X141.760 Y112.251 E0.00476
G1 X141.475 Y112.436 E0.01065
G1 X141.325 Y112.497 E0.00509
G1 X141.172 Y112.538 E0.00496
G1 X140.836 Y112.559 E0.01055
G1 X140.510 Y112.496 E0.01043
G1 X140.365 Y112.438 E0.00488
G1 X140.081 Y112.253 E0.01064
G1 X139.969 Y112.145 E0.00487
G1 X139.773 Y111.864 E0.01075
G1 X139.711 Y111.725 E0.00476
G1 X139.636 Y111.394 E0.01065
G1 X139.632 Y111.292 E0.00320
G1 X139.768 Y111.154 F10800.000
;WIPE_START
G1 F8640.000
G1 X139.645 Y111.074 E-0.05030
G1 X139.741 Y110.752 E-0.07765
G1 X139.915 Y110.464 E-0.07765
G1 X140.017 Y110.352 E-0.03504
G1 X140.289 Y110.149 E-0.07840
G1 X140.429 Y110.081 E-0.03589
G1 X140.754 Y109.996 E-0.07761
G1 X141.087 Y109.996 E-0.07683
G1 X141.240 Y110.025 E-0.03589
G1 X141.551 Y110.151 E-0.07761
G1 X141.818 Y110.350 E-0.07683
G1 X141.923 Y110.465 E-0.03589
G1 X141.977 Y110.555 E-0.02441
;WIPE_END
G1 E-0.04000 F2100.000
G1 Z0.600 F10800.000
G1 X141.704 Y111.194
G1 Z0.200
G1 E0.80000 F2100.000
;TYPE:Solid infill
;WIDTH:0.449847
G1 F1200.000
G1 X141.225 Y110.731 E0.02256
G1 X141.071 Y110.669 E0.00562
G1 X140.840 Y110.658 E0.00782
G1 X140.651 Y110.717 E0.00668
G1 X141.473 Y111.539 E0.03934
G1 X141.371 Y111.702 E0.00652
G1 X141.190 Y111.831 E0.00751
G1 X140.361 Y111.002 E0.03967
G1 X140.299 Y111.192 E0.00677
G1 X140.295 Y111.311 E0.00402
G1 X140.361 Y111.550 E0.00838
G1 X140.453 Y111.669 E0.00511
G1 X140.845 Y112.062 E0.01877
; stop printing object body1344183 id:1 copy 0
;WIPE_START
G1 F8640.000
G1 X140.453 Y111.669 E-0.12809
G1 X140.361 Y111.550 E-0.03484
G1 X140.295 Y111.311 E-0.05716
G1 X140.299 Y111.192 E-0.02746
G1 X140.361 Y111.002 E-0.04617
G1 X141.190 Y111.831 E-0.27074
G1 X141.371 Y111.702 E-0.05127
G1 X141.473 Y111.539 E-0.04447
G1 X140.651 Y110.717 E-0.26845
G1 X140.840 Y110.658 E-0.04561
G1 X141.071 Y110.669 E-0.05339
G1 X141.225 Y110.731 E-0.03836
G1 X141.704 Y111.194 E-0.15396
;WIPE_END
G1 E-0.78002 F2100.000
G1 Z0.600 F10800.000
G1 X229.750 Y143.090
G1 Z0.200
G1 E2.00000 F2100.000
;HEIGHT:0.200000
;TYPE:Wipe tower
;WIDTH:0.500000
;--------------------
; CP TOOLCHANGE START
; toolchange #1
; material : PLA -> PLA
;--------------------
M220 B
M220 S100
; CP TOOLCHANGE UNLOAD
;WIDTH:0.650000
G1  X229.250 Y142.700  
M900 K0
G1 F1339
G1  X223.671  E0.2816
G1 F1451
G1  X217.626  E0.3051
G1 F1642
G1  X210.785  E0.3453
G1 F1897
G1  X202.881  E0.3990
G1 F2264
G1  X193.449  E0.4761
G1 F2742
G1  X182.025  E0.5767
G1 F3220
G1  X170.750  E0.5691
G1  Y141.920  F7200
G1 F3220
G1  X172.892  E0.1081
G1 F3635
G1  X188.036  E0.7644
G1 F3921
G1  X204.375  E0.8248
G1 F4033
G1  X221.180  E0.8483
;WIDTH:0.500000
G1 E-15.0000 F6000
G1 E-24.5000 F1200
G1 E-7.0000 F600
G1 E-3.5000 F360
M104 S215
G1  Y141.140 
G1  X170.750  E20.0000 F454
M73 P2 R83
G1  X221.180  E-20.0000 F303
G1 E-35.0000 F2000
G1  Y141.280  F2400
G4 S0
; Filament-specific end gcode

T3

G1  X221.180 Y141.280  
M900 K0.05 ; Filament gcode LA 1.5
M900 K30 ; Filament gcode LA 1.0

G4 S0
; CP TOOLCHANGE LOAD
G1 E12.0000 F1140
G1  X170.625  E42.0000 F1011
G1  X221.180  E6.0000 F708
G1  Y141.780 
; CP TOOLCHANGE WIPE
G1  X229.000  E0.3507 F800
G1  X230.000 
G1  Y143.340 
G1  X170.000  E2.2804
G1  Y125.000  E0.6970
G1  X230.000  E2.2804
M73 P3 R83
M73 Q3 S84
G1  Y143.340  E0.6970
M220 R
G1 F6000
G4 S0
G92 E0
; CP TOOLCHANGE END
;------------------


G1  X229.500 Y125.500   F7200
;HEIGHT:0.200000
;TYPE:Wipe tower
;WIDTH:0.500000
;--------------------
; CP EMPTY GRID START
; layer #1
G1  Y141.280  E0.5997 F1450
G1  X170.500  E2.2424
G1  Y125.500  E0.5997
G1  X229.500  E2.2424
M73 Q3 S83
G1  Y141.280 
G1  X229.000 Y140.771   E0.0271
G1  X171.000  E2.2044
G1  Y140.261  E0.0194
G1  X229.000  E2.2044
G1  Y139.752  E0.0194
G1  X171.000  E2.2044
G1  Y139.243  E0.0194
G1  X229.000  E2.2044
G1  Y138.733  E0.0194
G1  X171.000  E2.2044
G1  Y138.224  E0.0194
G1  X229.000  E2.2044
G1  Y137.715  E0.0194
G1  X171.000  E2.2044
G1  Y137.205  E0.0194
G1  X229.000  E2.2044
G1  Y136.696  E0.0194
G1  X171.000  E2.2044
M73 P3 R82
