; generated by PrusaSlicer 2.3.3+win64 on 2021-11-24 at 10:22:19 UTC

; 

; external perimeters extrusion width = 0.45mm
; perimeters extrusion width = 0.45mm
; infill extrusion width = 0.45mm
; solid infill extrusion width = 0.45mm
; top infill extrusion width = 0.40mm
; first layer extrusion width = 0.42mm

; external perimeters extrusion width = 0.45mm
; perimeters extrusion width = 0.45mm
; infill extrusion width = 0.45mm
; solid infill extrusion width = 0.45mm
; top infill extrusion width = 0.40mm
; first layer extrusion width = 0.42mm

; external perimeters extrusion width = 0.45mm
; perimeters extrusion width = 0.45mm
; infill extrusion width = 0.45mm
; solid infill extrusion width = 0.45mm
; top infill extrusion width = 0.40mm
; first layer extrusion width = 0.42mm

M73 P0 R140
M73 Q0 S141
M201 X1000 Y1000 Z200 E8000 ; sets maximum accelerations, mm/sec^2
M203 X200 Y200 Z12 E120 ; sets maximum feedrates, mm/sec
M204 P1250 R1250 T1250 ; sets acceleration (P, T) and retract acceleration (R), mm/sec^2
M205 X8.00 Y8.00 Z0.40 E4.50 ; sets the jerk limits, mm/sec
M205 S0 T0 ; sets the minimum extruding and travel feed rate, mm/sec
M107
;TYPE:Custom
M862.3 P "MK3SMMU2S" ; printer model check
M862.1 P0.4 ; nozzle diameter check
M115 U3.10.0 ; tell printer latest fw version
G90 ; use absolute coordinates
M83 ; extruder relative mode
M104 S215 ; set extruder temp
M140 S60 ; set bed temp
M190 S60 ; wait for bed temp
M109 S215 ; wait for extruder temp
G28 W ; home all without mesh bed level
G80 ; mesh bed leveling

; Send the filament type to the MMU2.0 unit.
; E stands for extruder number, F stands for filament type (0: default; 1:flex; 2: PVA)
M403 E0 F0
M403 E1 F0
M403 E2 F0
M403 E3 F0
M403 E4 F0


;go outside print area
G1 Y-3.0 F1000.0
M73 P0 R139
M73 Q0 S140
G1 Z0.4 F1000.0
; select extruder
T1
; initial load
G1 X55.0 E29.0 F1073.0
G1 X5.0 E29.0 F1800.0
G1 X55.0 E8.0 F2000.0
G1 Z0.3 F1000.0
G92 E0.0
G1 X240.0 E25.0 F2200.0
G1 Y-2.0 F1000.0
G1 X55.0 E25 F1400.0
G1 Z0.20 F1000.0
G1 X5.0 E4.0 F1000.0
G92 E0.0


M221 S95
G92 E0.0

; Don't change E values below. Excessive value can damage the printer.
M907 E430 ; set extruder motor current
G21 ; set units to millimeters
G90 ; use absolute coordinates
M83 ; use relative distances for extrusion
T1
M900 K0.05 ; Filament gcode LA 1.5
M900 K30 ; Filament gcode LA 1.0
G1 Z0.200 F10800.000
;LAYER_CHANGE
;Z:0.2
;HEIGHT:0.2
;BEFORE_LAYER_CHANGE
G92 E0.0
;0.2


G1 E-0.80000 F2100.000
G1 Z0.600 F10800.000
G1 Z0.200
;AFTER_LAYER_CHANGE
;0.2
G1 E-1.20000 F2100.000
G1 Z0.600 F10800.000
G1 X233.000 Y125.000
G1 Z0.200
G1 E2.00000 F2100.000
;HEIGHT:0.200000
;TYPE:Wipe tower
;WIDTH:0.500000
;-------------------------------------
; CP WIPE TOWER FIRST LAYER BRIM START
G1  X233.000 Y152.120  E1.5461 F2400
G1  X230.457 Y152.577   F7000
G1  Y124.543  E1.1720 F2100
G1  X169.543  E2.5466
G1  Y152.577  E1.1720
G1  X230.457  E2.5466
G1  X230.914 Y153.034   F7000
G1  Y124.086  E1.2102 F2100
G1  X169.086  E2.5849
G1  Y153.034  E1.2102
G1  X230.914  E2.5849
G1  X231.371 Y153.491   F7000
G1  Y123.629  E1.2485 F2100
G1  X168.629  E2.6231
G1  Y153.491  E1.2485
G1  X231.371  E2.6231
G1  X231.828 Y153.948   F7000
G1  Y123.172  E1.2867 F2100
G1  X168.172  E2.6613
G1  Y153.948  E1.2867
G1  X231.828  E2.6613
; CP WIPE TOWER FIRST LAYER BRIM END
;-----------------------------------

;WIPE_START
G1 F8640.000
G1 X231.371 Y153.491 E-0.14925
G1 X228.726 Y153.491 E-0.61075
;WIPE_END
G1 E-0.04000 F2100.000
G1 Z0.600 F10800.000
G1 X233.856 Y154.469
G1 Z0.200
G1 E0.80000 F2100.000
M204 S1000
;TYPE:Skirt
;WIDTH:0.42
;HEIGHT:0.2
G1 F1200.000
G1 X233.523 Y155.117 E0.02284
G1 X233.150 Y155.522 E0.01728
G1 X232.693 Y155.830 E0.01728
G1 X232.178 Y156.026 E0.01728
G1 X231.631 Y156.097 E0.01728
G1 X168.396 Y156.097 E1.98269
G1 X167.901 Y156.044 E0.01562
G1 X167.410 Y155.881 E0.01623
G1 X105.992 Y127.684 E2.11895
M73 Q0 S139
G1 X105.489 Y127.189 E0.02213
G1 X101.647 Y121.901 E0.20495
G1 X101.304 Y121.220 E0.02390
G1 X101.193 Y120.538 E0.02166
G1 X101.193 Y113.982 E0.20556
G1 X101.377 Y113.089 E0.02860
G1 X114.971 Y85.845 E0.95464
G1 X118.822 Y80.546 E0.20540
G1 X119.370 Y80.021 E0.02378
G1 X119.953 Y79.727 E0.02048
G1 X126.173 Y77.706 E0.20508
G1 X126.904 Y77.592 E0.02319
G1 X127.602 Y77.697 E0.02213
G1 X133.991 Y79.781 E0.21069
G1 X232.521 Y121.209 E3.35133
M73 P0 R138
G1 X232.998 Y121.478 E0.01716
G1 X233.403 Y121.851 E0.01728
G1 X233.709 Y122.305 E0.01716
G1 X233.905 Y122.820 E0.01728
G1 X233.977 Y123.363 E0.01716
G1 X233.977 Y153.754 E0.95290
G1 X233.866 Y154.409 E0.02084
; printing object body1344183 id:2 copy 0
;WIPE_START
G1 F8640.000
G1 X233.523 Y155.117 E-0.18146
G1 X233.150 Y155.522 E-0.12724
G1 X232.693 Y155.830 E-0.12724
G1 X232.178 Y156.026 E-0.12724
G1 X231.631 Y156.097 E-0.12724
G1 X231.330 Y156.097 E-0.06957
;WIPE_END
G1 E-0.04000 F2100.000
G1 Z0.600 F10800.000
G1 X134.023 Y95.248
G1 Z0.200
G1 E0.80000 F2100.000
;TYPE:Perimeter
G1 F1200.000
G1 X133.799 Y95.598 E0.01302
G1 X133.593 Y95.824 E0.00961
G1 X133.185 Y96.127 E0.01591
G1 X132.702 Y96.323 E0.01635
G1 X132.330 Y96.387 E0.01181
G1 X131.885 Y96.377 E0.01395
G1 X131.381 Y96.245 E0.01635
G1 X130.994 Y96.038 E0.01375
G1 X130.714 Y95.812 E0.01130
G1 X130.475 Y95.541 E0.01134
G1 X130.245 Y95.146 E0.01433
G1 X130.101 Y94.661 E0.01586
G1 X130.070 Y94.354 E0.00965
G1 X130.113 Y93.879 E0.01498
G1 X130.202 Y93.574 E0.00994
G1 X130.379 Y93.210 E0.01270
G1 X130.610 Y92.903 E0.01205
G1 X130.855 Y92.671 E0.01059
G1 X131.255 Y92.418 E0.01484
G1 X131.742 Y92.256 E0.01606
G1 X132.043 Y92.218 E0.00954
G1 X132.500 Y92.242 E0.01435
G1 X132.823 Y92.323 E0.01042
G1 X133.179 Y92.480 E0.01221
G1 X133.508 Y92.708 E0.01254
G1 X133.737 Y92.934 E0.01010
G1 X134.004 Y93.323 E0.01478
G1 X134.127 Y93.600 E0.00951
G1 X134.240 Y94.098 E0.01602
G1 X134.233 Y94.560 E0.01449
G1 X134.161 Y94.901 E0.01091
G1 X134.046 Y95.193 E0.00984
G1 X133.695 Y95.053 F10800.000
;TYPE:External perimeter
G1 F1200.000
G1 X133.499 Y95.367 E0.01160
G1 X133.339 Y95.543 E0.00747
G1 X132.999 Y95.795 E0.01326
G1 X132.598 Y95.958 E0.01358
G1 X132.302 Y96.009 E0.00940
G1 X131.938 Y96.001 E0.01142
G1 X131.519 Y95.891 E0.01358
G1 X131.203 Y95.723 E0.01124
G1 X130.976 Y95.539 E0.00916
G1 X130.782 Y95.319 E0.00918
G1 X130.593 Y94.995 E0.01176
G1 X130.472 Y94.588 E0.01332
G1 X130.449 Y94.353 E0.00740
G1 X130.486 Y93.949 E0.01272
G1 X130.555 Y93.710 E0.00779
G1 X130.702 Y93.407 E0.01055
G1 X130.892 Y93.155 E0.00990
G1 X131.088 Y92.970 E0.00844
G1 X131.418 Y92.761 E0.01226
G1 X131.826 Y92.626 E0.01347
G1 X132.057 Y92.596 E0.00732
G1 X132.444 Y92.617 E0.01215
G1 X132.700 Y92.681 E0.00828
G1 X132.994 Y92.810 E0.01007
G1 X133.266 Y92.999 E0.01039
G1 X133.447 Y93.177 E0.00795
G1 X133.673 Y93.507 E0.01255
G1 X133.767 Y93.719 E0.00727
G1 X133.863 Y94.138 E0.01346
G1 X133.857 Y94.518 E0.01192
G1 X133.799 Y94.791 E0.00877
G1 X133.717 Y94.998 E0.00696
G1 X133.897 Y95.364 F10800.000
;WIPE_START
G1 F8640.000
G1 X133.499 Y95.367 E-0.09912
G1 X133.339 Y95.543 E-0.05498
G1 X132.999 Y95.795 E-0.09766
G1 X132.598 Y95.958 E-0.09998
G1 X132.302 Y96.009 E-0.06923
G1 X131.938 Y96.001 E-0.08408
G1 X131.519 Y95.891 E-0.09998
G1 X131.203 Y95.723 E-0.08278
G1 X130.976 Y95.539 E-0.06749
G1 X130.962 Y95.524 E-0.00471
;WIPE_END
G1 E-0.04000 F2100.000
G1 Z0.600 F10800.000
G1 X129.448 Y92.367
G1 Z0.200
G1 E0.80000 F2100.000
;TYPE:Perimeter
G1 F1200.000
G1 X129.093 Y92.771 E0.01685
G1 X128.675 Y93.108 E0.01685
G1 X128.206 Y93.370 E0.01685
G1 X127.699 Y93.549 E0.01685
G1 X127.169 Y93.640 E0.01685
G1 X126.632 Y93.640 E0.01685
G1 X126.102 Y93.549 E0.01685
G1 X125.596 Y93.370 E0.01685
G1 X125.126 Y93.108 E0.01685
G1 X124.708 Y92.771 E0.01685
G1 X124.353 Y92.367 E0.01685
G1 X124.072 Y91.910 E0.01685
G1 X123.871 Y91.411 E0.01685
G1 X123.758 Y90.886 E0.01685
G1 X123.735 Y90.349 E0.01685
G1 X123.803 Y89.816 E0.01685
G1 X123.961 Y89.302 E0.01685
G1 X124.203 Y88.822 E0.01685
G1 X124.522 Y88.390 E0.01685
G1 X124.910 Y88.018 E0.01685
G1 X125.355 Y87.717 E0.01685
G1 X125.845 Y87.496 E0.01685
G1 X126.365 Y87.360 E0.01685
G1 X126.872 Y87.317 E0.01596
G1 X127.431 Y87.359 E0.01758
G1 X127.956 Y87.496 E0.01700
G1 X128.446 Y87.717 E0.01685
G1 X128.891 Y88.018 E0.01685
G1 X129.279 Y88.390 E0.01685
M73 Q1 S139
G1 X129.599 Y88.822 E0.01685
G1 X129.841 Y89.302 E0.01685
G1 X129.998 Y89.816 E0.01685
G1 X130.066 Y90.349 E0.01685
G1 X130.043 Y90.886 E0.01685
G1 X129.930 Y91.411 E0.01685
G1 X129.730 Y91.910 E0.01685
G1 X129.479 Y92.316 E0.01497
G1 X129.158 Y92.118 F10800.000
G1 F1200.000
G1 X128.831 Y92.497 E0.01570
G1 X128.463 Y92.795 E0.01484
G1 X128.050 Y93.025 E0.01484
G1 X127.604 Y93.183 E0.01484
G1 X127.137 Y93.263 E0.01484
G1 X126.664 Y93.263 E0.01484
G1 X126.198 Y93.183 E0.01484
G1 X125.751 Y93.025 E0.01484
G1 X125.338 Y92.795 E0.01484
G1 X124.970 Y92.497 E0.01483
G1 X124.658 Y92.142 E0.01484
G1 X124.409 Y91.739 E0.01484
G1 X124.233 Y91.300 E0.01484
M73 P1 R138
G1 X124.133 Y90.838 E0.01483
G1 X124.113 Y90.365 E0.01484
G1 X124.173 Y89.895 E0.01484
G1 X124.312 Y89.443 E0.01484
G1 X124.525 Y89.020 E0.01484
G1 X124.806 Y88.640 E0.01484
G1 X125.148 Y88.313 E0.01484
G1 X125.540 Y88.048 E0.01484
G1 X125.971 Y87.853 E0.01484
G1 X126.429 Y87.733 E0.01484
G1 X126.874 Y87.696 E0.01401
G1 X127.369 Y87.733 E0.01557
G1 X127.830 Y87.853 E0.01493
G1 X128.261 Y88.048 E0.01484
G1 X128.653 Y88.313 E0.01484
G1 X128.995 Y88.640 E0.01484
G1 X129.276 Y89.020 E0.01484
G1 X129.489 Y89.443 E0.01484
G1 X129.628 Y89.895 E0.01484
G1 X129.688 Y90.365 E0.01484
G1 X129.668 Y90.838 E0.01484
G1 X129.568 Y91.300 E0.01484
G1 X129.392 Y91.739 E0.01484
G1 X129.190 Y92.067 E0.01208
G1 X128.869 Y91.870 F10800.000
;TYPE:External perimeter
G1 F1200.000
G1 X128.569 Y92.224 E0.01455
G1 X128.251 Y92.481 E0.01282
G1 X127.894 Y92.681 E0.01282
G1 X127.508 Y92.817 E0.01283
G1 X127.105 Y92.886 E0.01283
G1 X126.696 Y92.886 E0.01282
G1 X126.293 Y92.817 E0.01283
G1 X125.907 Y92.681 E0.01282
G1 X125.550 Y92.481 E0.01283
G1 X125.232 Y92.224 E0.01282
G1 X124.962 Y91.917 E0.01282
G1 X124.747 Y91.569 E0.01282
G1 X124.595 Y91.189 E0.01283
G1 X124.509 Y90.790 E0.01282
G1 X124.491 Y90.381 E0.01282
G1 X124.543 Y89.975 E0.01283
G1 X124.663 Y89.584 E0.01282
G1 X124.847 Y89.219 E0.01282
G1 X125.090 Y88.890 E0.01282
G1 X125.386 Y88.607 E0.01282
G1 X125.725 Y88.378 E0.01283
G1 X126.097 Y88.209 E0.01282
G1 X126.493 Y88.106 E0.01282
G1 X126.876 Y88.074 E0.01205
G1 X127.307 Y88.106 E0.01355
G1 X127.704 Y88.209 E0.01286
G1 X128.077 Y88.378 E0.01283
G1 X128.416 Y88.607 E0.01282
G1 X128.711 Y88.890 E0.01282
G1 X128.954 Y89.219 E0.01283
G1 X129.138 Y89.584 E0.01282
G1 X129.258 Y89.975 E0.01282
G1 X129.310 Y90.381 E0.01282
G1 X129.293 Y90.789 E0.01283
G1 X129.206 Y91.189 E0.01282
G1 X129.054 Y91.569 E0.01282
G1 X128.900 Y91.819 E0.00920
G1 X129.034 Y92.234 F10800.000
;WIPE_START
G1 F8640.000
G1 X128.569 Y92.224 E-0.12089
G1 X128.251 Y92.481 E-0.09443
G1 X127.894 Y92.681 E-0.09444
G1 X127.508 Y92.817 E-0.09445
G1 X127.105 Y92.886 E-0.09445
G1 X126.696 Y92.886 E-0.09444
G1 X126.293 Y92.817 E-0.09445
G1 X125.997 Y92.712 E-0.07246
;WIPE_END
G1 E-0.04000 F2100.000
G1 Z0.600 F10800.000
G1 X134.524 Y95.010
G1 Z0.200
G1 E0.80000 F2100.000
;TYPE:Perimeter
G1 F1200.000
G1 X134.610 Y94.602 E0.01306
G1 X134.618 Y94.059 E0.01705
G1 X134.486 Y93.481 E0.01859
G1 X134.335 Y93.138 E0.01174
G1 X134.028 Y92.691 E0.01701
G1 X133.749 Y92.417 E0.01225
G1 X133.365 Y92.149 E0.01468
G1 X132.946 Y91.965 E0.01436
G1 X132.557 Y91.868 E0.01257
G1 X132.029 Y91.839 E0.01656
G1 X131.657 Y91.887 E0.01175
G1 X131.093 Y92.074 E0.01866
G1 X130.623 Y92.372 E0.01743
G1 X130.327 Y92.650 E0.01274
G1 X130.055 Y93.012 E0.01420
G1 X129.848 Y93.438 E0.01485
G1 X129.741 Y93.808 E0.01209
G1 X129.692 Y94.356 E0.01724
G1 X129.729 Y94.734 E0.01190
G1 X129.896 Y95.296 E0.01840
G1 X130.167 Y95.762 E0.01689
G1 X130.452 Y96.085 E0.01351
G1 X130.785 Y96.354 E0.01343
G1 X131.243 Y96.598 E0.01626
G1 X131.833 Y96.753 E0.01913
G1 X132.359 Y96.764 E0.01649
G1 X132.806 Y96.687 E0.01422
G1 X133.371 Y96.458 E0.01913
G1 X133.610 Y96.281 E0.00932
G1 X132.361 Y97.999 E0.06660
G1 X126.901 Y99.774 E0.18003
G1 X121.440 Y97.999 E0.18003
G1 X118.065 Y93.354 E0.18003
G1 X118.065 Y87.612 E0.18003
G1 X121.440 Y82.967 E0.18003
G1 X126.901 Y81.193 E0.18003
G1 X132.361 Y82.967 E0.18003
G1 X135.736 Y87.612 E0.18003
G1 X135.736 Y93.354 E0.18003
G1 X134.528 Y95.017 E0.06444
;WIPE_START
G1 F8640.000
G1 X134.610 Y94.602 E-0.09753
G1 X134.618 Y94.059 E-0.12558
G1 X134.486 Y93.481 E-0.13690
G1 X134.335 Y93.138 E-0.08646
G1 X134.028 Y92.691 E-0.12530
G1 X133.749 Y92.417 E-0.09020
G1 X133.401 Y92.174 E-0.09803
;WIPE_END
G1 E-0.04000 F2100.000
G1 Z0.600 F10800.000
G1 X136.114 Y93.477
G1 Z0.200
G1 E0.80000 F2100.000
G1 F1200.000
G1 X132.595 Y98.320 E0.18772
G1 X126.901 Y100.170 E0.18772
G1 X121.207 Y98.320 E0.18772
G1 X117.688 Y93.477 E0.18772
G1 X117.688 Y87.490 E0.18772
G1 X121.207 Y82.646 E0.18772
G1 X126.901 Y80.796 E0.18772
G1 X132.595 Y82.646 E0.18772
G1 X136.114 Y87.490 E0.18772
G1 X136.114 Y93.417 E0.18583
G1 X136.491 Y93.599 F10800.000
;TYPE:External perimeter
G1 F1200.000
G1 X132.828 Y98.641 E0.19540
G1 X126.901 Y100.567 E0.19540
G1 X120.974 Y98.641 E0.19540
G1 X117.311 Y93.599 E0.19540
G1 X117.311 Y87.367 E0.19540
G1 X120.974 Y82.325 E0.19540
G1 X126.901 Y80.400 E0.19540
G1 X132.828 Y82.325 E0.19540
G1 X136.491 Y87.367 E0.19540
G1 X136.491 Y93.539 E0.19352
G1 X136.099 Y93.682 F10800.000
;WIPE_START
G1 F8640.000
G1 X134.571 Y96.213 E-0.76000
;WIPE_END
G1 E-0.04000 F2100.000
G1 Z0.600 F10800.000
G1 X134.421 Y95.205
G1 Z0.200
G1 E0.80000 F2100.000
;TYPE:Gap fill
;WIDTH:0.336228
G1 F1200.000
G1 X134.321 Y95.386 E0.00505
;WIDTH:0.321172
G1 X134.054 Y95.780 E0.01102
;WIDTH:0.291443
G1 X133.840 Y96.044 E0.00701
G1 X133.807 Y96.045 E0.00069
;WIDTH:0.278957
G1 X133.635 Y96.041 E0.00336
;WIPE_START
G1 F8640.000
G1 X133.807 Y96.045 E-0.03957
;WIPE_END
G1 E-0.76043 F2100.000
G1 Z0.600 F10800.000
G1 X134.350 Y85.897
G1 Z0.200
G1 E0.80000 F2100.000
;TYPE:Solid infill
;WIDTH:0.421181
G1 F1200.000
G1 X131.408 Y82.955 E0.13086
G1 X130.616 Y82.697 E0.02621
G1 X135.004 Y87.086 E0.19521
G1 X135.454 Y87.704 E0.02404
G1 X135.454 Y88.070 E0.01151
G1 X129.823 Y82.440 E0.25044
G1 X129.031 Y82.182 E0.02621
G1 X135.454 Y88.605 E0.28569
G1 X135.454 Y89.140 E0.01683
G1 X128.239 Y81.925 E0.32093
G1 X127.446 Y81.667 E0.02621
G1 X135.454 Y89.675 E0.35618
G1 X135.454 Y90.210 E0.01683
G1 X126.775 Y81.531 E0.38604
G1 X126.371 Y81.662 E0.01335
G1 X135.454 Y90.745 E0.40400
G1 X135.454 Y91.280 E0.01683
G1 X125.967 Y81.793 E0.42196
G1 X125.564 Y81.924 E0.01335
G1 X135.454 Y91.815 E0.43992
G1 X135.454 Y92.350 E0.01683
G1 X125.160 Y82.056 E0.45788
G1 X124.756 Y82.187 E0.01335
G1 X135.454 Y92.884 E0.47584
G1 X135.454 Y93.262 E0.01188
G1 X135.388 Y93.353 E0.00354
G1 X124.352 Y82.318 E0.49086
G1 X123.949 Y82.449 E0.01335
G1 X135.162 Y93.663 E0.49880
G1 X134.937 Y93.973 E0.01205
G1 X134.649 Y93.684 E0.01283
;WIPE_START
G1 F8640.000
G1 X134.937 Y93.973 E-0.09422
G1 X135.162 Y93.663 E-0.08843
G1 X133.394 Y91.895 E-0.57735
;WIPE_END
G1 E-0.04000 F2100.000
G1 Z0.600 F10800.000
G1 X132.768 Y91.804
G1 Z0.200
G1 E0.80000 F2100.000
G1 F1200.000
G1 X130.046 Y89.082 E0.12107
G1 X129.840 Y88.673 E0.01440
G1 X129.492 Y88.202 E0.01842
G1 X129.069 Y87.797 E0.01842
G1 X128.584 Y87.469 E0.01841
G1 X128.310 Y87.345 E0.00948
G1 X123.545 Y82.580 E0.21195
G1 X123.141 Y82.712 E0.01335
G1 X127.519 Y87.090 E0.19475
G1 X126.933 Y87.038 E0.01852
G1 X122.737 Y82.843 E0.18662
G1 X122.334 Y82.974 E0.01335
G1 X126.431 Y87.071 E0.18224
G1 X126.317 Y87.081 E0.00358
G1 X125.990 Y87.166 E0.01062
G1 X121.930 Y83.105 E0.18062
G1 X121.615 Y83.208 E0.01042
G1 X121.565 Y83.276 E0.00264
G1 X125.590 Y87.301 E0.17904
G1 X125.222 Y87.467 E0.01272
G1 X121.340 Y83.585 E0.17267
G1 X121.115 Y83.895 E0.01205
G1 X124.902 Y87.682 E0.16845
G1 X124.732 Y87.797 E0.00646
G1 X124.604 Y87.920 E0.00555
G1 X120.890 Y84.205 E0.16522
G1 X120.665 Y84.515 E0.01205
G1 X124.331 Y88.181 E0.16309
G1 X124.100 Y88.485 E0.01201
G1 X120.440 Y84.825 E0.16282
G1 X120.215 Y85.135 E0.01205
