; generated by PrusaSlicer 2.3.3+win64 on 2022-01-19 at 13:27:27 UTC

; 

; external perimeters extrusion width = 0.45mm
; perimeters extrusion width = 0.45mm
; infill extrusion width = 0.45mm
; solid infill extrusion width = 0.45mm
; top infill extrusion width = 0.40mm
; first layer extrusion width = 0.42mm

; external perimeters extrusion width = 0.45mm
; perimeters extrusion width = 0.45mm
; infill extrusion width = 0.45mm
; solid infill extrusion width = 0.45mm
; top infill extrusion width = 0.40mm
; first layer extrusion width = 0.42mm

; external perimeters extrusion width = 0.45mm
; perimeters extrusion width = 0.45mm
; infill extrusion width = 0.45mm
; solid infill extrusion width = 0.45mm
; top infill extrusion width = 0.40mm
; first layer extrusion width = 0.42mm

M73 P0 R132
M73 Q0 S133
M201 X1000 Y1000 Z200 E8000 ; sets maximum accelerations, mm/sec^2
M203 X200 Y200 Z12 E120 ; sets maximum feedrates, mm/sec
M204 P1250 R1250 T1250 ; sets acceleration (P, T) and retract acceleration (R), mm/sec^2
M205 X8.00 Y8.00 Z0.40 E4.50 ; sets the jerk limits, mm/sec
M205 S0 T0 ; sets the minimum extruding and travel feed rate, mm/sec
M107
;TYPE:Custom
M862.3 P "MK3SMMU2S" ; printer model check
M862.1 P0.4 ; nozzle diameter check
M115 U3.10.0 ; tell printer latest fw version
G90 ; use absolute coordinates
M83 ; extruder relative mode
M104 S215 ; set extruder temp
M140 S60 ; set bed temp
M190 S60 ; wait for bed temp
M109 S215 ; wait for extruder temp
G28 W ; home all without mesh bed level
G80 ; mesh bed leveling

; Send the filament type to the MMU2.0 unit.
; E stands for extruder number, F stands for filament type (0: default; 1:flex; 2: PVA)
M403 E0 F0
M403 E1 F0
M403 E2 F0
M403 E3 F0
M403 E4 F0


;go outside print area
G1 Y-3.0 F1000.0
M73 Q0 S132
G1 Z0.4 F1000.0
; select extruder
T1
; initial load
G1 X55.0 E29.0 F1073.0
G1 X5.0 E29.0 F1800.0
G1 X55.0 E8.0 F2000.0
G1 Z0.3 F1000.0
G92 E0.0
G1 X240.0 E25.0 F2200.0
G1 Y-2.0 F1000.0
G1 X55.0 E25 F1400.0
M73 P0 R131
G1 Z0.20 F1000.0
G1 X5.0 E4.0 F1000.0
G92 E0.0


M221 S95
G92 E0.0

; Don't change E values below. Excessive value can damage the printer.

M907 E538 ; set extruder motor current
G21 ; set units to millimeters
G90 ; use absolute coordinates
M83 ; use relative distances for extrusion
T1
M900 K0.05 ; Filament gcode LA 1.5
M900 K30 ; Filament gcode LA 1.0
G1 Z0.200 F10800.000
;LAYER_CHANGE
;Z:0.2
;HEIGHT:0.2
;BEFORE_LAYER_CHANGE
G92 E0.0
;0.2


G1 E-0.80000 F2100.000
G1 Z0.600 F10800.000
G1 Z0.200
;AFTER_LAYER_CHANGE
;0.2
G1 E-1.20000 F2100.000
G1 Z0.600 F10800.000
G1 X233.169 Y26.505
G1 Z0.200
G1 E2.00000 F2100.000
;HEIGHT:0.200000
;TYPE:Wipe tower
;WIDTH:0.500000
;-------------------------------------
; CP WIPE TOWER FIRST LAYER BRIM START
G1  X233.169 Y147.845  E6.9175 F2400
G1  X230.626 Y148.302   F7000
G1  Y26.048  E5.1111 F2100
G1  X169.712  E2.5466
G1  Y148.302  E5.1111
G1  X230.626  E2.5466
G1  X231.083 Y148.759   F7000
G1  Y25.591  E5.1493 F2100
G1  X169.255  E2.5849
G1  Y148.759  E5.1493
G1  X231.083  E2.5849
G1  X231.540 Y149.216   F7000
G1  Y25.134  E5.1875 F2100
G1  X168.798  E2.6231
G1  Y149.216  E5.1875
M73 Q0 S131
G1  X231.540  E2.6231
G1  X231.997 Y149.673   F7000
G1  Y24.677  E5.2257 F2100
G1  X168.341  E2.6613
M73 P1 R131
M73 Q1 S131
G1  Y149.673  E5.2257
G1  X231.997  E2.6613
; CP WIPE TOWER FIRST LAYER BRIM END
;-----------------------------------

;WIPE_START
G1 F8640.000
G1 X231.541 Y149.217 E-0.14926
G1 X228.896 Y149.217 E-0.61074
;WIPE_END
G1 E-0.04000 F2100.000
G1 Z0.600 F10800.000
G1 X233.532 Y151.040
G1 Z0.200
G1 E0.80000 F2100.000
M204 S1000
;TYPE:Skirt
;WIDTH:0.42
;HEIGHT:0.2
G1 F1200.000
G1 X233.038 Y151.456 E0.02024
G1 X232.446 Y151.724 E0.02036
G1 X231.808 Y151.822 E0.02024
G1 X168.562 Y151.822 E1.98304
M73 P1 R130
G1 X168.022 Y151.758 E0.01704
G1 X167.511 Y151.574 E0.01704
G1 X167.091 Y151.306 E0.01562
G1 X166.736 Y150.957 E0.01562
G1 X136.595 Y114.083 E1.49325
G1 X132.689 Y108.712 E0.20823
G1 X132.427 Y108.240 E0.01692
G1 X132.247 Y107.388 E0.02731
G1 X132.246 Y100.802 E0.20651
G1 X132.708 Y68.999 E0.99726
G1 X132.776 Y68.482 E0.01633
G1 X132.956 Y67.990 E0.01645
G1 X137.009 Y62.357 E0.21756
G1 X166.682 Y23.461 E1.53394
G1 X167.086 Y23.048 E0.01811
G1 X167.578 Y22.745 E0.01811
G1 X168.057 Y22.584 E0.01585
G1 X168.564 Y22.529 E0.01597
G1 X231.773 Y22.529 E1.98189
G1 X232.675 Y22.708 E0.02884
G1 X233.439 Y23.214 E0.02872
G1 X233.955 Y23.971 E0.02872
G1 X234.146 Y24.866 E0.02872
G1 X234.146 Y149.449 E3.90620
G1 X234.082 Y149.993 E0.01716
G1 X233.898 Y150.504 E0.01704
G1 X233.566 Y150.991 E0.01848
; printing object body1344183 id:1 copy 0
;WIPE_START
G1 F8640.000
G1 X233.038 Y151.456 E-0.16244
G1 X232.446 Y151.724 E-0.14993
G1 X231.808 Y151.822 E-0.14905
G1 X230.515 Y151.822 E-0.29858
;WIPE_END
G1 E-0.04000 F2100.000
G1 Z0.600 F10800.000
G1 X147.114 Y105.337
G1 Z0.200
G1 E0.80000 F2100.000
;TYPE:Perimeter
G1 F1200.000
G1 X146.866 Y105.740 E0.01484
G1 X146.554 Y106.096 E0.01484
G1 X146.186 Y106.393 E0.01484
G1 X145.772 Y106.624 E0.01484
G1 X145.326 Y106.781 E0.01484
G1 X144.860 Y106.861 E0.01484
G1 X144.387 Y106.861 E0.01484
G1 X143.920 Y106.781 E0.01484
G1 X143.474 Y106.624 E0.01484
G1 X143.061 Y106.393 E0.01484
G1 X142.693 Y106.096 E0.01483
G1 X142.380 Y105.740 E0.01484
G1 X142.132 Y105.337 E0.01484
G1 X141.956 Y104.898 E0.01484
G1 X141.856 Y104.436 E0.01483
G1 X141.836 Y103.963 E0.01484
G1 X141.896 Y103.493 E0.01484
G1 X142.035 Y103.041 E0.01484
G1 X142.248 Y102.619 E0.01484
G1 X142.529 Y102.238 E0.01484
G1 X142.871 Y101.911 E0.01484
G1 X143.263 Y101.646 E0.01484
G1 X143.694 Y101.451 E0.01484
G1 X144.152 Y101.331 E0.01484
G1 X144.597 Y101.294 E0.01401
G1 X145.092 Y101.331 E0.01557
G1 X145.553 Y101.451 E0.01493
G1 X145.984 Y101.646 E0.01484
G1 X146.376 Y101.911 E0.01484
G1 X146.718 Y102.238 E0.01484
G1 X146.999 Y102.619 E0.01484
G1 X147.212 Y103.041 E0.01484
G1 X147.351 Y103.493 E0.01484
G1 X147.411 Y103.963 E0.01484
G1 X147.391 Y104.436 E0.01484
G1 X147.291 Y104.898 E0.01484
G1 X147.137 Y105.282 E0.01296
G1 X146.787 Y105.141 F10800.000
;TYPE:External perimeter
G1 F1200.000
G1 X146.562 Y105.515 E0.01369
G1 X146.292 Y105.822 E0.01282
G1 X145.974 Y106.079 E0.01282
G1 X145.617 Y106.279 E0.01282
G1 X145.231 Y106.415 E0.01283
G1 X144.828 Y106.484 E0.01283
G1 X144.419 Y106.484 E0.01282
G1 X144.016 Y106.415 E0.01283
G1 X143.630 Y106.279 E0.01282
G1 X143.273 Y106.079 E0.01283
G1 X142.955 Y105.822 E0.01282
G1 X142.684 Y105.515 E0.01282
G1 X142.470 Y105.167 E0.01282
G1 X142.317 Y104.787 E0.01283
G1 X142.231 Y104.388 E0.01282
G1 X142.214 Y103.979 E0.01282
G1 X142.266 Y103.573 E0.01283
G1 X142.386 Y103.182 E0.01282
G1 X142.570 Y102.817 E0.01282
G1 X142.813 Y102.488 E0.01282
G1 X143.108 Y102.205 E0.01282
G1 X143.447 Y101.976 E0.01283
G1 X143.820 Y101.808 E0.01282
G1 X144.216 Y101.704 E0.01282
G1 X144.599 Y101.672 E0.01205
G1 X145.030 Y101.704 E0.01355
G1 X145.427 Y101.808 E0.01286
G1 X145.799 Y101.976 E0.01283
G1 X146.138 Y102.205 E0.01282
G1 X146.433 Y102.488 E0.01282
G1 X146.677 Y102.817 E0.01283
G1 X146.861 Y103.182 E0.01282
G1 X146.981 Y103.573 E0.01282
G1 X147.033 Y103.979 E0.01282
G1 X147.015 Y104.388 E0.01283
G1 X146.929 Y104.787 E0.01282
G1 X146.809 Y105.085 E0.01007
G1 X147.009 Y105.474 F10800.000
;WIPE_START
G1 F8640.000
G1 X146.562 Y105.515 E-0.11451
G1 X146.292 Y105.822 E-0.09444
G1 X145.974 Y106.079 E-0.09443
G1 X145.617 Y106.279 E-0.09444
G1 X145.231 Y106.415 E-0.09445
G1 X144.828 Y106.484 E-0.09445
G1 X144.419 Y106.484 E-0.09444
G1 X144.082 Y106.426 E-0.07883
;WIPE_END
G1 E-0.04000 F2100.000
G1 Z0.600 F10800.000
G1 X148.978 Y106.016
G1 Z0.200
G1 E0.80000 F2100.000
;TYPE:Perimeter
G1 F1200.000
G1 X149.464 Y105.854 E0.01606
G1 X149.766 Y105.816 E0.00954
G1 X150.223 Y105.840 E0.01435
G1 X150.545 Y105.921 E0.01042
G1 X150.902 Y106.078 E0.01221
G1 X151.230 Y106.306 E0.01254
G1 X151.460 Y106.532 E0.01010
G1 X151.727 Y106.921 E0.01478
G1 X151.849 Y107.198 E0.00951
G1 X151.963 Y107.696 E0.01602
G1 X151.956 Y108.158 E0.01449
G1 X151.884 Y108.499 E0.01091
G1 X151.746 Y108.846 E0.01173
G1 X151.522 Y109.196 E0.01302
G1 X151.315 Y109.422 E0.00961
G1 X150.908 Y109.725 E0.01591
G1 X150.424 Y109.921 E0.01635
G1 X150.053 Y109.985 E0.01181
G1 X149.608 Y109.975 E0.01395
G1 X149.104 Y109.843 E0.01635
G1 X148.717 Y109.637 E0.01375
G1 X148.436 Y109.410 E0.01130
G1 X148.197 Y109.139 E0.01134
G1 X147.967 Y108.744 E0.01433
G1 X147.823 Y108.259 E0.01586
G1 X147.793 Y107.952 E0.00965
G1 X147.836 Y107.477 E0.01498
G1 X147.924 Y107.172 E0.00994
G1 X148.101 Y106.808 E0.01270
G1 X148.332 Y106.501 E0.01205
G1 X148.578 Y106.269 E0.01059
G1 X148.927 Y106.048 E0.01296
G1 X149.129 Y106.367 F10800.000
;TYPE:External perimeter
G1 F1200.000
G1 X149.548 Y106.224 E0.01389
G1 X149.780 Y106.194 E0.00732
G1 X150.167 Y106.215 E0.01215
G1 X150.423 Y106.279 E0.00828
G1 X150.717 Y106.408 E0.01007
G1 X150.989 Y106.597 E0.01039
G1 X151.170 Y106.775 E0.00795
G1 X151.396 Y107.105 E0.01255
G1 X151.490 Y107.317 E0.00727
G1 X151.585 Y107.736 E0.01346
G1 X151.579 Y108.116 E0.01192
G1 X151.522 Y108.390 E0.00877
G1 X151.409 Y108.673 E0.00958
G1 X151.222 Y108.966 E0.01088
G1 X151.061 Y109.141 E0.00747
G1 X150.722 Y109.393 E0.01326
G1 X150.320 Y109.556 E0.01358
G1 X150.025 Y109.607 E0.00940
G1 X149.661 Y109.599 E0.01142
G1 X149.242 Y109.489 E0.01358
G1 X148.925 Y109.321 E0.01124
G1 X148.698 Y109.137 E0.00916
G1 X148.505 Y108.917 E0.00918
G1 X148.316 Y108.593 E0.01176
G1 X148.195 Y108.186 E0.01332
G1 X148.172 Y107.951 E0.00740
G1 X148.208 Y107.547 E0.01272
G1 X148.277 Y107.308 E0.00779
G1 X148.425 Y107.005 E0.01055
G1 X148.614 Y106.753 E0.00990
G1 X148.810 Y106.568 E0.00844
G1 X149.078 Y106.399 E0.00994
G1 X149.165 Y105.968 F10800.000
;WIPE_START
G1 F8640.000
G1 X149.548 Y106.224 E-0.11584
G1 X149.780 Y106.194 E-0.05392
G1 X150.167 Y106.215 E-0.08945
G1 X150.423 Y106.279 E-0.06096
G1 X150.717 Y106.408 E-0.07413
G1 X150.989 Y106.597 E-0.07652
G1 X151.170 Y106.775 E-0.05858
G1 X151.396 Y107.105 E-0.09239
G1 X151.490 Y107.317 E-0.05355
G1 X151.571 Y107.675 E-0.08468
;WIPE_END
G1 E-0.04000 F2100.000
G1 Z0.600 F10800.000
G1 X153.836 Y107.075
G1 Z0.200
G1 E0.80000 F2100.000
;TYPE:Perimeter
G1 F1200.000
G1 X150.317 Y111.918 E0.18772
G1 X144.623 Y113.768 E0.18772
G1 X138.929 Y111.918 E0.18772
G1 X135.410 Y107.075 E0.18772
G1 X135.410 Y101.088 E0.18772
G1 X138.929 Y96.244 E0.18772
G1 X144.623 Y94.394 E0.18772
G1 X150.317 Y96.244 E0.18772
G1 X153.836 Y101.088 E0.18772
G1 X153.836 Y107.015 E0.18583
G1 X154.213 Y107.197 F10800.000
;TYPE:External perimeter
G1 F1200.000
G1 X150.550 Y112.239 E0.19540
G1 X144.623 Y114.165 E0.19540
G1 X138.696 Y112.239 E0.19540
G1 X135.033 Y107.197 E0.19540
G1 X135.033 Y100.965 E0.19540
G1 X138.696 Y95.924 E0.19540
G1 X144.623 Y93.998 E0.19540
G1 X150.550 Y95.924 E0.19540
G1 X154.213 Y100.965 E0.19540
G1 X154.213 Y107.137 E0.19352
G1 X153.822 Y107.280 F10800.000
;WIPE_START
G1 F8640.000
G1 X152.294 Y109.811 E-0.76000
;WIPE_END
G1 E-0.04000 F2100.000
G1 Z0.600 F10800.000
G1 X152.144 Y108.803
G1 Z0.200
G1 E0.80000 F2100.000
;TYPE:Gap fill
;WIDTH:0.336228
G1 F1200.000
G1 X152.044 Y108.984 E0.00505
;WIDTH:0.321172
G1 X151.776 Y109.378 E0.01102
;WIDTH:0.291443
G1 X151.563 Y109.642 E0.00701
G1 X151.529 Y109.643 E0.00069
;WIDTH:0.278957
G1 X151.358 Y109.639 E0.00336
;WIPE_START
G1 F8640.000
G1 X151.529 Y109.643 E-0.03957
;WIPE_END
G1 E-0.76043 F2100.000
G1 Z0.600 F10800.000
G1 X152.309 Y99.178
G1 Z0.200
G1 E0.80000 F2100.000
;TYPE:Solid infill
;WIDTH:0.421715
G1 F1200.000
G1 X149.362 Y96.231 E0.13125
G1 X148.569 Y95.974 E0.02628
G1 X152.965 Y100.370 E0.19583
G1 X153.553 Y101.180 E0.03153
G1 X153.553 Y101.494 E0.00990
G1 X147.775 Y95.716 E0.25738
G1 X146.982 Y95.458 E0.02628
G1 X153.553 Y102.030 E0.29273
G1 X153.553 Y102.565 E0.01687
G1 X146.188 Y95.200 E0.32808
G1 X145.394 Y94.942 E0.02628
G1 X153.553 Y103.101 E0.36342
G1 X153.553 Y103.637 E0.01687
G1 X144.612 Y94.695 E0.39828
G1 X144.208 Y94.827 E0.01339
G1 X153.553 Y104.172 E0.41629
G1 X153.553 Y104.708 E0.01687
G1 X143.803 Y94.958 E0.43430
G1 X143.399 Y95.089 E0.01339
G1 X153.553 Y105.244 E0.45231
G1 X153.553 Y105.780 E0.01687
G1 X142.995 Y95.221 E0.47032
G1 X142.590 Y95.352 E0.01339
G1 X153.553 Y106.315 E0.48833
G1 X153.553 Y106.851 E0.01687
G1 X142.186 Y95.484 E0.50634
G1 X141.782 Y95.615 E0.01339
G1 X153.383 Y107.217 E0.51678
G1 X153.158 Y107.527 E0.01208
G1 X141.377 Y95.746 E0.52475
G1 X140.973 Y95.878 E0.01339
G1 X152.933 Y107.837 E0.53272
G1 X152.707 Y108.148 E0.01208
G1 X152.246 Y107.686 E0.02054
G1 X152.234 Y108.210 E0.01650
G1 X152.603 Y108.579 E0.01645
;WIPE_START
G1 F8640.000
G1 X152.234 Y108.210 E-0.12059
G1 X152.246 Y107.686 E-0.12093
G1 X152.707 Y108.148 E-0.15059
G1 X152.933 Y107.837 E-0.08856
G1 X152.077 Y106.982 E-0.27933
;WIPE_END
G1 E-0.04000 F2100.000
G1 Z0.600 F10800.000
G1 X150.303 Y105.744
G1 Z0.200
G1 E0.80000 F2100.000
G1 F1200.000
G1 X147.455 Y102.896 E0.12685
G1 X147.241 Y102.470 E0.01503
G1 X146.931 Y102.050 E0.01642
G1 X146.554 Y101.690 E0.01642
G1 X146.122 Y101.398 E0.01642
G1 X145.822 Y101.262 E0.01040
G1 X140.569 Y96.009 E0.23398
G1 X140.164 Y96.140 E0.01339
G1 X145.069 Y101.045 E0.21849
G1 X144.506 Y101.018 E0.01777
G1 X139.760 Y96.272 E0.21139
G1 X139.356 Y96.403 E0.01339
G1 X144.025 Y101.072 E0.20798
M73 Q1 S130
G1 X143.600 Y101.183 E0.01383
G1 X139.019 Y96.602 E0.20405
G1 X138.794 Y96.912 E0.01208
G1 X143.231 Y101.350 E0.19765
G1 X143.124 Y101.398 E0.00369
G1 X142.897 Y101.551 E0.00864
G1 X138.568 Y97.223 E0.19282
G1 X138.343 Y97.533 E0.01208
G1 X142.594 Y101.784 E0.18936
G1 X142.320 Y102.046 E0.01193
G1 X138.117 Y97.843 E0.18722
G1 X137.892 Y98.153 E0.01208
G1 X142.092 Y102.353 E0.18708
G1 X142.006 Y102.470 E0.00455
G1 X141.894 Y102.691 E0.00782
G1 X137.666 Y98.464 E0.18832
G1 X137.441 Y98.774 E0.01208
G1 X141.732 Y103.065 E0.19112
G1 X141.612 Y103.481 E0.01365
G1 X137.216 Y99.084 E0.19585
G1 X136.990 Y99.395 E0.01208
G1 X141.553 Y103.957 E0.20322
G1 X141.586 Y104.526 E0.01796
G1 X136.643 Y99.583 E0.22018
;WIPE_START
G1 F8640.000
G1 X138.971 Y101.911 E-0.76000
;WIPE_END
G1 E-0.04000 F2100.000
G1 Z0.600 F10800.000
G1 X147.447 Y103.423
G1 Z0.200
G1 E0.80000 F2100.000
G1 F1200.000
G1 X149.579 Y105.555 E0.09493
G1 X149.401 Y105.577 E0.00564
G1 X149.149 Y105.661 E0.00836
G1 X147.684 Y104.196 E0.06527
G1 X147.672 Y104.472 E0.00870
G1 X147.628 Y104.676 E0.00657
G1 X148.767 Y105.815 E0.05073
G1 X148.439 Y106.022 E0.01223
G1 X147.515 Y105.098 E0.04115
G1 X147.360 Y105.478 E0.01294
G1 X148.158 Y106.277 E0.03555
G1 X147.922 Y106.576 E0.01201
G1 X147.155 Y105.810 E0.03413
G1 X147.094 Y105.909 E0.00366
G1 X146.919 Y106.109 E0.00838
G1 X147.732 Y106.922 E0.03621
G1 X147.659 Y107.070 E0.00520
G1 X147.589 Y107.314 E0.00801
G1 X146.653 Y106.379 E0.04168
G1 X146.357 Y106.618 E0.01200
G1 X147.524 Y107.786 E0.05201
G1 X147.509 Y107.954 E0.00531
G1 X147.556 Y108.354 E0.01269
G1 X145.890 Y106.687 E0.07423
;WIPE_START
G1 F8640.000
G1 X147.556 Y108.354 E-0.54417
G1 X147.509 Y107.954 E-0.09304
G1 X147.524 Y107.786 E-0.03895
G1 X147.267 Y107.529 E-0.08383
;WIPE_END
G1 E-0.04000 F2100.000
G1 Z0.600 F10800.000
G1 X150.729 Y109.919
G1 Z0.200
G1 E0.80000 F2100.000
G1 F1200.000
G1 X151.129 Y110.319 E0.01782
G1 X150.904 Y110.630 E0.01208
G1 X150.473 Y110.199 E0.01918
G1 X150.005 Y110.266 E0.01490
G1 X150.678 Y110.940 E0.03000
G1 X150.453 Y111.250 E0.01208
G1 X149.183 Y109.981 E0.05656
;WIPE_START
G1 F8640.000
G1 X150.453 Y111.250 E-0.41463
G1 X150.678 Y110.940 E-0.08855
G1 X150.005 Y110.266 E-0.21993
G1 X150.163 Y110.244 E-0.03689
;WIPE_END
G1 E-0.04000 F2100.000
G1 Z0.600 F10800.000
G1 X150.349 Y111.682
G1 Z0.200
G1 E0.80000 F2100.000
G1 F1200.000
G1 X145.638 Y106.971 E0.20985
G1 X145.398 Y107.056 E0.00802
G1 X145.218 Y107.087 E0.00575
G1 X149.891 Y111.759 E0.20814
G1 X149.486 Y111.891 E0.01339
G1 X144.740 Y107.144 E0.21144
G1 X144.363 Y107.144 E0.01187
G1 X144.171 Y107.111 E0.00612
G1 X149.082 Y112.022 E0.21876
G1 X148.678 Y112.154 E0.01339
G1 X143.433 Y106.909 E0.23361
G1 X142.902 Y106.628 E0.01893
G1 X142.496 Y106.300 E0.01642
G1 X142.152 Y105.909 E0.01642
G1 X141.879 Y105.465 E0.01642
