; generated by PrusaSlicer 2.3.3+win64 on 2022-02-21 at 13:07:41 UTC

; 

; external perimeters extrusion width = 0.45mm
; perimeters extrusion width = 0.45mm
; infill extrusion width = 0.45mm
; solid infill extrusion width = 0.45mm
; top infill extrusion width = 0.40mm
; first layer extrusion width = 0.42mm

; external perimeters extrusion width = 0.45mm
; perimeters extrusion width = 0.45mm
; infill extrusion width = 0.45mm
; solid infill extrusion width = 0.45mm
; top infill extrusion width = 0.40mm
; first layer extrusion width = 0.42mm

M73 P0 R137
M73 Q0 S138
M201 X1000 Y1000 Z200 E8000 ; sets maximum accelerations, mm/sec^2
M203 X200 Y200 Z12 E120 ; sets maximum feedrates, mm/sec
M204 P1250 R1250 T1250 ; sets acceleration (P, T) and retract acceleration (R), mm/sec^2
M205 X8.00 Y8.00 Z0.40 E4.50 ; sets the jerk limits, mm/sec
M205 S0 T0 ; sets the minimum extruding and travel feed rate, mm/sec
M107
;TYPE:Custom
M862.3 P "MK3SMMU2S" ; printer model check
M862.1 P0.4 ; nozzle diameter check
M115 U3.10.0 ; tell printer latest fw version
G90 ; use absolute coordinates
M83 ; extruder relative mode
M104 S215 ; set extruder temp
M140 S60 ; set bed temp
M190 S60 ; wait for bed temp
M109 S215 ; wait for extruder temp
G28 W ; home all without mesh bed level
G80 ; mesh bed leveling

; Send the filament type to the MMU2.0 unit.
; E stands for extruder number, F stands for filament type (0: default; 1:flex; 2: PVA)
M403 E0 F0
M403 E1 F0
M403 E2 F0
M403 E3 F0
M403 E4 F0


;go outside print area
G1 Y-3.0 F1000.0
G1 Z0.4 F1000.0
; select extruder
T1
; initial load
G1 X55.0 E29.0 F1073.0
G1 X5.0 E29.0 F1800.0
G1 X55.0 E8.0 F2000.0
G1 Z0.3 F1000.0
G92 E0.0
G1 X240.0 E25.0 F2200.0
G1 Y-2.0 F1000.0
G1 X55.0 E25 F1400.0
G1 Z0.20 F1000.0
G1 X5.0 E4.0 F1000.0
G92 E0.0


M221 S95
G92 E0.0

; Don't change E values below. Excessive value can damage the printer.
M907 E430 ; set extruder motor current
G21 ; set units to millimeters
G90 ; use absolute coordinates
M83 ; use relative distances for extrusion
T1
M900 K0.05 ; Filament gcode LA 1.5
M900 K30 ; Filament gcode LA 1.0
G1 Z0.200 F10800.000
;LAYER_CHANGE
;Z:0.2
;HEIGHT:0.2
;BEFORE_LAYER_CHANGE
G92 E0.0
;0.2


G1 E-0.80000 F2100.000
G1 Z0.600 F10800.000
G1 Z0.200
;AFTER_LAYER_CHANGE
;0.2
G1 E-1.20000 F2100.000
G1 Z0.600 F10800.000
G1 X237.702 Y18.548
G1 Z0.200
G1 E2.00000 F2100.000
;HEIGHT:0.200000
;TYPE:Wipe tower
;WIDTH:0.500000
;-------------------------------------
; CP WIPE TOWER FIRST LAYER BRIM START
G1  X237.702 Y130.108  E6.3600 F2400
G1  X235.159 Y130.565   F7000
G1  Y18.091  E4.7022 F2100
G1  X174.245  E2.5466
G1  Y130.565  E4.7022
M73 Q0 S137
G1  X235.159  E2.5466
G1  X235.616 Y131.022   F7000
G1  Y17.634  E4.7404 F2100
G1  X173.788  E2.5849
M73 P0 R136
G1  Y131.022  E4.7404
G1  X235.616  E2.5849
G1  X236.073 Y131.479   F7000
G1  Y17.177  E4.7786 F2100
G1  X173.331  E2.6231
G1  Y131.479  E4.7786
G1  X236.073  E2.6231
G1  X236.530 Y131.936   F7000
G1  Y16.720  E4.8169 F2100
G1  X172.874  E2.6613
G1  Y131.936  E4.8169
G1  X236.530  E2.6613
; CP WIPE TOWER FIRST LAYER BRIM END
;-----------------------------------

;WIPE_START
M73 P1 R136
M73 Q1 S137
G1 F8640.000
G1 X236.074 Y131.479 E-0.14926
G1 X233.429 Y131.479 E-0.61074
;WIPE_END
G1 E-0.04000 F2100.000
G1 Z0.600 F10800.000
G1 X238.564 Y132.438
G1 Z0.200
G1 E0.80000 F2100.000
M204 S1000
;TYPE:Skirt
;WIDTH:0.42
;HEIGHT:0.2
G1 F1200.000
G1 X238.237 Y133.089 E0.02284
G1 X237.785 Y133.566 E0.02060
G1 X237.223 Y133.899 E0.02048
G1 X144.345 Y172.489 E3.15348
G1 X135.014 Y175.521 E0.30763
G1 X134.271 Y175.628 E0.02355
G1 X133.596 Y175.519 E0.02142
G1 X124.304 Y172.500 E0.30636
G1 X123.657 Y172.173 E0.02272
G1 X123.118 Y171.639 E0.02378
G1 X117.372 Y163.732 E0.30648
G1 X117.060 Y163.124 E0.02142
G1 X116.932 Y162.380 E0.02367
G1 X116.932 Y152.586 E0.30708
G1 X121.149 Y80.183 E2.27399
G1 X124.270 Y42.960 E1.17121
G1 X124.409 Y42.349 E0.01965
G1 X124.703 Y41.795 E0.01965
G1 X130.471 Y33.858 E0.30765
G1 X131.193 Y33.224 E0.03013
G1 X172.540 Y14.639 E1.42135
G1 X173.099 Y14.571 E0.01763
G1 X236.306 Y14.571 E1.98182
G1 X237.208 Y14.750 E0.02884
G1 X237.972 Y15.256 E0.02872
G1 X238.488 Y16.013 E0.02872
G1 X238.679 Y16.909 E0.02872
G1 X238.679 Y131.715 E3.59967
G1 X238.573 Y132.379 E0.02108
; printing object body96150 id:0 copy 0
;WIPE_START
G1 F8640.000
G1 X238.237 Y133.089 E-0.18145
G1 X237.785 Y133.566 E-0.15167
G1 X237.223 Y133.899 E-0.15080
G1 X236.119 Y134.358 E-0.27608
;WIPE_END
G1 E-0.04000 F2100.000
G1 Z0.600 F10800.000
G1 X143.880 Y49.710
M73 Q1 S136
G1 Z0.200
G1 E0.80000 F2100.000
;TYPE:Perimeter
G1 F1200.000
G1 X143.568 Y50.066 E0.01484
G1 X143.199 Y50.363 E0.01484
G1 X142.786 Y50.594 E0.01484
G1 X142.340 Y50.751 E0.01484
G1 X141.874 Y50.831 E0.01484
G1 X141.401 Y50.831 E0.01484
G1 X140.934 Y50.751 E0.01484
G1 X140.488 Y50.594 E0.01484
G1 X140.075 Y50.363 E0.01484
G1 X139.707 Y50.066 E0.01483
G1 X139.394 Y49.710 E0.01484
G1 X139.146 Y49.307 E0.01484
G1 X138.969 Y48.868 E0.01484
G1 X138.870 Y48.406 E0.01483
G1 X138.850 Y47.933 E0.01484
G1 X138.910 Y47.463 E0.01484
G1 X139.048 Y47.011 E0.01484
G1 X139.261 Y46.589 E0.01484
G1 X139.543 Y46.208 E0.01484
G1 X139.884 Y45.881 E0.01484
G1 X140.277 Y45.616 E0.01484
G1 X140.708 Y45.421 E0.01484
G1 X141.166 Y45.301 E0.01484
G1 X141.611 Y45.264 E0.01401
G1 X142.106 Y45.301 E0.01557
G1 X142.567 Y45.421 E0.01493
G1 X142.998 Y45.616 E0.01484
G1 X143.390 Y45.881 E0.01484
G1 X143.731 Y46.208 E0.01484
G1 X144.013 Y46.589 E0.01484
G1 X144.226 Y47.011 E0.01484
G1 X144.364 Y47.463 E0.01484
G1 X144.425 Y47.933 E0.01484
G1 X144.404 Y48.406 E0.01484
G1 X144.305 Y48.868 E0.01484
G1 X144.128 Y49.307 E0.01484
G1 X143.912 Y49.659 E0.01296
G1 X143.591 Y49.461 F10800.000
;TYPE:External perimeter
G1 F1200.000
G1 X143.306 Y49.792 E0.01369
G1 X142.988 Y50.049 E0.01282
G1 X142.630 Y50.249 E0.01282
G1 X142.245 Y50.385 E0.01283
G1 X141.842 Y50.454 E0.01283
G1 X141.433 Y50.454 E0.01282
G1 X141.029 Y50.385 E0.01283
G1 X140.644 Y50.249 E0.01282
G1 X140.287 Y50.049 E0.01283
G1 X139.969 Y49.792 E0.01282
G1 X139.698 Y49.485 E0.01282
G1 X139.484 Y49.137 E0.01282
G1 X139.331 Y48.757 E0.01283
G1 X139.245 Y48.358 E0.01282
G1 X139.228 Y47.949 E0.01282
G1 X139.280 Y47.543 E0.01283
G1 X139.400 Y47.152 E0.01282
G1 X139.584 Y46.787 E0.01282
G1 X139.827 Y46.458 E0.01282
G1 X140.122 Y46.175 E0.01282
G1 X140.461 Y45.946 E0.01283
G1 X140.834 Y45.778 E0.01282
G1 X141.230 Y45.674 E0.01282
G1 X141.613 Y45.642 E0.01205
G1 X142.044 Y45.674 E0.01355
G1 X142.440 Y45.778 E0.01286
G1 X142.813 Y45.946 E0.01283
G1 X143.152 Y46.175 E0.01282
G1 X143.447 Y46.458 E0.01282
G1 X143.691 Y46.787 E0.01283
G1 X143.875 Y47.152 E0.01282
G1 X143.994 Y47.543 E0.01282
G1 X144.046 Y47.949 E0.01282
G1 X144.029 Y48.358 E0.01283
G1 X143.943 Y48.757 E0.01282
G1 X143.790 Y49.137 E0.01282
G1 X143.622 Y49.410 E0.01007
G1 X143.753 Y49.827 F10800.000
;WIPE_START
G1 F8640.000
G1 X143.306 Y49.792 E-0.11450
G1 X142.988 Y50.049 E-0.09443
G1 X142.630 Y50.249 E-0.09444
G1 X142.245 Y50.385 E-0.09445
G1 X141.842 Y50.454 E-0.09445
G1 X141.433 Y50.454 E-0.09444
G1 X141.029 Y50.385 E-0.09445
G1 X140.708 Y50.271 E-0.07884
;WIPE_END
G1 E-0.04000 F2100.000
G1 Z0.600 F10800.000
G1 X148.735 Y53.454
G1 Z0.200
G1 E0.80000 F2100.000
;TYPE:Perimeter
G1 F1200.000
G1 X148.997 Y53.100 E0.01380
G1 X149.314 Y52.796 E0.01377
G1 X149.678 Y52.550 E0.01377
G1 X150.078 Y52.370 E0.01377
G1 X150.503 Y52.259 E0.01377
G1 X150.933 Y52.222 E0.01353
G1 X151.377 Y52.259 E0.01398
G1 X151.803 Y52.370 E0.01380
G1 X152.204 Y52.550 E0.01377
G1 X152.567 Y52.796 E0.01377
G1 X152.884 Y53.100 E0.01377
G1 X153.146 Y53.453 E0.01377
G1 X153.343 Y53.845 E0.01377
G1 X153.472 Y54.265 E0.01377
G1 X153.528 Y54.701 E0.01377
G1 X153.509 Y55.140 E0.01377
G1 X153.417 Y55.569 E0.01377
G1 X153.253 Y55.976 E0.01377
G1 X153.023 Y56.350 E0.01377
G1 X152.732 Y56.680 E0.01377
G1 X152.391 Y56.956 E0.01377
G1 X152.007 Y57.170 E0.01377
G1 X151.601 Y57.314 E0.01353
G1 X151.161 Y57.391 E0.01398
G1 X150.721 Y57.391 E0.01380
G1 X150.288 Y57.316 E0.01377
G1 X149.874 Y57.170 E0.01377
G1 X149.498 Y56.960 E0.01353
G1 X149.150 Y56.681 E0.01398
G1 X148.859 Y56.350 E0.01380
G1 X148.629 Y55.976 E0.01377
G1 X148.465 Y55.569 E0.01377
G1 X148.373 Y55.140 E0.01377
G1 X148.354 Y54.701 E0.01377
G1 X148.410 Y54.265 E0.01377
G1 X148.536 Y53.853 E0.01353
G1 X148.709 Y53.508 E0.01210
G1 X149.046 Y53.676 F10800.000
;TYPE:External perimeter
G1 F1200.000
G1 X149.281 Y53.350 E0.01261
G1 X149.552 Y53.091 E0.01176
G1 X149.863 Y52.881 E0.01176
G1 X150.204 Y52.726 E0.01176
G1 X150.567 Y52.632 E0.01176
G1 X150.934 Y52.601 E0.01153
G1 X151.314 Y52.632 E0.01197
G1 X151.677 Y52.726 E0.01177
G1 X152.019 Y52.881 E0.01176
G1 X152.330 Y53.091 E0.01176
G1 X152.600 Y53.350 E0.01176
G1 X152.823 Y53.652 E0.01176
G1 X152.992 Y53.987 E0.01176
G1 X153.102 Y54.345 E0.01176
G1 X153.150 Y54.717 E0.01176
G1 X153.134 Y55.092 E0.01176
G1 X153.055 Y55.458 E0.01176
G1 X152.915 Y55.806 E0.01176
G1 X152.718 Y56.125 E0.01176
G1 X152.471 Y56.407 E0.01176
G1 X152.179 Y56.642 E0.01176
G1 X151.851 Y56.825 E0.01176
G1 X151.505 Y56.948 E0.01153
G1 X151.129 Y57.014 E0.01197
G1 X150.753 Y57.014 E0.01177
G1 X150.384 Y56.950 E0.01176
G1 X150.030 Y56.825 E0.01176
G1 X149.709 Y56.646 E0.01153
G1 X149.411 Y56.407 E0.01197
G1 X149.163 Y56.125 E0.01177
G1 X148.967 Y55.806 E0.01176
G1 X148.827 Y55.458 E0.01176
G1 X148.748 Y55.092 E0.01176
G1 X148.732 Y54.717 E0.01176
G1 X148.780 Y54.345 E0.01176
G1 X148.887 Y53.993 E0.01153
G1 X149.019 Y53.730 E0.00923
G1 X148.853 Y53.326 F10800.000
;WIPE_START
G1 F8640.000
G1 X149.281 Y53.350 E-0.10657
G1 X149.552 Y53.091 E-0.08658
G1 X149.863 Y52.881 E-0.08658
G1 X150.204 Y52.726 E-0.08658
G1 X150.567 Y52.632 E-0.08658
G1 X150.934 Y52.601 E-0.08493
G1 X151.314 Y52.632 E-0.08813
G1 X151.677 Y52.726 E-0.08666
G1 X151.864 Y52.811 E-0.04738
;WIPE_END
G1 E-0.04000 F2100.000
G1 Z0.600 F10800.000
G1 X150.421 Y60.142
G1 Z0.200
G1 E0.80000 F2100.000
;TYPE:Perimeter
G1 F1200.000
G1 X141.637 Y62.996 E0.28959
G1 X132.853 Y60.142 E0.28959
G1 X127.424 Y52.669 E0.28959
G1 X127.424 Y43.433 E0.28959
G1 X132.853 Y35.961 E0.28959
M73 P1 R135
G1 X141.637 Y33.107 E0.28959
G1 X150.421 Y35.961 E0.28959
G1 X155.850 Y43.433 E0.28959
G1 X155.850 Y52.669 E0.28959
G1 X150.456 Y60.093 E0.28771
G1 X150.654 Y60.462 F10800.000
;TYPE:External perimeter
G1 F1200.000
G1 X141.637 Y63.392 E0.29727
G1 X132.620 Y60.462 E0.29727
G1 X127.047 Y52.792 E0.29727
G1 X127.047 Y43.311 E0.29728
G1 X132.620 Y35.640 E0.29727
G1 X141.637 Y32.710 E0.29727
G1 X150.654 Y35.640 E0.29727
G1 X156.227 Y43.311 E0.29727
G1 X156.227 Y52.792 E0.29728
G1 X150.690 Y60.414 E0.29539
G1 X150.289 Y60.300 F10800.000
;WIPE_START
G1 F8640.000
G1 X147.563 Y61.442 E-0.76000
;WIPE_END
G1 E-0.04000 F2100.000
G1 Z0.600 F10800.000
G1 X151.917 Y57.553
G1 Z0.200
G1 E0.80000 F2100.000
;TYPE:Gap fill
;WIDTH:0.16396
G1 F1200.000
G1 X152.251 Y57.281 E0.00433
;WIPE_START
G1 F8640.000
G1 X151.917 Y57.553 E-0.09943
;WIPE_END
G1 E-0.70057 F2100.000
G1 Z0.600 F10800.000
G1 X153.696 Y55.289
G1 Z0.200
G1 E0.80000 F2100.000
;WIDTH:0.138229
G1 F1200.000
G1 X153.855 Y54.887 E0.00342
;WIPE_START
G1 F8640.000
G1 X153.696 Y55.289 E-0.09975
;WIPE_END
G1 E-0.70025 F2100.000
G1 Z0.600 F10800.000
G1 X152.424 Y38.911
G1 Z0.200
G1 E0.80000 F2100.000
;TYPE:Solid infill
;WIDTH:0.423763
G1 F1200.000
G1 X149.460 Y35.946 E0.13277
G1 X148.662 Y35.687 E0.02656
G1 X153.088 Y40.113 E0.19823
G1 X154.519 Y42.083 E0.07709
G1 X147.864 Y35.428 E0.29805
G1 X147.066 Y35.168 E0.02656
G1 X155.567 Y43.669 E0.38071
G1 X155.567 Y44.208 E0.01706
G1 X146.268 Y34.909 E0.41644
G1 X145.471 Y34.650 E0.02656
G1 X155.567 Y44.746 E0.45217
G1 X155.567 Y45.285 E0.01706
G1 X144.673 Y34.391 E0.48790
G1 X143.875 Y34.131 E0.02656
G1 X155.567 Y45.824 E0.52363
G1 X155.567 Y46.362 E0.01706
G1 X143.077 Y33.872 E0.55936
G1 X142.279 Y33.613 E0.02656
G1 X155.567 Y46.901 E0.59509
G1 X155.567 Y47.439 E0.01706
G1 X141.558 Y33.430 E0.62740
G1 X141.151 Y33.562 E0.01354
G1 X155.567 Y47.978 E0.64560
G1 X155.567 Y48.517 E0.01706
G1 X140.745 Y33.694 E0.66381
G1 X140.338 Y33.826 E0.01354
G1 X155.567 Y49.055 E0.68202
G1 X155.567 Y49.594 E0.01706
G1 X139.932 Y33.958 E0.70022
G1 X139.525 Y34.090 E0.01354
G1 X155.567 Y50.132 E0.71843
G1 X155.567 Y50.671 E0.01706
G1 X139.119 Y34.223 E0.73663
G1 X138.712 Y34.355 E0.01354
G1 X155.567 Y51.210 E0.75484
G1 X155.567 Y51.748 E0.01706
G1 X138.306 Y34.487 E0.77304
G1 X137.899 Y34.619 E0.01354
G1 X155.567 Y52.287 E0.79125
G1 X155.567 Y52.577 E0.00921
G1 X155.463 Y52.721 E0.00562
G1 X137.493 Y34.751 E0.80478
G1 X137.086 Y34.883 E0.01354
G1 X155.236 Y53.033 E0.81284
G1 X155.010 Y53.345 E0.01221
G1 X136.680 Y35.015 E0.82089
G1 X136.273 Y35.147 E0.01354
G1 X154.783 Y53.657 E0.82895
G1 X154.556 Y53.969 E0.01221
G1 X135.867 Y35.279 E0.83700
G1 X135.460 Y35.411 E0.01354
G1 X154.330 Y54.281 E0.84506
G1 X154.103 Y54.593 E0.01221
G1 X153.508 Y53.998 E0.02663
;WIPE_START
G1 F8640.000
G1 X154.103 Y54.593 E-0.19420
G1 X154.330 Y54.281 E-0.08903
G1 X152.870 Y52.821 E-0.47677
;WIPE_END
G1 E-0.04000 F2100.000
G1 Z0.600 F10800.000
G1 X151.731 Y58.146
G1 Z0.200
G1 E0.80000 F2100.000
G1 F1200.000
G1 X151.248 Y57.663 E0.02164
G1 X150.721 Y57.673 E0.01671
G1 X151.505 Y58.458 E0.03512
;WIPE_START
G1 F8640.000
G1 X150.721 Y57.673 E-0.25605
G1 X151.248 Y57.663 E-0.12187
G1 X151.731 Y58.146 E-0.15775
;WIPE_END
G1 E-0.26433 F2100.000
G1 Z0.600 F10800.000
G1 X151.749 Y52.238
G1 Z0.200
G1 E0.80000 F2100.000
G1 F1200.000
G1 X135.054 Y35.543 E0.74767
G1 X134.647 Y35.675 E0.01354
G1 X150.912 Y51.940 E0.72841
G1 X150.421 Y51.988 E0.01562
G1 X134.241 Y35.808 E0.72463
G1 X133.834 Y35.940 E0.01354
G1 X149.994 Y52.099 E0.72370
G1 X149.622 Y52.266 E0.01291
G1 X144.590 Y47.234 E0.22534
G1 X144.642 Y47.404 E0.00562
G1 X144.704 Y47.886 E0.01541
G1 X149.289 Y52.472 E0.20536
G1 X149.136 Y52.575 E0.00586
G1 X148.992 Y52.713 E0.00631
G1 X144.687 Y48.409 E0.19278
G1 X144.597 Y48.856 E0.01447
G1 X148.728 Y52.988 E0.18504
G1 X148.499 Y53.298 E0.01219
G1 X144.455 Y49.253 E0.18113
G1 X144.382 Y49.435 E0.00620
G1 X144.274 Y49.611 E0.00653
G1 X148.319 Y53.656 E0.18115
G1 X148.273 Y53.747 E0.00325
G1 X148.179 Y54.054 E0.01016
G1 X144.059 Y49.935 E0.18448
G1 X143.807 Y50.221 E0.01208
G1 X148.094 Y54.508 E0.19197
G1 X148.070 Y54.689 E0.00578
G1 X148.085 Y55.038 E0.01107
G1 X143.517 Y50.470 E0.20458
G1 X143.358 Y50.598 E0.00646
G1 X143.197 Y50.688 E0.00586
G1 X148.216 Y55.707 E0.22478
G1 X148.375 Y56.104 E0.01355
G1 X148.631 Y56.519 E0.01543
G1 X148.954 Y56.886 E0.01548
G1 X149.339 Y57.195 E0.01564
G1 X149.757 Y57.429 E0.01517
G1 X150.036 Y57.527 E0.00935
G1 X151.157 Y58.648 E0.05020
G1 X150.930 Y58.960 E0.01221
G1 X142.843 Y50.873 E0.36216
G1 X142.445 Y51.014 E0.01337
G1 X150.703 Y59.272 E0.36983
G1 X150.477 Y59.584 E0.01221
G1 X141.991 Y51.098 E0.38004
G1 X141.898 Y51.114 E0.00299
G1 X141.468 Y51.114 E0.01360
G1 X150.246 Y59.901 E0.39332
G1 X149.847 Y60.031 E0.01332
G1 X140.552 Y50.736 E0.41626
;WIPE_START
G1 F8640.000
G1 X142.879 Y53.063 E-0.76000
;WIPE_END
G1 E-0.04000 F2100.000
G1 Z0.600 F10800.000
G1 X142.723 Y45.368
G1 Z0.200
G1 E0.80000 F2100.000
G1 F1200.000
G1 X133.428 Y36.072 E0.41631
M73 P2 R135
M73 Q2 S136
G1 X133.024 Y36.207 E0.01348
G1 X141.813 Y44.995 E0.39358
G1 X141.609 Y44.980 E0.00646
G1 X141.286 Y45.007 E0.01027
G1 X132.797 Y36.519 E0.38016
G1 X132.571 Y36.831 E0.01221
G1 X140.835 Y45.095 E0.37012
G1 X140.613 Y45.153 E0.00727
G1 X140.435 Y45.234 E0.00618
G1 X132.344 Y37.143 E0.36235
G1 X132.118 Y37.455 E0.01221
G1 X140.074 Y45.411 E0.35633
G1 X139.753 Y45.628 E0.01228
G1 X131.891 Y37.766 E0.35209
G1 X131.664 Y38.078 E0.01221
G1 X139.471 Y45.885 E0.34962
M73 Q2 S135
G1 X139.330 Y46.021 E0.00620
G1 X139.218 Y46.171 E0.00593
G1 X131.438 Y38.390 E0.34846
G1 X131.211 Y38.702 E0.01221
G1 X138.996 Y46.487 E0.34864
G1 X138.815 Y46.845 E0.01270
G1 X130.984 Y39.014 E0.35070
G1 X130.758 Y39.326 E0.01221
G1 X138.680 Y47.248 E0.35479
G1 X138.632 Y47.404 E0.00514
G1 X138.594 Y47.701 E0.00951
G1 X130.531 Y39.638 E0.36111
G1 X130.304 Y39.950 E0.01221
G1 X138.579 Y48.225 E0.37058
G1 X138.588 Y48.442 E0.00688
