; generated by PrusaSlicer 2.3.3+win64 on 2022-02-07 at 10:52:57 UTC

; 

; external perimeters extrusion width = 0.45mm
; perimeters extrusion width = 0.45mm
; infill extrusion width = 0.45mm
; solid infill extrusion width = 0.45mm
; top infill extrusion width = 0.40mm
; first layer extrusion width = 0.42mm

M73 P0 R19
M73 Q0 S19
M201 X1000 Y1000 Z200 E8000 ; sets maximum accelerations, mm/sec^2
M203 X200 Y200 Z12 E120 ; sets maximum feedrates, mm/sec
M204 P1250 R1250 T1250 ; sets acceleration (P, T) and retract acceleration (R), mm/sec^2
M205 X8.00 Y8.00 Z0.40 E4.50 ; sets the jerk limits, mm/sec
M205 S0 T0 ; sets the minimum extruding and travel feed rate, mm/sec
M107
;TYPE:Custom
M862.3 P "MK3SMMU2S" ; printer model check
M862.1 P0.4 ; nozzle diameter check
M115 U3.10.0 ; tell printer latest fw version
G90 ; use absolute coordinates
M83 ; extruder relative mode
M104 S215 ; set extruder temp
M140 S60 ; set bed temp
M190 S60 ; wait for bed temp
M109 S215 ; wait for extruder temp
G28 W ; home all without mesh bed level
G80 ; mesh bed leveling

; Send the filament type to the MMU2.0 unit.
; E stands for extruder number, F stands for filament type (0: default; 1:flex; 2: PVA)
M403 E0 F0
M403 E1 F0
M403 E2 F0
M403 E3 F0
M403 E4 F0


;go outside print area
G1 Y-3.0 F1000.0
M73 P1 R18
M73 Q1 S18
G1 Z0.4 F1000.0
; select extruder
T3
; initial load
G1 X55.0 E29.0 F1073.0
G1 X5.0 E29.0 F1800.0
G1 X55.0 E8.0 F2000.0
G1 Z0.3 F1000.0
G92 E0.0
G1 X240.0 E25.0 F2200.0
M73 P2 R18
M73 Q2 S18
G1 Y-2.0 F1000.0
G1 X55.0 E25 F1400.0
M73 P3 R18
M73 Q3 S18
G1 Z0.20 F1000.0
G1 X5.0 E4.0 F1000.0
G92 E0.0


M221 S95
G92 E0.0

; Don't change E values below. Excessive value can damage the printer.
M907 E430 ; set extruder motor current
G21 ; set units to millimeters
G90 ; use absolute coordinates
M83 ; use relative distances for extrusion
T3
M900 K0.05 ; Filament gcode LA 1.5
M900 K30 ; Filament gcode LA 1.0
;LAYER_CHANGE
;Z:0.2
;HEIGHT:0.2
;BEFORE_LAYER_CHANGE
G92 E0.0
;0.2


G1 E-0.80000 F2100.000
G1 Z0.400 F10800.000
;AFTER_LAYER_CHANGE
;0.2
G1 X111.619 Y108.119
G1 Z0.200
G1 E0.80000 F2100.000
M204 S1000
;TYPE:Skirt
;WIDTH:0.42
G1 F1200.000
G1 X129.360 Y95.100 E0.68996
G1 X130.363 Y94.567 E0.03563
G1 X131.336 Y94.232 E0.03227
G1 X132.421 Y94.035 E0.03457
G1 X133.119 Y93.999 E0.02193
G1 X134.647 Y94.171 E0.04821
G1 X135.711 Y94.504 E0.03495
G1 X136.783 Y95.045 E0.03764
G1 X137.614 Y95.652 E0.03226
G1 X138.473 Y96.520 E0.03829
G1 X139.104 Y97.419 E0.03445
G1 X139.600 Y98.440 E0.03560
G1 X139.882 Y99.366 E0.03034
G1 X140.062 Y100.623 E0.03981
G1 X141.243 Y122.871 E0.69856
G1 X141.165 Y124.189 E0.04139
G1 X140.962 Y125.139 E0.03044
G1 X140.631 Y126.038 E0.03006
G1 X139.989 Y127.208 E0.04184
G1 X139.228 Y128.147 E0.03788
G1 X138.315 Y128.951 E0.03814
G1 X137.176 Y129.638 E0.04171
G1 X136.291 Y130.006 E0.03006
G1 X135.354 Y130.246 E0.03031
G1 X134.063 Y130.378 E0.04069
G1 X132.617 Y130.242 E0.04555
G1 X131.654 Y129.991 E0.03121
G1 X130.583 Y129.527 E0.03660
G1 X111.988 Y118.328 E0.68058
G1 X111.007 Y117.440 E0.04151
G1 X110.459 Y116.752 E0.02755
G1 X109.973 Y115.914 E0.03038
G1 X109.535 Y114.717 E0.03998
G1 X109.369 Y113.862 E0.02730
G1 X109.326 Y112.996 E0.02717
G1 X109.455 Y111.769 E0.03870
G1 X109.827 Y110.575 E0.03921
G1 X110.199 Y109.815 E0.02653
G1 X110.697 Y109.081 E0.02782
G1 X111.578 Y108.163 E0.03989
G1 X111.848 Y108.422 F10800.000
G1 F1200.000
G1 X129.562 Y95.419 E0.68899
M73 P4 R18
M73 Q4 S18
G1 X130.516 Y94.911 E0.03387
G1 X131.441 Y94.594 E0.03068
G1 X132.472 Y94.409 E0.03282
G1 X133.119 Y94.376 E0.02032
G1 X134.577 Y94.542 E0.04602
G1 X135.586 Y94.859 E0.03318
G1 X136.594 Y95.371 E0.03544
G1 X137.383 Y95.951 E0.03068
G1 X138.188 Y96.766 E0.03592
G1 X138.786 Y97.621 E0.03271
G1 X139.254 Y98.591 E0.03378
G1 X139.524 Y99.488 E0.02937
G1 X139.685 Y100.649 E0.03675
G1 X140.866 Y122.882 E0.69810
G1 X140.794 Y124.118 E0.03882
G1 X140.599 Y125.037 E0.02945
G1 X140.280 Y125.900 E0.02886
G1 X139.675 Y126.999 E0.03933
G1 X138.956 Y127.885 E0.03577
G1 X138.095 Y128.645 E0.03601
G1 X137.025 Y129.292 E0.03921
G1 X136.168 Y129.649 E0.02910
G1 X135.265 Y129.879 E0.02922
G1 X134.055 Y130.001 E0.03814
G1 X132.704 Y129.875 E0.04253
G1 X131.780 Y129.636 E0.02993
G1 X130.758 Y129.193 E0.03494
G1 X112.211 Y118.023 E0.67885
G1 X111.296 Y117.198 E0.03863
G1 X110.773 Y116.543 E0.02626
G1 X110.311 Y115.746 E0.02889
G1 X109.902 Y114.632 E0.03721
G1 X109.744 Y113.817 E0.02603
G1 X109.703 Y112.988 E0.02603
G1 X109.824 Y111.845 E0.03602
G1 X110.169 Y110.734 E0.03649
G1 X110.523 Y110.008 E0.02531
G1 X110.998 Y109.309 E0.02651
G1 X111.807 Y108.466 E0.03663
; printing object body348 id:1 copy 0
;WIPE_START
G1 F8640.000
G1 X114.459 Y106.517 E-0.76000
;WIPE_END
G1 E-0.04000 F2100.000
G1 Z0.600 F10800.000
G1 X129.849 Y101.927
G1 Z0.200
G1 E0.80000 F2100.000
;TYPE:Perimeter
G1 F1200.000
G1 X129.730 Y101.362 E0.01810
G1 X129.708 Y100.815 E0.01714
G1 X129.774 Y100.271 E0.01721
G1 X129.927 Y99.743 E0.01721
G1 X130.162 Y99.248 E0.01721
G1 X130.459 Y98.818 E0.01637
G1 X130.856 Y98.399 E0.01810
G1 X131.293 Y98.070 E0.01714
G1 X131.779 Y97.815 E0.01721
G1 X132.299 Y97.641 E0.01721
G1 X132.856 Y97.551 E0.01768
G1 X133.129 Y97.541 E0.00857
G1 X133.374 Y97.551 E0.00770
G1 X133.932 Y97.641 E0.01771
G1 X134.452 Y97.815 E0.01721
G1 X134.938 Y98.070 E0.01721
G1 X135.377 Y98.400 E0.01721
G1 X135.757 Y98.796 E0.01721
G1 X136.069 Y99.248 E0.01721
G1 X136.304 Y99.743 E0.01721
G1 X136.457 Y100.271 E0.01721
G1 X136.523 Y100.815 E0.01721
G1 X136.501 Y101.364 E0.01721
G1 X136.391 Y101.902 E0.01721
G1 X136.197 Y102.415 E0.01721
G1 X135.922 Y102.890 E0.01721
G1 X135.575 Y103.315 E0.01721
G1 X135.164 Y103.679 E0.01721
G1 X134.723 Y103.958 E0.01637
G1 X134.194 Y104.188 E0.01810
G1 X133.663 Y104.319 E0.01714
G1 X133.116 Y104.363 E0.01721
G1 X132.568 Y104.319 E0.01721
G1 X132.036 Y104.188 E0.01721
G1 X131.555 Y103.983 E0.01637
G1 X131.065 Y103.678 E0.01810
G1 X130.656 Y103.315 E0.01714
G1 X130.309 Y102.890 E0.01721
G1 X130.034 Y102.415 E0.01721
G1 X129.871 Y101.983 E0.01448
G1 X129.518 Y102.116 F10800.000
;TYPE:External perimeter
G1 F1200.000
G1 X129.354 Y101.409 E0.02278
G1 X129.330 Y100.800 E0.01909
G1 X129.403 Y100.195 E0.01912
G1 X129.573 Y99.609 E0.01912
G1 X129.834 Y99.058 E0.01912
G1 X130.165 Y98.580 E0.01823
G1 X130.604 Y98.116 E0.02001
G1 X131.091 Y97.751 E0.01909
G1 X131.631 Y97.467 E0.01912
G1 X132.209 Y97.274 E0.01912
G1 X132.819 Y97.175 E0.01937
G1 X133.130 Y97.164 E0.00976
G1 X133.412 Y97.175 E0.00887
G1 X134.022 Y97.274 E0.01938
G1 X134.601 Y97.467 E0.01912
G1 X135.140 Y97.751 E0.01912
G1 X135.628 Y98.117 E0.01912
G1 X136.050 Y98.557 E0.01912
G1 X136.397 Y99.058 E0.01912
G1 X136.658 Y99.609 E0.01912
G1 X136.828 Y100.195 E0.01912
G1 X136.901 Y100.800 E0.01912
G1 X136.877 Y101.409 E0.01912
G1 X136.755 Y102.007 E0.01912
G1 X136.538 Y102.577 E0.01912
G1 X136.234 Y103.105 E0.01912
G1 X135.848 Y103.577 E0.01912
G1 X135.392 Y103.982 E0.01912
G1 X134.900 Y104.292 E0.01823
G1 X134.315 Y104.547 E0.02001
G1 X133.723 Y104.692 E0.01909
G1 X133.116 Y104.741 E0.01912
G1 X132.508 Y104.692 E0.01912
G1 X131.916 Y104.546 E0.01912
G1 X131.381 Y104.318 E0.01823
G1 X130.839 Y103.981 E0.02001
G1 X130.383 Y103.577 E0.01909
G1 X129.998 Y103.105 E0.01912
G1 X129.693 Y102.577 E0.01912
G1 X129.539 Y102.173 E0.01356
G1 X129.789 Y101.823 F10800.000
;WIPE_START
G1 F8640.000
G1 X129.354 Y101.409 E-0.18148
G1 X129.330 Y100.800 E-0.14062
G1 X129.403 Y100.195 E-0.14079
G1 X129.573 Y99.609 E-0.14079
G1 X129.834 Y99.058 E-0.14079
G1 X129.873 Y99.003 E-0.01554
;WIPE_END
G1 E-0.04000 F2100.000
G1 Z0.600 F10800.000
G1 X136.060 Y99.492
G1 Z0.200
G1 E0.80000 F2100.000
;TYPE:Solid infill
;WIDTH:0.432618
G1 F1200.000
G1 X135.154 Y98.586 E0.04149
G1 X134.787 Y98.310 E0.01490
G1 X134.341 Y98.076 E0.01630
G1 X133.969 Y97.952 E0.01272
G1 X136.112 Y100.095 E0.09820
G1 X136.179 Y100.327 E0.00784
G1 X136.232 Y100.767 E0.01434
G1 X133.299 Y97.834 E0.13441
G1 X132.879 Y97.834 E0.01363
G1 X132.767 Y97.852 E0.00368
G1 X136.220 Y101.306 E0.15827
G1 X136.130 Y101.767 E0.01522
G1 X132.302 Y97.939 E0.17542
G1 X131.890 Y98.076 E0.01408
G1 X135.986 Y102.173 E0.18772
G1 X135.940 Y102.293 E0.00415
G1 X135.799 Y102.538 E0.00916
G1 X131.528 Y98.266 E0.19574
G1 X131.202 Y98.492 E0.01283
G1 X135.576 Y102.866 E0.20045
G1 X135.321 Y103.162 E0.01266
G1 X130.911 Y98.752 E0.20211
G1 X130.649 Y99.041 E0.01264
G1 X135.029 Y103.421 E0.20074
M73 P5 R18
G1 X134.697 Y103.640 E0.01289
G1 X130.423 Y99.367 E0.19583
M73 Q5 S18
G1 X130.243 Y99.737 E0.01336
G1 X134.327 Y103.822 E0.18717
G1 X134.103 Y103.919 E0.00793
G1 X133.919 Y103.964 E0.00613
G1 X130.104 Y100.149 E0.17484
G1 X130.052 Y100.327 E0.00601
G1 X130.017 Y100.614 E0.00936
G1 X133.455 Y104.052 E0.15755
G1 X133.116 Y104.079 E0.01105
G1 X132.915 Y104.063 E0.00650
G1 X130.005 Y101.152 E0.13339
G1 X130.012 Y101.327 E0.00565
G1 X130.114 Y101.813 E0.01612
G1 X132.250 Y103.949 E0.09788
G1 X132.125 Y103.918 E0.00417
G1 X131.686 Y103.731 E0.01547
G1 X131.235 Y103.450 E0.01723
G1 X130.931 Y103.181 E0.01315
G1 X130.166 Y102.415 E0.03508
; stop printing object body348 id:1 copy 0
; printing object body348 id:0 copy 0
;WIPE_START
G1 F8640.000
G1 X130.931 Y103.181 E-0.25000
G1 X131.235 Y103.450 E-0.09374
G1 X131.686 Y103.731 E-0.12278
G1 X132.125 Y103.918 E-0.11021
G1 X132.250 Y103.949 E-0.02972
G1 X131.780 Y103.479 E-0.15356
;WIPE_END
G1 E-0.04000 F2100.000
G1 Z0.600 F10800.000
G1 X118.119 Y111.205
G1 Z0.200
G1 E0.80000 F2100.000
;TYPE:Perimeter
;WIDTH:0.42
G1 F1200.000
G1 X118.390 Y111.597 E0.01494
G1 X118.584 Y112.008 E0.01424
G1 X118.727 Y112.487 E0.01568
G1 X118.784 Y112.958 E0.01488
G1 X118.765 Y113.434 E0.01494
G1 X118.669 Y113.901 E0.01494
G1 X118.500 Y114.346 E0.01494
G1 X118.262 Y114.759 E0.01494
G1 X117.961 Y115.128 E0.01494
G1 X117.604 Y115.444 E0.01494
G1 X117.202 Y115.699 E0.01494
G1 X116.763 Y115.885 E0.01494
G1 X116.301 Y115.999 E0.01494
G1 X115.826 Y116.038 E0.01494
G1 X115.351 Y115.999 E0.01494
G1 X114.888 Y115.885 E0.01494
G1 X114.450 Y115.699 E0.01494
G1 X114.047 Y115.444 E0.01494
G1 X113.691 Y115.128 E0.01494
G1 X113.389 Y114.759 E0.01494
G1 X113.151 Y114.346 E0.01494
G1 X112.982 Y113.901 E0.01494
G1 X112.887 Y113.434 E0.01494
G1 X112.868 Y112.958 E0.01494
G1 X112.925 Y112.485 E0.01494
G1 X113.058 Y112.028 E0.01494
G1 X113.262 Y111.597 E0.01494
G1 X113.533 Y111.205 E0.01494
G1 X113.863 Y110.861 E0.01494
G1 X114.244 Y110.575 E0.01494
G1 X114.665 Y110.354 E0.01494
G1 X115.117 Y110.203 E0.01494
G1 X115.602 Y110.124 E0.01541
G1 X116.048 Y110.124 E0.01398
G1 X116.534 Y110.203 E0.01544
G1 X116.986 Y110.354 E0.01494
G1 X117.408 Y110.575 E0.01494
G1 X117.789 Y110.861 E0.01494
G1 X118.077 Y111.162 E0.01306
G1 X118.349 Y110.901 F10800.000
;TYPE:External perimeter
G1 F1200.000
G1 X118.717 Y111.408 E0.01965
G1 X118.937 Y111.872 E0.01611
G1 X119.097 Y112.410 E0.01759
G1 X119.162 Y112.943 E0.01683
G1 X119.140 Y113.480 E0.01685
G1 X119.033 Y114.006 E0.01685
G1 X118.842 Y114.509 E0.01685
G1 X118.573 Y114.974 E0.01685
G1 X118.234 Y115.390 E0.01685
G1 X117.831 Y115.746 E0.01685
G1 X117.377 Y116.034 E0.01685
G1 X116.883 Y116.244 E0.01685
G1 X116.361 Y116.373 E0.01685
G1 X115.826 Y116.416 E0.01685
G1 X115.290 Y116.373 E0.01685
G1 X114.769 Y116.244 E0.01685
G1 X114.274 Y116.034 E0.01685
G1 X113.820 Y115.746 E0.01685
G1 X113.418 Y115.390 E0.01685
G1 X113.078 Y114.974 E0.01685
G1 X112.809 Y114.509 E0.01685
G1 X112.619 Y114.006 E0.01685
G1 X112.511 Y113.480 E0.01685
G1 X112.490 Y112.943 E0.01685
G1 X112.555 Y112.410 E0.01685
G1 X112.704 Y111.893 E0.01685
G1 X112.934 Y111.408 E0.01685
G1 X113.240 Y110.966 E0.01685
G1 X113.612 Y110.578 E0.01685
G1 X114.041 Y110.256 E0.01685
G1 X114.517 Y110.006 E0.01685
G1 X115.027 Y109.836 E0.01685
G1 X115.565 Y109.748 E0.01710
G1 X116.086 Y109.748 E0.01634
G1 X116.625 Y109.836 E0.01711
G1 X117.134 Y110.006 E0.01685
G1 X117.610 Y110.256 E0.01685
G1 X118.040 Y110.578 E0.01685
G1 X118.308 Y110.857 E0.01213
G1 X118.214 Y111.277 F10800.000
;WIPE_START
G1 F8640.000
G1 X118.717 Y111.408 E-0.15845
G1 X118.937 Y111.872 E-0.11866
G1 X119.097 Y112.410 E-0.12956
G1 X119.162 Y112.943 E-0.12391
G1 X119.140 Y113.480 E-0.12406
G1 X119.049 Y113.927 E-0.10536
;WIPE_END
G1 E-0.04000 F2100.000
G1 Z0.600 F10800.000
G1 X118.394 Y111.870
G1 Z0.200
G1 E0.80000 F2100.000
;TYPE:Solid infill
;WIDTH:0.424638
G1 F1200.000
G1 X117.589 Y111.065 E0.03613
G1 X117.256 Y110.815 E0.01320
G1 X116.875 Y110.615 E0.01367
G1 X116.462 Y110.478 E0.01382
G1 X118.415 Y112.431 E0.08767
G1 X118.449 Y112.545 E0.00377
G1 X118.497 Y113.053 E0.01619
G1 X115.851 Y110.407 E0.11876
G1 X115.625 Y110.407 E0.00717
G1 X115.355 Y110.451 E0.00868
G1 X118.453 Y113.548 E0.13903
M73 P5 R17
G1 X118.397 Y113.822 E0.00887
G1 X118.339 Y113.974 E0.00517
G1 X114.929 Y110.564 E0.15308
G1 X114.777 Y110.615 E0.00509
G1 X114.556 Y110.731 E0.00792
G1 X118.173 Y114.348 E0.16237
G1 X117.963 Y114.678 E0.01241
G1 X114.227 Y110.942 E0.16772
G1 X114.051 Y111.074 E0.00698
G1 X113.937 Y111.192 E0.00521
G1 X117.714 Y114.969 E0.16953
G1 X117.427 Y115.222 E0.01214
G1 X113.686 Y111.481 E0.16791
G1 X113.475 Y111.809 E0.01240
G1 X117.096 Y115.431 E0.16256
G1 X117.070 Y115.447 E0.00099
G1 X116.721 Y115.596 E0.01202
G1 X113.308 Y112.182 E0.15324
G1 X113.195 Y112.609 E0.01403
G1 X116.295 Y115.709 E0.13916
G1 X115.798 Y115.752 E0.01585
G1 X113.157 Y113.111 E0.11853
G1 X113.169 Y113.400 E0.00918
G1 X113.236 Y113.730 E0.01069
G1 X115.170 Y115.663 E0.08679
G1 X114.978 Y115.616 E0.00625
G1 X114.582 Y115.447 E0.01367
G1 X114.218 Y115.217 E0.01367
G1 X113.917 Y114.950 E0.01278
G1 X113.247 Y114.281 E0.03003
; stop printing object body348 id:0 copy 0
; printing object body348 id:2 copy 0
;WIPE_START
G1 F8640.000
G1 X113.917 Y114.950 E-0.21847
G1 X114.218 Y115.217 E-0.09295
G1 X114.582 Y115.447 E-0.09946
G1 X114.978 Y115.616 E-0.09946
G1 X115.170 Y115.663 E-0.04550
G1 X114.544 Y115.038 E-0.20416
;WIPE_END
G1 E-0.04000 F2100.000
G1 Z0.600 F10800.000
G1 X130.524 Y121.809
G1 Z0.200
G1 E0.80000 F2100.000
;TYPE:Perimeter
;WIDTH:0.42
G1 F1200.000
G1 X130.767 Y121.297 E0.01778
G1 X131.120 Y120.777 E0.01972
G1 X131.533 Y120.348 E0.01866
G1 X132.010 Y119.989 E0.01872
G1 X132.539 Y119.711 E0.01872
G1 X133.105 Y119.522 E0.01872
G1 X133.709 Y119.424 E0.01919
G1 X134.008 Y119.413 E0.00938
G1 X134.276 Y119.424 E0.00840
G1 X134.881 Y119.522 E0.01922
G1 X135.447 Y119.711 E0.01872
G1 X135.976 Y119.989 E0.01872
G1 X136.453 Y120.348 E0.01872
G1 X136.867 Y120.778 E0.01872
G1 X137.206 Y121.270 E0.01872
G1 X137.462 Y121.809 E0.01872
G1 X137.628 Y122.383 E0.01872
G1 X137.700 Y122.975 E0.01872
G1 X137.676 Y123.572 E0.01872
G1 X137.557 Y124.157 E0.01872
G1 X137.345 Y124.715 E0.01872
G1 X137.047 Y125.233 E0.01872
G1 X136.669 Y125.695 E0.01872
G1 X136.222 Y126.091 E0.01872
G1 X135.717 Y126.410 E0.01872
G1 X135.168 Y126.644 E0.01872
G1 X134.588 Y126.787 E0.01872
G1 X133.993 Y126.835 E0.01872
G1 X133.398 Y126.787 E0.01872
G1 X132.818 Y126.644 E0.01872
G1 X132.269 Y126.410 E0.01872
G1 X131.764 Y126.091 E0.01872
G1 X131.317 Y125.695 E0.01872
G1 X130.940 Y125.233 E0.01872
G1 X130.641 Y124.715 E0.01872
G1 X130.440 Y124.185 E0.01778
G1 X130.310 Y123.570 E0.01972
G1 X130.286 Y122.975 E0.01866
G1 X130.358 Y122.383 E0.01872
G1 X130.507 Y121.867 E0.01684
G1 X130.145 Y121.762 F10800.000
;TYPE:External perimeter
G1 F1200.000
G1 X130.170 Y121.675 E0.00284
G1 X130.439 Y121.109 E0.01965
G1 X130.826 Y120.538 E0.02163
G1 X131.282 Y120.064 E0.02061
G1 X131.808 Y119.669 E0.02063
G1 X132.390 Y119.363 E0.02063
G1 X133.015 Y119.155 E0.02063
G1 X133.672 Y119.048 E0.02088
G1 X134.314 Y119.048 E0.02013
G1 X134.972 Y119.155 E0.02089
G1 X135.596 Y119.363 E0.02063
G1 X136.178 Y119.669 E0.02063
G1 X136.704 Y120.064 E0.02063
G1 X137.160 Y120.539 E0.02063
G1 X137.534 Y121.081 E0.02063
G1 X137.816 Y121.675 E0.02063
G1 X137.999 Y122.307 E0.02063
G1 X138.078 Y122.960 E0.02063
G1 X138.052 Y123.618 E0.02063
G1 X137.920 Y124.262 E0.02063
G1 X137.687 Y124.878 E0.02063
G1 X137.358 Y125.448 E0.02063
G1 X136.942 Y125.957 E0.02063
G1 X136.449 Y126.394 E0.02063
G1 X135.893 Y126.745 E0.02063
G1 X135.288 Y127.003 E0.02063
