; generated by PrusaSlicer 2.3.3+win64 on 2022-02-02 at 13:36:11 UTC

; 

; external perimeters extrusion width = 0.45mm
; perimeters extrusion width = 0.45mm
; infill extrusion width = 0.45mm
; solid infill extrusion width = 0.45mm
; top infill extrusion width = 0.40mm
; first layer extrusion width = 0.42mm

; external perimeters extrusion width = 0.45mm
; perimeters extrusion width = 0.45mm
; infill extrusion width = 0.45mm
; solid infill extrusion width = 0.45mm
; top infill extrusion width = 0.40mm
; first layer extrusion width = 0.42mm

M73 P0 R88
M73 Q0 S88
M201 X1000 Y1000 Z200 E8000 ; sets maximum accelerations, mm/sec^2
M203 X200 Y200 Z12 E120 ; sets maximum feedrates, mm/sec
M204 P1250 R1250 T1250 ; sets acceleration (P, T) and retract acceleration (R), mm/sec^2
M205 X8.00 Y8.00 Z0.40 E4.50 ; sets the jerk limits, mm/sec
M205 S0 T0 ; sets the minimum extruding and travel feed rate, mm/sec
M107
;TYPE:Custom
M862.3 P "MK3SMMU2S" ; printer model check
M862.1 P0.4 ; nozzle diameter check
M115 U3.10.0 ; tell printer latest fw version
G90 ; use absolute coordinates
M83 ; extruder relative mode
M104 S215 ; set extruder temp
M140 S60 ; set bed temp
M190 S60 ; wait for bed temp
M109 S215 ; wait for extruder temp
G28 W ; home all without mesh bed level
G80 ; mesh bed leveling

; Send the filament type to the MMU2.0 unit.
; E stands for extruder number, F stands for filament type (0: default; 1:flex; 2: PVA)
M403 E0 F0
M403 E1 F0
M403 E2 F0
M403 E3 F0
M403 E4 F0


;go outside print area
G1 Y-3.0 F1000.0
M73 P0 R87
G1 Z0.4 F1000.0
; select extruder
T1
; initial load
G1 X55.0 E29.0 F1073.0
G1 X5.0 E29.0 F1800.0
G1 X55.0 E8.0 F2000.0
G1 Z0.3 F1000.0
G92 E0.0
G1 X240.0 E25.0 F2200.0
G1 Y-2.0 F1000.0
G1 X55.0 E25 F1400.0
G1 Z0.20 F1000.0
G1 X5.0 E4.0 F1000.0
G92 E0.0


M221 S95
G92 E0.0

; Don't change E values below. Excessive value can damage the printer.

M907 E538 ; set extruder motor current
G21 ; set units to millimeters
G90 ; use absolute coordinates
M83 ; use relative distances for extrusion
T1
M900 K0.05 ; Filament gcode LA 1.5
M900 K30 ; Filament gcode LA 1.0
M73 Q0 S87
G1 Z0.200 F10800.000
;LAYER_CHANGE
;Z:0.2
;HEIGHT:0.2
;BEFORE_LAYER_CHANGE
G92 E0.0
;0.2


G1 E-0.80000 F2100.000
G1 Z0.600 F10800.000
G1 Z0.200
;AFTER_LAYER_CHANGE
;0.2
G1 E-1.20000 F2100.000
G1 Z0.600 F10800.000
G1 X239.372 Y14.923
G1 Z0.200
G1 E2.00000 F2100.000
;HEIGHT:0.200000
;TYPE:Wipe tower
;WIDTH:0.500000
;-------------------------------------
; CP WIPE TOWER FIRST LAYER BRIM START
G1  X239.372 Y107.983  E5.3053 F2400
G1  X236.829 Y108.440   F7000
G1  Y14.466  E3.9288 F2100
G1  X175.915  E2.5466
G1  Y108.440  E3.9288
G1  X236.829  E2.5466
G1  X237.286 Y108.897   F7000
G1  Y14.009  E3.9670 F2100
M73 P1 R87
M73 Q1 S87
G1  X175.458  E2.5849
G1  Y108.897  E3.9670
G1  X237.286  E2.5849
G1  X237.743 Y109.354   F7000
G1  Y13.552  E4.0052 F2100
G1  X175.001  E2.6231
G1  Y109.354  E4.0052
G1  X237.743  E2.6231
G1  X238.200 Y109.811   F7000
G1  Y13.095  E4.0434 F2100
M73 P1 R86
G1  X174.544  E2.6613
G1  Y109.811  E4.0434
G1  X238.200  E2.6613
; CP WIPE TOWER FIRST LAYER BRIM END
;-----------------------------------

;WIPE_START
G1 F8640.000
G1 X237.743 Y109.355 E-0.14926
G1 X235.098 Y109.355 E-0.61074
;WIPE_END
G1 E-0.04000 F2100.000
G1 Z0.600 F10800.000
G1 X238.822 Y111.803
G1 Z0.200
G1 E0.80000 F2100.000
M204 S1000
;TYPE:Skirt
;WIDTH:0.42
;HEIGHT:0.2
G1 F1200.000
G1 X237.992 Y111.960 E0.02649
G1 X174.438 Y111.937 E1.99268
G1 X173.856 Y111.777 E0.01894
G1 X140.921 Y97.949 E1.11997
G1 X140.461 Y97.689 E0.01657
G1 X140.069 Y97.334 E0.01657
G1 X134.566 Y89.777 E0.29314
G1 X134.231 Y89.096 E0.02378
G1 X134.127 Y88.429 E0.02119
G1 X134.127 Y79.292 E0.28646
G1 X134.287 Y78.447 E0.02696
G1 X172.718 Y12.128 E2.40331
G1 X173.199 Y11.542 E0.02378
G1 X173.922 Y11.104 E0.02649
G1 X174.752 Y10.947 E0.02649
G1 X237.976 Y10.947 E1.98233
G1 X238.878 Y11.126 E0.02884
G1 X239.641 Y11.632 E0.02872
G1 X240.157 Y12.389 E0.02872
G1 X240.349 Y13.285 E0.02872
G1 X240.349 Y109.602 E3.01998
M73 Q1 S86
G1 X240.293 Y110.097 E0.01562
G1 X240.135 Y110.570 E0.01562
G1 X239.882 Y110.999 E0.01562
G1 X239.545 Y111.365 E0.01562
G1 X238.873 Y111.772 E0.02461
; printing object body908 id:0 copy 0
;WIPE_START
G1 F8640.000
G1 X237.992 Y111.960 E-0.20812
G1 X235.602 Y111.959 E-0.55188
;WIPE_END
G1 E-0.04000 F2100.000
G1 Z0.600 F10800.000
G1 X153.835 Y85.191
G1 Z0.200
G1 E0.80000 F2100.000
;TYPE:Perimeter
G1 F1200.000
G1 X153.561 Y85.735 E0.01909
G1 X153.199 Y86.224 E0.01909
G1 X152.759 Y86.646 E0.01909
G1 X152.255 Y86.987 E0.01909
G1 X151.731 Y87.224 E0.01804
G1 X151.114 Y87.391 E0.02004
G1 X150.504 Y87.442 E0.01918
G1 X149.897 Y87.391 E0.01909
G1 X149.308 Y87.237 E0.01909
G1 X148.753 Y86.987 E0.01909
G1 X148.249 Y86.646 E0.01909
G1 X147.833 Y86.247 E0.01804
G1 X147.449 Y85.737 E0.02004
G1 X147.173 Y85.191 E0.01918
G1 X146.995 Y84.609 E0.01909
G1 X146.917 Y84.005 E0.01909
G1 X146.943 Y83.397 E0.01909
G1 X147.072 Y82.801 E0.01909
G1 X147.299 Y82.236 E0.01909
G1 X147.618 Y81.718 E0.01909
G1 X148.020 Y81.261 E0.01909
G1 X148.494 Y80.878 E0.01909
G1 X149.025 Y80.581 E0.01909
G1 X149.601 Y80.378 E0.01914
G1 X150.222 Y80.275 E0.01972
G1 X150.813 Y80.276 E0.01856
G1 X151.409 Y80.378 E0.01894
G1 X151.983 Y80.581 E0.01909
G1 X152.514 Y80.878 E0.01909
G1 X152.988 Y81.261 E0.01909
G1 X153.390 Y81.718 E0.01909
G1 X153.710 Y82.236 E0.01909
G1 X153.937 Y82.801 E0.01909
G1 X154.065 Y83.397 E0.01909
G1 X154.091 Y84.005 E0.01909
G1 X154.014 Y84.609 E0.01909
G1 X153.853 Y85.134 E0.01721
G1 X153.492 Y85.023 F10800.000
;TYPE:External perimeter
G1 F1200.000
G1 X153.239 Y85.536 E0.01794
G1 X152.915 Y85.974 E0.01708
G1 X152.522 Y86.351 E0.01708
G1 X152.070 Y86.656 E0.01708
G1 X151.603 Y86.868 E0.01609
G1 X151.048 Y87.018 E0.01802
G1 X150.504 Y87.064 E0.01711
G1 X149.961 Y87.018 E0.01708
G1 X149.434 Y86.881 E0.01708
G1 X148.938 Y86.656 E0.01708
G1 X148.487 Y86.351 E0.01708
G1 X148.116 Y85.996 E0.01609
G1 X147.770 Y85.537 E0.01802
G1 X147.524 Y85.050 E0.01711
G1 X147.365 Y84.529 E0.01708
G1 X147.296 Y83.989 E0.01708
G1 X147.319 Y83.445 E0.01708
G1 X147.433 Y82.912 E0.01708
G1 X147.637 Y82.407 E0.01708
G1 X147.922 Y81.943 E0.01708
G1 X148.282 Y81.534 E0.01708
G1 X148.706 Y81.192 E0.01708
G1 X149.181 Y80.926 E0.01708
G1 X149.696 Y80.744 E0.01710
G1 X150.252 Y80.652 E0.01769
G1 X150.781 Y80.653 E0.01658
G1 X151.313 Y80.745 E0.01694
G1 X151.827 Y80.926 E0.01708
G1 X152.303 Y81.192 E0.01708
G1 X152.726 Y81.534 E0.01708
G1 X153.086 Y81.943 E0.01708
G1 X153.372 Y82.407 E0.01708
G1 X153.575 Y82.912 E0.01708
G1 X153.690 Y83.445 E0.01708
G1 X153.713 Y83.989 E0.01708
G1 X153.644 Y84.529 E0.01708
G1 X153.510 Y84.966 E0.01432
G1 X153.741 Y85.336 F10800.000
;WIPE_START
G1 F8640.000
G1 X153.239 Y85.536 E-0.14582
G1 X152.915 Y85.974 E-0.12577
G1 X152.522 Y86.351 E-0.12578
G1 X152.070 Y86.656 E-0.12577
G1 X151.603 Y86.868 E-0.11848
G1 X151.108 Y87.002 E-0.11838
;WIPE_END
G1 E-0.04000 F2100.000
G1 Z0.600 F10800.000
G1 X156.147 Y80.621
G1 Z0.200
G1 E0.80000 F2100.000
;TYPE:Perimeter
G1 F1200.000
G1 X155.816 Y80.303 E0.01438
G1 X155.545 Y79.937 E0.01430
G1 X155.339 Y79.529 E0.01430
G1 X155.206 Y79.093 E0.01432
G1 X155.148 Y78.640 E0.01430
G1 X155.167 Y78.184 E0.01430
G1 X155.263 Y77.739 E0.01428
G1 X155.427 Y77.330 E0.01381
G1 X155.672 Y76.928 E0.01478
G1 X155.975 Y76.584 E0.01435
G1 X156.330 Y76.298 E0.01431
G1 X156.727 Y76.076 E0.01426
G1 X157.157 Y75.924 E0.01430
G1 X157.607 Y75.847 E0.01430
G1 X158.030 Y75.847 E0.01326
G1 X158.509 Y75.923 E0.01521
G1 X158.942 Y76.076 E0.01442
G1 X159.341 Y76.299 E0.01430
G1 X159.695 Y76.585 E0.01430
G1 X159.997 Y76.928 E0.01430
G1 X160.236 Y77.316 E0.01430
G1 X160.406 Y77.740 E0.01432
G1 X160.502 Y78.186 E0.01431
G1 X160.521 Y78.641 E0.01430
G1 X160.463 Y79.096 E0.01436
G1 X160.322 Y79.548 E0.01486
G1 X160.113 Y79.954 E0.01431
G1 X159.853 Y80.304 E0.01369
G1 X159.538 Y80.606 E0.01368
G1 X159.148 Y80.874 E0.01484
G1 X158.731 Y81.062 E0.01435
G1 X158.289 Y81.177 E0.01430
G1 X157.835 Y81.216 E0.01430
G1 X157.380 Y81.177 E0.01430
G1 X156.939 Y81.062 E0.01430
G1 X156.544 Y80.884 E0.01358
G1 X156.197 Y80.654 E0.01305
G1 X156.406 Y80.340 F10800.000
;TYPE:External perimeter
G1 F1200.000
G1 X156.100 Y80.053 E0.01313
G1 X155.867 Y79.738 E0.01229
G1 X155.691 Y79.388 E0.01229
G1 X155.576 Y79.013 E0.01231
G1 X155.526 Y78.624 E0.01229
G1 X155.543 Y78.232 E0.01229
G1 X155.625 Y77.850 E0.01228
G1 X155.765 Y77.499 E0.01183
G1 X155.977 Y77.152 E0.01275
G1 X156.236 Y76.858 E0.01231
G1 X156.542 Y76.611 E0.01230
G1 X156.883 Y76.421 E0.01225
G1 X157.252 Y76.290 E0.01229
G1 X157.639 Y76.224 E0.01229
G1 X158.000 Y76.224 E0.01133
G1 X158.416 Y76.290 E0.01320
G1 X158.786 Y76.421 E0.01233
G1 X159.129 Y76.612 E0.01229
G1 X159.434 Y76.858 E0.01229
G1 X159.693 Y77.153 E0.01229
G1 X159.898 Y77.486 E0.01229
G1 X160.044 Y77.850 E0.01230
G1 X160.127 Y78.234 E0.01229
G1 X160.143 Y78.625 E0.01229
G1 X160.093 Y79.015 E0.01231
G1 X159.972 Y79.404 E0.01280
G1 X159.792 Y79.754 E0.01232
G1 X159.569 Y80.054 E0.01173
G1 X159.300 Y80.313 E0.01171
G1 X158.962 Y80.544 E0.01282
G1 X158.604 Y80.705 E0.01231
G1 X158.225 Y80.804 E0.01229
G1 X157.835 Y80.837 E0.01229
G1 X157.444 Y80.804 E0.01229
G1 X157.065 Y80.705 E0.01229
G1 X156.727 Y80.553 E0.01162
G1 X156.456 Y80.373 E0.01022
G1 X156.034 Y80.487 F10800.000
;WIPE_START
G1 F8640.000
G1 X156.100 Y80.053 E-0.11036
G1 X155.867 Y79.738 E-0.09050
G1 X155.691 Y79.388 E-0.09050
G1 X155.576 Y79.013 E-0.09065
G1 X155.526 Y78.624 E-0.09048
G1 X155.543 Y78.232 E-0.09052
G1 X155.625 Y77.850 E-0.09042
G1 X155.765 Y77.499 E-0.08709
G1 X155.809 Y77.427 E-0.01948
;WIPE_END
G1 E-0.04000 F2100.000
G1 Z0.600 F10800.000
G1 X163.717 Y79.559
G1 Z0.200
G1 E0.80000 F2100.000
;TYPE:Perimeter
G1 F1200.000
G1 X163.717 Y88.146 E0.26922
G1 X158.670 Y95.092 E0.26922
G1 X150.504 Y97.745 E0.26922
M73 Q2 S86
G1 X142.338 Y95.092 E0.26922
G1 X137.291 Y88.146 E0.26922
M73 P2 R86
G1 X137.291 Y79.559 E0.26922
G1 X142.338 Y72.613 E0.26922
G1 X150.504 Y69.960 E0.26922
G1 X158.670 Y72.613 E0.26922
G1 X163.682 Y79.511 E0.26734
G1 X164.094 Y79.437 F10800.000
;TYPE:External perimeter
G1 F1200.000
G1 X164.094 Y88.268 E0.27690
G1 X158.903 Y95.413 E0.27690
G1 X150.504 Y98.142 E0.27690
G1 X142.105 Y95.413 E0.27690
G1 X136.914 Y88.268 E0.27690
G1 X136.914 Y79.437 E0.27690
G1 X142.105 Y72.292 E0.27690
G1 X150.504 Y69.563 E0.27690
G1 X158.903 Y72.292 E0.27690
G1 X164.059 Y79.388 E0.27502
G1 X163.827 Y79.734 F10800.000
;WIPE_START
G1 F8640.000
G1 X164.072 Y82.680 E-0.76000
;WIPE_END
G1 E-0.04000 F2100.000
G1 Z0.600 F10800.000
G1 X160.660 Y75.544
G1 Z0.200
G1 E0.80000 F2100.000
;TYPE:Solid infill
;WIDTH:0.421363
G1 F1200.000
G1 X157.716 Y72.600 E0.13099
G1 X156.924 Y72.343 E0.02623
G1 X161.315 Y76.734 E0.19542
G1 X162.737 Y78.691 E0.07613
G1 X156.131 Y72.085 E0.29398
G1 X155.338 Y71.828 E0.02623
G1 X163.434 Y79.924 E0.36030
G1 X163.434 Y80.459 E0.01684
G1 X160.690 Y77.715 E0.12212
G1 X160.784 Y78.150 E0.01399
G1 X160.792 Y78.352 E0.00638
G1 X163.434 Y80.994 E0.11757
G1 X163.434 Y81.530 E0.01684
G1 X160.777 Y78.872 E0.11826
G1 X160.741 Y79.156 E0.00901
G1 X160.689 Y79.320 E0.00539
G1 X163.434 Y82.065 E0.12215
G1 X163.434 Y82.600 E0.01684
G1 X160.552 Y79.718 E0.12825
G1 X160.370 Y80.071 E0.01251
G1 X163.434 Y83.135 E0.13635
G1 X163.434 Y83.670 E0.01684
G1 X160.147 Y80.383 E0.14631
G1 X160.066 Y80.491 E0.00427
G1 X159.890 Y80.661 E0.00769
G1 X163.434 Y84.206 E0.15774
G1 X163.434 Y84.741 E0.01684
G1 X159.600 Y80.907 E0.17062
G1 X159.282 Y81.123 E0.01212
G1 X163.434 Y85.276 E0.18480
G1 X163.434 Y85.811 E0.01684
G1 X158.913 Y81.290 E0.20120
G1 X158.825 Y81.330 E0.00304
G1 X158.502 Y81.414 E0.01051
G1 X163.434 Y86.346 E0.21950
G1 X163.434 Y86.882 E0.01684
G1 X158.035 Y81.483 E0.24026
G1 X157.835 Y81.500 E0.00634
G1 X157.488 Y81.470 E0.01096
G1 X163.604 Y87.586 E0.27219
;WIPE_START
G1 F8640.000
G1 X161.277 Y85.259 E-0.76000
;WIPE_END
G1 E-0.04000 F2100.000
G1 Z0.600 F10800.000
G1 X158.925 Y75.950
G1 Z0.200
G1 E0.80000 F2100.000
G1 F1200.000
G1 X154.545 Y71.570 E0.19493
G1 X153.752 Y71.312 E0.02623
G1 X158.004 Y75.564 E0.18922
G1 X157.583 Y75.564 E0.01327
G1 X157.486 Y75.581 E0.00309
G1 X152.960 Y71.055 E0.20142
G1 X152.167 Y70.797 E0.02623
G1 X157.036 Y75.667 E0.21671
G1 X156.641 Y75.807 E0.01320
G1 X151.374 Y70.540 E0.23439
G1 X150.581 Y70.282 E0.02623
G1 X156.293 Y75.994 E0.25421
G1 X156.171 Y76.063 E0.00441
G1 X155.980 Y76.216 E0.00771
G1 X150.139 Y70.376 E0.25993
G1 X149.736 Y70.507 E0.01337
G1 X155.699 Y76.470 E0.26537
G1 X155.448 Y76.754 E0.01193
G1 X149.332 Y70.638 E0.27219
G1 X148.928 Y70.769 E0.01337
G1 X155.244 Y77.086 E0.28111
G1 X155.173 Y77.203 E0.00431
G1 X155.074 Y77.451 E0.00840
G1 X148.524 Y70.901 E0.29151
G1 X148.120 Y71.032 E0.01337
G1 X154.948 Y77.860 E0.30387
G1 X154.886 Y78.148 E0.00928
G1 X154.878 Y78.325 E0.00558
G1 X147.716 Y71.163 E0.31874
G1 X147.312 Y71.294 E0.01337
G1 X155.089 Y79.071 E0.34610
;WIPE_START
G1 F8640.000
G1 X152.762 Y76.744 E-0.76000
;WIPE_END
G1 E-0.04000 F2100.000
G1 Z0.600 F10800.000
G1 X146.773 Y71.291
G1 Z0.200
G1 E0.80000 F2100.000
G1 F1200.000
G1 X155.058 Y79.575 E0.36868
G1 X155.303 Y80.085 E0.01781
G1 X155.603 Y80.491 E0.01587
G1 X155.970 Y80.842 E0.01599
G1 X156.407 Y81.132 E0.01650
G1 X156.786 Y81.303 E0.01308
G1 X163.434 Y87.952 E0.29587
G1 X163.434 Y88.054 E0.00321
G1 X163.252 Y88.305 E0.00976
G1 X146.504 Y71.557 E0.74532
G1 X146.100 Y71.688 E0.01337
G1 X163.027 Y88.615 E0.75327
G1 X162.802 Y88.925 E0.01206
G1 X145.696 Y71.819 E0.76123
G1 X145.292 Y71.951 E0.01337
G1 X162.576 Y89.235 E0.76918
G1 X162.351 Y89.545 E0.01206
G1 X144.888 Y72.082 E0.77714
M73 P2 R85
G1 X144.484 Y72.213 E0.01337
G1 X162.126 Y89.855 E0.78509
G1 X161.901 Y90.165 E0.01206
M73 P3 R85
M73 Q3 S85
G1 X154.043 Y82.307 E0.34969
G1 X153.963 Y82.109 E0.00672
G1 X153.619 Y81.549 E0.02068
G1 X153.185 Y81.056 E0.02068
G1 X152.673 Y80.643 E0.02068
G1 X152.036 Y80.300 E0.02277
G1 X144.080 Y72.344 E0.35405
G1 X143.676 Y72.476 E0.01337
G1 X151.268 Y80.067 E0.33785
G1 X150.838 Y79.994 E0.01374
G1 X150.659 Y79.993 E0.00563
G1 X143.272 Y72.607 E0.32871
G1 X142.868 Y72.738 E0.01337
G1 X150.133 Y80.003 E0.32331
G1 X149.674 Y80.079 E0.01465
G1 X142.486 Y72.891 E0.31990
G1 X142.261 Y73.201 E0.01206
G1 X149.259 Y80.199 E0.31143
G1 X148.869 Y80.345 E0.01309
G1 X142.035 Y73.511 E0.30412
G1 X141.810 Y73.821 E0.01206
G1 X148.526 Y80.536 E0.29886
G1 X148.335 Y80.643 E0.00688
G1 X148.204 Y80.749 E0.00531
G1 X141.585 Y74.131 E0.29454
G1 X141.360 Y74.441 E0.01206
G1 X147.907 Y80.988 E0.29138
G1 X147.824 Y81.056 E0.00338
G1 X147.644 Y81.260 E0.00856
G1 X141.135 Y74.751 E0.28968
G1 X140.909 Y75.061 E0.01206
G1 X147.394 Y81.545 E0.28856
G1 X147.189 Y81.875 E0.01223
G1 X140.684 Y75.371 E0.28947
G1 X140.459 Y75.681 E0.01206
G1 X147.000 Y82.221 E0.29108
G1 X146.846 Y82.603 E0.01295
G1 X140.234 Y75.991 E0.29428
G1 X140.009 Y76.301 E0.01206
G1 X146.734 Y83.026 E0.29929
G1 X146.662 Y83.361 E0.01077
G1 X146.657 Y83.484 E0.00388
G1 X139.783 Y76.611 E0.30587
G1 X139.558 Y76.921 E0.01206
G1 X146.635 Y83.997 E0.31493
G1 X146.709 Y84.607 E0.01934
G1 X139.211 Y77.109 E0.33368
;WIPE_START
G1 F8640.000
G1 X141.539 Y79.436 E-0.76000
;WIPE_END
G1 E-0.04000 F2100.000
G1 Z0.600 F10800.000
G1 X161.797 Y90.596
G1 Z0.200
G1 E0.80000 F2100.000
G1 F1200.000
G1 X154.288 Y83.087 E0.33418
G1 X154.347 Y83.361 E0.00881
G1 X154.361 Y83.695 E0.01054
G1 X161.450 Y90.785 E0.31549
G1 X161.225 Y91.095 E0.01206
G1 X154.349 Y84.218 E0.30601
G1 X154.285 Y84.689 E0.01496
G1 X161.000 Y91.405 E0.29884
G1 X160.775 Y91.715 E0.01206
G1 X154.159 Y85.099 E0.29440
G1 X154.099 Y85.297 E0.00651
G1 X154.006 Y85.481 E0.00649
G1 X160.549 Y92.025 E0.29120
G1 X160.324 Y92.335 E0.01206
G1 X153.826 Y85.837 E0.28916
G1 X153.605 Y86.151 E0.01209
G1 X160.099 Y92.645 E0.28899
G1 X159.874 Y92.955 E0.01206
G1 X153.371 Y86.452 E0.28940
G1 X153.097 Y86.713 E0.01191
G1 X159.648 Y93.265 E0.29154
G1 X159.423 Y93.575 E0.01206
G1 X152.805 Y86.956 E0.29453
G1 X152.486 Y87.172 E0.01213
G1 X159.198 Y93.884 E0.29872
G1 X158.973 Y94.194 E0.01206
G1 X152.131 Y87.353 E0.30446
