; generated by PrusaSlicer 2.3.3+win64 on 2022-02-04 at 10:45:30 UTC

; 

; external perimeters extrusion width = 0.45mm
; perimeters extrusion width = 0.45mm
; infill extrusion width = 0.45mm
; solid infill extrusion width = 0.45mm
; top infill extrusion width = 0.40mm
; first layer extrusion width = 0.42mm

; external perimeters extrusion width = 0.45mm
; perimeters extrusion width = 0.45mm
; infill extrusion width = 0.45mm
; solid infill extrusion width = 0.45mm
; top infill extrusion width = 0.40mm
; first layer extrusion width = 0.42mm

M73 P0 R116
M73 Q0 S117
M201 X1000 Y1000 Z200 E8000 ; sets maximum accelerations, mm/sec^2
M203 X200 Y200 Z12 E120 ; sets maximum feedrates, mm/sec
M204 P1250 R1250 T1250 ; sets acceleration (P, T) and retract acceleration (R), mm/sec^2
M205 X8.00 Y8.00 Z0.40 E4.50 ; sets the jerk limits, mm/sec
M205 S0 T0 ; sets the minimum extruding and travel feed rate, mm/sec
M107
;TYPE:Custom
M862.3 P "MK3SMMU2S" ; printer model check
M862.1 P0.4 ; nozzle diameter check
M115 U3.10.0 ; tell printer latest fw version
G90 ; use absolute coordinates
M83 ; extruder relative mode
M104 S215 ; set extruder temp
M140 S60 ; set bed temp
M190 S60 ; wait for bed temp
M109 S215 ; wait for extruder temp
G28 W ; home all without mesh bed level
G80 ; mesh bed leveling

; Send the filament type to the MMU2.0 unit.
; E stands for extruder number, F stands for filament type (0: default; 1:flex; 2: PVA)
M403 E0 F0
M403 E1 F0
M403 E2 F0
M403 E3 F0
M403 E4 F0


;go outside print area
G1 Y-3.0 F1000.0
M73 Q0 S116
G1 Z0.4 F1000.0
; select extruder
T1
; initial load
G1 X55.0 E29.0 F1073.0
G1 X5.0 E29.0 F1800.0
G1 X55.0 E8.0 F2000.0
G1 Z0.3 F1000.0
G92 E0.0
G1 X240.0 E25.0 F2200.0
G1 Y-2.0 F1000.0
G1 X55.0 E25 F1400.0
M73 P0 R115
G1 Z0.20 F1000.0
G1 X5.0 E4.0 F1000.0
G92 E0.0


M221 S95
G92 E0.0

; Don't change E values below. Excessive value can damage the printer.

M907 E538 ; set extruder motor current
G21 ; set units to millimeters
G90 ; use absolute coordinates
M83 ; use relative distances for extrusion
T1
M900 K0.05 ; Filament gcode LA 1.5
M900 K30 ; Filament gcode LA 1.0
G1 Z0.200 F10800.000
;LAYER_CHANGE
;Z:0.2
;HEIGHT:0.2
;BEFORE_LAYER_CHANGE
G92 E0.0
;0.2


G1 E-0.80000 F2100.000
G1 Z0.600 F10800.000
G1 Z0.200
;AFTER_LAYER_CHANGE
;0.2
G1 E-1.20000 F2100.000
G1 Z0.600 F10800.000
G1 X233.897 Y23.341
G1 Z0.200
G1 E2.00000 F2100.000
;HEIGHT:0.200000
;TYPE:Wipe tower
;WIDTH:0.500000
;-------------------------------------
; CP WIPE TOWER FIRST LAYER BRIM START
G1  X233.897 Y116.401  E5.3053 F2400
G1  X231.354 Y116.858   F7000
G1  Y22.884  E3.9288 F2100
G1  X170.440  E2.5466
G1  Y116.858  E3.9288
G1  X231.354  E2.5466
G1  X231.811 Y117.315   F7000
G1  Y22.427  E3.9670 F2100
G1  X169.983  E2.5849
G1  Y117.315  E3.9670
G1  X231.811  E2.5849
G1  X232.268 Y117.772   F7000
G1  Y21.970  E4.0052 F2100
G1  X169.526  E2.6231
G1  Y117.772  E4.0052
G1  X232.268  E2.6231
M73 Q1 S116
G1  X232.725 Y118.229   F7000
G1  Y21.513  E4.0434 F2100
M73 P1 R115
G1  X169.069  E2.6613
M73 Q1 S115
G1  Y118.229  E4.0434
G1  X232.725  E2.6613
; CP WIPE TOWER FIRST LAYER BRIM END
;-----------------------------------

;WIPE_START
G1 F8640.000
G1 X232.269 Y117.772 E-0.14926
G1 X229.624 Y117.772 E-0.61074
;WIPE_END
G1 E-0.04000 F2100.000
G1 Z0.600 F10800.000
G1 X234.047 Y119.803
G1 Z0.200
G1 E0.80000 F2100.000
M204 S1000
;TYPE:Skirt
;WIDTH:0.42
;HEIGHT:0.2
G1 F1200.000
G1 X233.484 Y120.163 E0.02095
G1 X233.008 Y120.322 E0.01574
G1 X232.506 Y120.378 E0.01585
G1 X124.594 Y120.485 E3.38351
G1 X116.347 Y117.822 E0.27171
G1 X79.428 Y101.327 E1.26786
G1 X79.009 Y101.038 E0.01597
G1 X78.661 Y100.666 E0.01597
G1 X72.669 Y92.339 E0.32166
G1 X72.512 Y91.870 E0.01550
G1 X72.455 Y91.375 E0.01562
G1 X72.455 Y81.578 E0.30719
M73 P1 R114
G1 X72.564 Y80.892 E0.02178
G1 X72.906 Y80.211 E0.02390
G1 X78.652 Y72.303 E0.30648
G1 X79.121 Y71.827 E0.02095
G1 X168.309 Y19.579 E3.24094
G1 X168.789 Y19.419 E0.01585
G1 X169.291 Y19.364 E0.01585
G1 X232.501 Y19.364 E1.98190
G1 X233.403 Y19.543 E0.02884
G1 X234.172 Y20.054 E0.02896
G1 X234.687 Y20.817 E0.02884
G1 X234.874 Y21.717 E0.02884
G1 X234.874 Y118.035 E3.01998
G1 X234.770 Y118.695 E0.02095
G1 X234.487 Y119.300 E0.02095
G1 X234.087 Y119.758 E0.01907
; printing object body908 id:2 copy 0
;WIPE_START
G1 F8640.000
G1 X233.484 Y120.163 E-0.16763
G1 X233.008 Y120.322 E-0.11588
G1 X232.506 Y120.378 E-0.11675
G1 X230.948 Y120.379 E-0.35973
;WIPE_END
G1 E-0.04000 F2100.000
G1 Z0.600 F10800.000
G1 X93.537 Y87.277
G1 Z0.200
G1 E0.80000 F2100.000
;TYPE:Perimeter
G1 F1200.000
G1 X93.348 Y87.891 E0.02016
G1 X93.059 Y88.465 E0.02015
G1 X92.677 Y88.982 E0.02016
G1 X92.237 Y89.403 E0.01908
G1 X91.683 Y89.786 E0.02113
G1 X91.094 Y90.052 E0.02024
G1 X90.472 Y90.214 E0.02016
G1 X89.832 Y90.268 E0.02016
G1 X89.191 Y90.214 E0.02016
G1 X88.569 Y90.052 E0.02015
G1 X87.983 Y89.787 E0.02016
G1 X87.451 Y89.427 E0.02016
G1 X87.011 Y89.006 E0.01908
G1 X86.606 Y88.468 E0.02113
G1 X86.315 Y87.891 E0.02024
G1 X86.127 Y87.277 E0.02015
G1 X86.045 Y86.639 E0.02015
G1 X86.072 Y85.997 E0.02016
G1 X86.208 Y85.368 E0.02016
G1 X86.435 Y84.804 E0.01908
G1 X86.783 Y84.227 E0.02113
G1 X87.209 Y83.742 E0.02024
G1 X87.709 Y83.338 E0.02016
G1 X88.271 Y83.025 E0.02016
G1 X88.878 Y82.810 E0.02021
G1 X89.532 Y82.701 E0.02079
G1 X90.158 Y82.703 E0.01961
G1 X90.787 Y82.810 E0.02000
G1 X91.393 Y83.025 E0.02015
G1 X91.954 Y83.338 E0.02015
G1 X92.454 Y83.742 E0.02016
G1 X92.879 Y84.224 E0.02015
G1 X93.216 Y84.772 E0.02016
G1 X93.455 Y85.368 E0.02016
G1 X93.584 Y85.963 E0.01908
G1 X93.619 Y86.636 E0.02113
G1 X93.544 Y87.217 E0.01836
G1 X93.170 Y87.169 F10800.000
;TYPE:External perimeter
G1 F1200.000
G1 X92.997 Y87.750 E0.01901
G1 X92.737 Y88.267 E0.01814
G1 X92.393 Y88.732 E0.01814
G1 X91.998 Y89.110 E0.01712
G1 X91.496 Y89.456 E0.01912
G1 X90.968 Y89.695 E0.01817
G1 X90.408 Y89.841 E0.01814
G1 X89.832 Y89.890 E0.01814
G1 X89.255 Y89.841 E0.01814
G1 X88.695 Y89.695 E0.01814
G1 X88.168 Y89.456 E0.01814
G1 X87.689 Y89.132 E0.01814
G1 X87.294 Y88.755 E0.01712
G1 X86.927 Y88.268 E0.01912
G1 X86.666 Y87.750 E0.01817
G1 X86.497 Y87.197 E0.01814
G1 X86.423 Y86.623 E0.01814
G1 X86.448 Y86.045 E0.01814
G1 X86.570 Y85.479 E0.01814
G1 X86.773 Y84.972 E0.01712
G1 X87.088 Y84.450 E0.01912
G1 X87.471 Y84.015 E0.01817
G1 X87.921 Y83.652 E0.01814
G1 X88.426 Y83.369 E0.01814
G1 X88.973 Y83.177 E0.01816
G1 X89.563 Y83.079 E0.01877
G1 X90.125 Y83.080 E0.01763
G1 X90.691 Y83.177 E0.01800
G1 X91.237 Y83.369 E0.01814
G1 X91.742 Y83.652 E0.01814
G1 X92.192 Y84.015 E0.01814
G1 X92.575 Y84.450 E0.01814
G1 X92.878 Y84.942 E0.01814
G1 X93.094 Y85.479 E0.01814
G1 X93.209 Y86.013 E0.01712
G1 X93.240 Y86.622 E0.01912
G1 X93.178 Y87.110 E0.01542
G1 X93.469 Y87.435 F10800.000
;WIPE_START
G1 F8640.000
G1 X92.997 Y87.750 E-0.15365
G1 X92.737 Y88.267 E-0.13361
G1 X92.393 Y88.732 E-0.13361
G1 X91.998 Y89.110 E-0.12609
G1 X91.496 Y89.456 E-0.14079
G1 X91.211 Y89.585 E-0.07225
;WIPE_END
G1 E-0.04000 F2100.000
G1 Z0.600 F10800.000
G1 X95.911 Y82.987
G1 Z0.200
G1 E0.80000 F2100.000
;TYPE:Perimeter
G1 F1200.000
G1 X95.554 Y82.648 E0.01543
G1 X95.268 Y82.260 E0.01510
G1 X95.051 Y81.830 E0.01510
G1 X94.910 Y81.369 E0.01512
G1 X94.849 Y80.892 E0.01510
G1 X94.870 Y80.410 E0.01510
G1 X94.971 Y79.940 E0.01508
G1 X95.144 Y79.509 E0.01458
G1 X95.403 Y79.084 E0.01561
G1 X95.722 Y78.721 E0.01515
G1 X96.097 Y78.419 E0.01511
G1 X96.516 Y78.185 E0.01506
G1 X96.970 Y78.024 E0.01510
G1 X97.445 Y77.943 E0.01510
G1 X97.891 Y77.943 E0.01400
G1 X98.398 Y78.023 E0.01607
G1 X98.855 Y78.185 E0.01522
G1 X99.276 Y78.419 E0.01510
G1 X99.650 Y78.722 E0.01510
G1 X99.968 Y79.083 E0.01510
G1 X100.221 Y79.494 E0.01510
G1 X100.401 Y79.941 E0.01512
G1 X100.502 Y80.412 E0.01510
G1 X100.522 Y80.893 E0.01510
G1 X100.461 Y81.372 E0.01515
G1 X100.312 Y81.850 E0.01569
G1 X100.091 Y82.278 E0.01511
G1 X99.816 Y82.648 E0.01445
G1 X99.485 Y82.968 E0.01444
G1 X99.072 Y83.250 E0.01567
G1 X98.632 Y83.449 E0.01515
G1 X98.166 Y83.570 E0.01510
G1 X97.686 Y83.611 E0.01510
G1 X97.206 Y83.570 E0.01510
G1 X96.740 Y83.449 E0.01510
G1 X96.323 Y83.261 E0.01433
G1 X95.961 Y83.020 E0.01364
G1 X96.169 Y82.706 F10800.000
;TYPE:External perimeter
G1 F1200.000
G1 X95.839 Y82.398 E0.01418
G1 X95.590 Y82.062 E0.01309
G1 X95.402 Y81.689 E0.01309
G1 X95.280 Y81.290 E0.01311
G1 X95.227 Y80.876 E0.01308
G1 X95.245 Y80.459 E0.01309
G1 X95.333 Y80.051 E0.01308
G1 X95.482 Y79.678 E0.01259
G1 X95.708 Y79.308 E0.01358
G1 X95.984 Y78.994 E0.01310
G1 X96.309 Y78.732 E0.01310
G1 X96.672 Y78.529 E0.01305
G1 X97.066 Y78.390 E0.01309
G1 X97.477 Y78.320 E0.01309
G1 X97.862 Y78.320 E0.01206
G1 X98.305 Y78.390 E0.01406
G1 X98.699 Y78.529 E0.01313
G1 X99.064 Y78.733 E0.01309
G1 X99.388 Y78.995 E0.01309
G1 X99.664 Y79.309 E0.01309
G1 X99.883 Y79.664 E0.01309
G1 X100.039 Y80.052 E0.01310
G1 X100.127 Y80.460 E0.01309
G1 X100.144 Y80.877 E0.01309
G1 X100.091 Y81.291 E0.01311
G1 X99.961 Y81.706 E0.01363
G1 X99.770 Y82.078 E0.01312
G1 X99.532 Y82.398 E0.01249
G1 X99.246 Y82.674 E0.01247
G1 X98.886 Y82.920 E0.01365
G1 X98.506 Y83.092 E0.01311
G1 X98.102 Y83.197 E0.01309
G1 X97.686 Y83.233 E0.01309
G1 X97.270 Y83.197 E0.01309
G1 X96.866 Y83.092 E0.01309
G1 X96.506 Y82.930 E0.01237
G1 X96.219 Y82.739 E0.01081
G1 X95.797 Y82.854 F10800.000
;WIPE_START
G1 F8640.000
G1 X95.839 Y82.398 E-0.11809
G1 X95.590 Y82.062 E-0.09637
G1 X95.402 Y81.689 E-0.09638
G1 X95.280 Y81.290 E-0.09653
G1 X95.227 Y80.876 E-0.09635
G1 X95.245 Y80.459 E-0.09639
G1 X95.333 Y80.051 E-0.09630
G1 X95.435 Y79.795 E-0.06359
;WIPE_END
G1 E-0.04000 F2100.000
G1 Z0.600 F10800.000
G1 X104.045 Y81.860
G1 Z0.200
G1 E0.80000 F2100.000
;TYPE:Perimeter
G1 F1200.000
G1 X104.045 Y91.096 E0.28959
G1 X98.616 Y98.568 E0.28959
G1 X89.832 Y101.422 E0.28959
G1 X81.048 Y98.568 E0.28959
G1 X75.619 Y91.096 E0.28959
G1 X75.619 Y81.860 E0.28959
G1 X81.048 Y74.388 E0.28959
G1 X89.832 Y71.534 E0.28959
G1 X98.616 Y74.388 E0.28959
G1 X104.009 Y81.812 E0.28771
G1 X104.422 Y81.738 F10800.000
;TYPE:External perimeter
G1 F1200.000
G1 X104.422 Y91.219 E0.29728
G1 X98.849 Y98.889 E0.29728
G1 X89.832 Y101.819 E0.29727
G1 X80.815 Y98.889 E0.29727
G1 X75.242 Y91.219 E0.29728
G1 X75.242 Y81.738 E0.29728
G1 X80.815 Y74.067 E0.29728
G1 X89.832 Y71.137 E0.29727
G1 X98.849 Y74.067 E0.29727
G1 X104.386 Y81.689 E0.29539
G1 X104.154 Y82.035 F10800.000
;WIPE_START
G1 F8640.000
G1 X104.399 Y84.980 E-0.76000
;WIPE_END
G1 E-0.04000 F2100.000
G1 Z0.600 F10800.000
G1 X100.619 Y77.337
G1 Z0.200
G1 E0.80000 F2100.000
;TYPE:Solid infill
;WIDTH:0.423763
G1 F1200.000
G1 X97.654 Y74.373 E0.13277
G1 X96.857 Y74.114 E0.02656
G1 X101.283 Y78.540 E0.19823
G1 X102.714 Y80.510 E0.07709
G1 X96.059 Y73.854 E0.29805
G1 X95.261 Y73.595 E0.02656
G1 X103.762 Y82.096 E0.38071
G1 X103.762 Y82.635 E0.01706
G1 X94.463 Y73.336 E0.41644
G1 X93.665 Y73.077 E0.02656
G1 X98.311 Y77.723 E0.20808
G1 X97.914 Y77.660 E0.01275
G1 X97.710 Y77.660 E0.00645
G1 X92.867 Y72.817 E0.21687
G1 X92.070 Y72.558 E0.02656
G1 X97.208 Y77.697 E0.23011
G1 X96.899 Y77.750 E0.00993
G1 X96.768 Y77.796 E0.00438
G1 X91.272 Y72.299 E0.24616
G1 X90.474 Y72.040 E0.02656
G1 X96.374 Y77.940 E0.26424
G1 X96.029 Y78.133 E0.01254
G1 X89.752 Y71.857 E0.28107
G1 X89.346 Y71.989 E0.01354
G1 X95.718 Y78.361 E0.28537
G1 X95.526 Y78.516 E0.00782
G1 X95.436 Y78.618 E0.00429
G1 X88.939 Y72.121 E0.29095
G1 X88.533 Y72.253 E0.01354
G1 X95.184 Y78.904 E0.29786
G1 X94.978 Y79.237 E0.01239
G1 X88.126 Y72.385 E0.30685
G1 X87.720 Y72.517 E0.01354
G1 X94.803 Y79.600 E0.31719
G1 X94.700 Y79.857 E0.00878
G1 X94.668 Y80.004 E0.00475
G1 X87.313 Y72.649 E0.32937
G1 X86.907 Y72.781 E0.01354
G1 X94.584 Y80.459 E0.34384
G1 X94.577 Y80.990 E0.01681
G1 X86.500 Y72.914 E0.36169
G1 X86.094 Y73.046 E0.01354
G1 X94.971 Y81.923 E0.39758
;WIPE_START
G1 F8640.000
G1 X92.644 Y79.596 E-0.76000
;WIPE_END
G1 E-0.04000 F2100.000
G1 Z0.600 F10800.000
G1 X100.513 Y79.924
G1 Z0.200
G1 E0.80000 F2100.000
G1 F1200.000
G1 X103.762 Y83.173 E0.14550
G1 X103.762 Y83.712 E0.01706
G1 X100.799 Y80.750 E0.13267
G1 X100.806 Y80.905 E0.00493
G1 X100.762 Y81.250 E0.01102
G1 X103.762 Y84.250 E0.13436
G1 X103.762 Y84.789 E0.01706
G1 X100.659 Y81.686 E0.13895
G1 X100.574 Y81.958 E0.00900
G1 X100.512 Y82.078 E0.00429
G1 X103.762 Y85.328 E0.14553
G1 X103.762 Y85.866 E0.01706
G1 X100.329 Y82.433 E0.15375
G1 X100.099 Y82.742 E0.01219
G1 X103.762 Y86.405 E0.16404
G1 X103.762 Y86.943 E0.01706
G1 X99.838 Y83.020 E0.17572
G1 X99.664 Y83.188 E0.00767
G1 X99.547 Y83.267 E0.00447
G1 X103.762 Y87.482 E0.18875
G1 X103.762 Y88.021 E0.01706
G1 X99.227 Y83.486 E0.20307
G1 X98.859 Y83.656 E0.01285
G1 X103.762 Y88.559 E0.21957
M73 Q1 S114
G1 X103.762 Y89.098 E0.01706
G1 X98.452 Y83.788 E0.23780
G1 X98.214 Y83.850 E0.00780
G1 X97.994 Y83.869 E0.00698
G1 X103.762 Y89.636 E0.25831
G1 X103.762 Y90.175 E0.01706
G1 X97.463 Y83.876 E0.28211
G1 X97.158 Y83.850 E0.00968
G1 X96.807 Y83.758 E0.01150
G1 X103.762 Y90.714 E0.31148
G1 X103.762 Y91.004 E0.00921
G1 X103.657 Y91.148 E0.00562
G1 X85.687 Y73.178 E0.80478
G1 X85.281 Y73.310 E0.01354
G1 X103.431 Y91.460 E0.81284
G1 X103.204 Y91.772 E0.01221
G1 X84.874 Y73.442 E0.82089
G1 X84.468 Y73.574 E0.01354
G1 X102.978 Y92.084 E0.82895
M73 Q2 S114
G1 X102.751 Y92.396 E0.01221
G1 X84.061 Y73.706 E0.83700
M73 P2 R114
G1 X83.655 Y73.838 E0.01354
G1 X102.524 Y92.708 E0.84506
G1 X102.298 Y93.020 E0.01221
G1 X83.248 Y73.970 E0.85311
G1 X82.842 Y74.102 E0.01354
G1 X91.503 Y82.764 E0.38789
G1 X92.113 Y83.103 E0.02210
G1 X92.650 Y83.537 E0.02188
G1 X93.107 Y84.056 E0.02188
G1 X93.469 Y84.644 E0.02188
G1 X93.527 Y84.787 E0.00489
G1 X102.071 Y93.332 E0.38264
G1 X101.844 Y93.643 E0.01221
G1 X93.793 Y85.592 E0.36057
G1 X93.865 Y85.926 E0.01081
G1 X93.880 Y86.218 E0.00926
G1 X101.618 Y93.955 E0.34652
G1 X101.391 Y94.267 E0.01221
G1 X93.887 Y86.764 E0.33605
G1 X93.826 Y87.241 E0.01524
G1 X101.164 Y94.579 E0.32864
G1 X100.938 Y94.891 E0.01221
G1 X93.713 Y87.666 E0.32356
G1 X93.576 Y88.068 E0.01344
G1 X100.711 Y95.203 E0.31955
M73 P2 R113
G1 X100.484 Y95.515 E0.01221
G1 X93.395 Y88.426 E0.31748
G1 X93.301 Y88.614 E0.00667
G1 X93.192 Y88.761 E0.00579
G1 X100.258 Y95.827 E0.31645
G1 X100.031 Y96.139 E0.01221
G1 X92.963 Y89.071 E0.31655
G1 X92.890 Y89.170 E0.00389
G1 X92.703 Y89.349 E0.00821
G1 X99.805 Y96.451 E0.31806
G1 X99.578 Y96.763 E0.01221
G1 X92.427 Y89.613 E0.32022
G1 X92.110 Y89.834 E0.01225
G1 X99.351 Y97.075 E0.32427
G1 X99.125 Y97.387 E0.01221
G1 X91.787 Y90.049 E0.32862
G1 X91.416 Y90.217 E0.01289
G1 X98.898 Y97.699 E0.33509
G1 X98.671 Y98.011 E0.01221
G1 X91.023 Y90.362 E0.34253
G1 X90.596 Y90.474 E0.01398
G1 X98.445 Y98.323 E0.35152
G1 X98.041 Y98.458 E0.01348
G1 X90.111 Y90.528 E0.35512
G1 X89.832 Y90.552 E0.00889
G1 X89.575 Y90.530 E0.00817
G1 X97.635 Y98.590 E0.36095
G1 X97.228 Y98.722 E0.01354
G1 X88.712 Y90.206 E0.38140
;WIPE_START
G1 F8640.000
G1 X91.039 Y92.533 E-0.76000
;WIPE_END
G1 E-0.04000 F2100.000
G1 Z0.600 F10800.000
G1 X90.949 Y82.748
G1 Z0.200
G1 E0.80000 F2100.000
G1 F1200.000
G1 X82.435 Y74.234 E0.38126
G1 X82.029 Y74.366 E0.01354
G1 X90.082 Y82.420 E0.36066
G1 X89.542 Y82.419 E0.01709
G1 X81.622 Y74.499 E0.35470
G1 X81.219 Y74.634 E0.01348
G1 X89.076 Y82.491 E0.35187
G1 X88.807 Y82.535 E0.00861
G1 X88.641 Y82.594 E0.00561
G1 X80.992 Y74.946 E0.34253
G1 X80.765 Y75.257 E0.01221
G1 X88.243 Y82.735 E0.33486
G1 X87.885 Y82.916 E0.01269
G1 X80.539 Y75.569 E0.32901
G1 X80.312 Y75.881 E0.01221
G1 X87.541 Y83.110 E0.32375
G1 X87.243 Y83.351 E0.01213
G1 X80.085 Y76.193 E0.32055
G1 X79.859 Y76.505 E0.01221
G1 X86.956 Y83.602 E0.31783
G1 X86.704 Y83.889 E0.01208
G1 X79.632 Y76.817 E0.31669
G1 X79.406 Y77.129 E0.01221
G1 X86.471 Y84.195 E0.31644
G1 X86.269 Y84.531 E0.01242
G1 X79.179 Y77.441 E0.31752
G1 X78.952 Y77.753 E0.01221
G1 X86.094 Y84.894 E0.31982
G1 X85.939 Y85.279 E0.01311
G1 X78.726 Y78.065 E0.32306
G1 X78.499 Y78.377 E0.01221
G1 X85.843 Y85.721 E0.32888
G1 X85.791 Y85.961 E0.00777
G1 X85.781 Y86.198 E0.00751
G1 X78.272 Y78.689 E0.33627
G1 X78.046 Y79.001 E0.01221
G1 X85.771 Y86.726 E0.34599
G1 X85.852 Y87.346 E0.01979
