; generated by PrusaSlicer 2.3.3+win64 on 2022-02-02 at 13:36:44 UTC

; 

; external perimeters extrusion width = 0.45mm
; perimeters extrusion width = 0.45mm
; infill extrusion width = 0.45mm
; solid infill extrusion width = 0.45mm
; top infill extrusion width = 0.40mm
; first layer extrusion width = 0.42mm

; external perimeters extrusion width = 0.45mm
; perimeters extrusion width = 0.45mm
; infill extrusion width = 0.45mm
; solid infill extrusion width = 0.45mm
; top infill extrusion width = 0.40mm
; first layer extrusion width = 0.42mm

M73 P0 R89
M73 Q0 S90
M201 X1000 Y1000 Z200 E8000 ; sets maximum accelerations, mm/sec^2
M203 X200 Y200 Z12 E120 ; sets maximum feedrates, mm/sec
M204 P1250 R1250 T1250 ; sets acceleration (P, T) and retract acceleration (R), mm/sec^2
M205 X8.00 Y8.00 Z0.40 E4.50 ; sets the jerk limits, mm/sec
M205 S0 T0 ; sets the minimum extruding and travel feed rate, mm/sec
M107
;TYPE:Custom
M862.3 P "MK3SMMU2S" ; printer model check
M862.1 P0.4 ; nozzle diameter check
M115 U3.10.0 ; tell printer latest fw version
G90 ; use absolute coordinates
M83 ; extruder relative mode
M104 S215 ; set extruder temp
M140 S60 ; set bed temp
M190 S60 ; wait for bed temp
M109 S215 ; wait for extruder temp
G28 W ; home all without mesh bed level
G80 ; mesh bed leveling

; Send the filament type to the MMU2.0 unit.
; E stands for extruder number, F stands for filament type (0: default; 1:flex; 2: PVA)
M403 E0 F0
M403 E1 F0
M403 E2 F0
M403 E3 F0
M403 E4 F0


;go outside print area
G1 Y-3.0 F1000.0
M73 Q0 S89
G1 Z0.4 F1000.0
; select extruder
T1
; initial load
G1 X55.0 E29.0 F1073.0
G1 X5.0 E29.0 F1800.0
G1 X55.0 E8.0 F2000.0
G1 Z0.3 F1000.0
G92 E0.0
G1 X240.0 E25.0 F2200.0
G1 Y-2.0 F1000.0
G1 X55.0 E25 F1400.0
G1 Z0.20 F1000.0
G1 X5.0 E4.0 F1000.0
G92 E0.0


M221 S95
G92 E0.0

; Don't change E values below. Excessive value can damage the printer.

M907 E538 ; set extruder motor current
G21 ; set units to millimeters
G90 ; use absolute coordinates
M83 ; use relative distances for extrusion
T1
M900 K0.05 ; Filament gcode LA 1.5
M900 K30 ; Filament gcode LA 1.0
G1 Z0.200 F10800.000
;LAYER_CHANGE
;Z:0.2
;HEIGHT:0.2
;BEFORE_LAYER_CHANGE
G92 E0.0
;0.2


G1 E-0.80000 F2100.000
G1 Z0.600 F10800.000
G1 Z0.200
;AFTER_LAYER_CHANGE
;0.2
G1 E-1.20000 F2100.000
G1 Z0.600 F10800.000
G1 X239.372 Y14.923
M73 P0 R88
G1 Z0.200
G1 E2.00000 F2100.000
;HEIGHT:0.200000
;TYPE:Wipe tower
;WIDTH:0.500000
;-------------------------------------
; CP WIPE TOWER FIRST LAYER BRIM START
G1  X239.372 Y107.983  E5.3053 F2400
G1  X236.829 Y108.440   F7000
G1  Y14.466  E3.9288 F2100
G1  X175.915  E2.5466
G1  Y108.440  E3.9288
G1  X236.829  E2.5466
G1  X237.286 Y108.897   F7000
G1  Y14.009  E3.9670 F2100
M73 P1 R88
M73 Q1 S89
G1  X175.458  E2.5849
G1  Y108.897  E3.9670
G1  X237.286  E2.5849
G1  X237.743 Y109.354   F7000
G1  Y13.552  E4.0052 F2100
M73 Q1 S88
G1  X175.001  E2.6231
G1  Y109.354  E4.0052
G1  X237.743  E2.6231
G1  X238.200 Y109.811   F7000
G1  Y13.095  E4.0434 F2100
G1  X174.544  E2.6613
G1  Y109.811  E4.0434
G1  X238.200  E2.6613
; CP WIPE TOWER FIRST LAYER BRIM END
;-----------------------------------

;WIPE_START
G1 F8640.000
G1 X237.743 Y109.355 E-0.14926
G1 X235.098 Y109.355 E-0.61074
;WIPE_END
G1 E-0.04000 F2100.000
G1 Z0.600 F10800.000
G1 X238.826 Y111.802
G1 Z0.200
G1 E0.80000 F2100.000
M204 S1000
;TYPE:Skirt
;WIDTH:0.42
;HEIGHT:0.2
G1 F1200.000
G1 X237.992 Y111.960 E0.02661
G1 X174.461 Y111.940 E1.99197
G1 X173.919 Y111.802 E0.01752
G1 X140.366 Y98.825 E1.12800
G1 X139.873 Y98.562 E0.01752
G1 X139.453 Y98.187 E0.01763
G1 X133.566 Y90.102 E0.31360
G1 X133.232 Y89.425 E0.02367
G1 X133.127 Y88.750 E0.02142
G1 X133.127 Y78.967 E0.30672
G1 X133.289 Y78.115 E0.02720
G1 X172.734 Y12.100 E2.41120
G1 X173.197 Y11.543 E0.02272
G1 X173.920 Y11.105 E0.02649
G1 X174.750 Y10.947 E0.02649
G1 X237.976 Y10.947 E1.98240
G1 X238.878 Y11.126 E0.02884
G1 X239.641 Y11.632 E0.02872
G1 X240.157 Y12.389 E0.02872
G1 X240.349 Y13.285 E0.02872
G1 X240.349 Y109.602 E3.01998
G1 X240.293 Y110.097 E0.01562
G1 X240.135 Y110.570 E0.01562
G1 X239.882 Y110.999 E0.01562
G1 X239.548 Y111.363 E0.01550
G1 X238.877 Y111.771 E0.02461
; printing object body908 id:0 copy 0
;WIPE_START
G1 F8640.000
G1 X237.992 Y111.960 E-0.20899
G1 X235.606 Y111.959 E-0.55101
;WIPE_END
G1 E-0.04000 F2100.000
G1 Z0.600 F10800.000
G1 X154.021 Y85.266
G1 Z0.200
G1 E0.80000 F2100.000
;TYPE:Perimeter
G1 F1200.000
G1 X153.731 Y85.840 E0.02015
G1 X153.349 Y86.356 E0.02016
G1 X152.910 Y86.778 E0.01908
G1 X152.355 Y87.160 E0.02113
G1 X151.767 Y87.426 E0.02024
G1 X151.145 Y87.588 E0.02016
G1 X150.504 Y87.642 E0.02016
G1 X149.864 Y87.588 E0.02016
G1 X149.242 Y87.426 E0.02015
G1 X148.656 Y87.161 E0.02016
G1 X148.123 Y86.801 E0.02016
G1 X147.684 Y86.380 E0.01908
G1 X147.278 Y85.842 E0.02113
G1 X146.988 Y85.266 E0.02024
G1 X146.799 Y84.651 E0.02015
G1 X146.718 Y84.013 E0.02015
G1 X146.745 Y83.371 E0.02016
G1 X146.880 Y82.743 E0.02016
G1 X147.107 Y82.178 E0.01908
G1 X147.455 Y81.601 E0.02113
M73 P1 R87
G1 X147.882 Y81.116 E0.02024
G1 X148.382 Y80.713 E0.02016
G1 X148.943 Y80.399 E0.02016
G1 X149.551 Y80.184 E0.02021
G1 X150.205 Y80.076 E0.02079
G1 X150.830 Y80.077 E0.01961
G1 X151.459 Y80.185 E0.02000
G1 X152.065 Y80.399 E0.02015
G1 X152.626 Y80.713 E0.02015
G1 X153.127 Y81.116 E0.02016
G1 X153.551 Y81.599 E0.02015
G1 X153.888 Y82.146 E0.02016
G1 X154.128 Y82.743 E0.02016
G1 X154.256 Y83.338 E0.01908
G1 X154.291 Y84.011 E0.02113
G1 X154.209 Y84.651 E0.02024
G1 X154.038 Y85.208 E0.01827
G1 X153.678 Y85.098 F10800.000
;TYPE:External perimeter
G1 F1200.000
G1 X153.409 Y85.641 E0.01901
G1 X153.065 Y86.106 E0.01814
G1 X152.671 Y86.484 E0.01712
G1 X152.169 Y86.830 E0.01912
G1 X151.641 Y87.069 E0.01817
G1 X151.081 Y87.215 E0.01814
G1 X150.504 Y87.264 E0.01814
G1 X149.928 Y87.215 E0.01814
G1 X149.368 Y87.069 E0.01814
G1 X148.840 Y86.831 E0.01814
G1 X148.361 Y86.507 E0.01814
G1 X147.967 Y86.129 E0.01712
G1 X147.600 Y85.642 E0.01912
G1 X147.339 Y85.125 E0.01817
G1 X147.169 Y84.571 E0.01814
G1 X147.096 Y83.997 E0.01814
G1 X147.120 Y83.419 E0.01814
G1 X147.242 Y82.854 E0.01814
G1 X147.446 Y82.347 E0.01712
G1 X147.761 Y81.825 E0.01912
G1 X148.144 Y81.390 E0.01817
G1 X148.594 Y81.026 E0.01814
G1 X149.099 Y80.744 E0.01814
G1 X149.645 Y80.551 E0.01816
G1 X150.236 Y80.453 E0.01877
G1 X150.798 Y80.454 E0.01763
G1 X151.364 Y80.551 E0.01800
G1 X151.909 Y80.744 E0.01814
G1 X152.415 Y81.026 E0.01814
G1 X152.865 Y81.390 E0.01814
G1 X153.247 Y81.824 E0.01814
G1 X153.550 Y82.317 E0.01814
G1 X153.766 Y82.854 E0.01814
G1 X153.881 Y83.387 E0.01712
G1 X153.913 Y83.996 E0.01912
G1 X153.839 Y84.571 E0.01817
G1 X153.695 Y85.040 E0.01539
G1 X153.927 Y85.411 F10800.000
;WIPE_START
G1 F8640.000
G1 X153.409 Y85.641 E-0.15365
G1 X153.065 Y86.106 E-0.13361
G1 X152.671 Y86.484 E-0.12609
G1 X152.169 Y86.830 E-0.14079
G1 X151.641 Y87.069 E-0.13383
G1 X151.339 Y87.148 E-0.07202
;WIPE_END
G1 E-0.04000 F2100.000
G1 Z0.600 F10800.000
G1 X156.577 Y80.357
G1 Z0.200
G1 E0.80000 F2100.000
;TYPE:Perimeter
G1 F1200.000
G1 X156.227 Y80.022 E0.01518
G1 X155.941 Y79.635 E0.01510
G1 X155.724 Y79.205 E0.01510
G1 X155.583 Y78.744 E0.01512
G1 X155.522 Y78.266 E0.01510
G1 X155.542 Y77.785 E0.01510
G1 X155.644 Y77.315 E0.01508
G1 X155.816 Y76.883 E0.01458
G1 X156.075 Y76.458 E0.01561
G1 X156.395 Y76.096 E0.01515
G1 X156.770 Y75.793 E0.01511
G1 X157.189 Y75.559 E0.01506
G1 X157.643 Y75.399 E0.01510
G1 X158.118 Y75.317 E0.01510
G1 X158.564 Y75.317 E0.01400
G1 X159.070 Y75.397 E0.01607
G1 X159.528 Y75.559 E0.01522
G1 X159.948 Y75.794 E0.01510
G1 X160.323 Y76.096 E0.01510
G1 X160.641 Y76.458 E0.01510
G1 X160.893 Y76.868 E0.01510
G1 X161.073 Y77.315 E0.01512
G1 X161.175 Y77.786 E0.01510
G1 X161.195 Y78.267 E0.01510
G1 X161.133 Y78.747 E0.01515
G1 X160.984 Y79.224 E0.01569
G1 X160.764 Y79.653 E0.01511
G1 X160.489 Y80.023 E0.01445
G1 X160.157 Y80.342 E0.01444
G1 X159.744 Y80.624 E0.01567
G1 X159.304 Y80.823 E0.01515
G1 X158.838 Y80.945 E0.01510
G1 X158.358 Y80.985 E0.01510
G1 X157.878 Y80.945 E0.01510
G1 X157.412 Y80.823 E0.01510
G1 X156.996 Y80.635 E0.01433
G1 X156.627 Y80.390 E0.01390
G1 X156.835 Y80.076 F10800.000
;TYPE:External perimeter
G1 F1200.000
G1 X156.511 Y79.772 E0.01393
G1 X156.263 Y79.436 E0.01309
G1 X156.075 Y79.064 E0.01309
G1 X155.953 Y78.664 E0.01311
G1 X155.900 Y78.250 E0.01308
G1 X155.917 Y77.833 E0.01309
G1 X156.005 Y77.425 E0.01308
G1 X156.155 Y77.052 E0.01259
G1 X156.380 Y76.683 E0.01358
G1 X156.656 Y76.369 E0.01310
G1 X156.981 Y76.107 E0.01310
G1 X157.345 Y75.904 E0.01305
G1 X157.738 Y75.765 E0.01309
G1 X158.150 Y75.694 E0.01309
G1 X158.534 Y75.694 E0.01206
G1 X158.977 Y75.764 E0.01406
G1 X159.372 Y75.904 E0.01313
G1 X159.736 Y76.107 E0.01309
G1 X160.061 Y76.370 E0.01309
G1 X160.337 Y76.683 E0.01309
G1 X160.556 Y77.038 E0.01309
G1 X160.711 Y77.426 E0.01310
G1 X160.799 Y77.834 E0.01309
G1 X160.817 Y78.251 E0.01309
G1 X160.764 Y78.666 E0.01311
G1 X160.634 Y79.081 E0.01363
G1 X160.443 Y79.453 E0.01312
G1 X160.205 Y79.773 E0.01249
G1 X159.918 Y80.048 E0.01247
G1 X159.559 Y80.294 E0.01365
G1 X159.178 Y80.466 E0.01311
G1 X158.774 Y80.572 E0.01309
G1 X158.358 Y80.607 E0.01309
G1 X157.942 Y80.572 E0.01309
G1 X157.539 Y80.466 E0.01309
G1 X157.179 Y80.304 E0.01237
G1 X156.885 Y80.109 E0.01106
G1 X156.463 Y80.223 F10800.000
;WIPE_START
G1 F8640.000
G1 X156.511 Y79.772 E-0.11623
G1 X156.263 Y79.436 E-0.09637
G1 X156.075 Y79.064 E-0.09638
G1 X155.953 Y78.664 E-0.09653
G1 X155.900 Y78.250 E-0.09635
G1 X155.917 Y77.833 E-0.09639
G1 X156.005 Y77.425 E-0.09630
G1 X156.111 Y77.162 E-0.06545
;WIPE_END
G1 E-0.04000 F2100.000
G1 Z0.600 F10800.000
G1 X164.717 Y79.234
G1 Z0.200
G1 E0.80000 F2100.000
;TYPE:Perimeter
G1 F1200.000
G1 X164.717 Y88.471 E0.28959
G1 X159.288 Y95.943 E0.28959
G1 X150.504 Y98.797 E0.28959
G1 X141.720 Y95.943 E0.28959
G1 X136.291 Y88.471 E0.28959
G1 X136.291 Y79.234 E0.28959
M73 Q2 S88
G1 X141.720 Y71.762 E0.28959
G1 X150.504 Y68.908 E0.28959
M73 P2 R87
G1 X159.288 Y71.762 E0.28959
G1 X164.682 Y79.186 E0.28771
G1 X165.094 Y79.112 F10800.000
;TYPE:External perimeter
G1 F1200.000
G1 X165.094 Y88.593 E0.29728
G1 X159.521 Y96.264 E0.29728
G1 X150.504 Y99.193 E0.29727
G1 X141.487 Y96.264 E0.29727
G1 X135.914 Y88.593 E0.29728
G1 X135.914 Y79.112 E0.29728
G1 X141.487 Y71.442 E0.29728
G1 X150.504 Y68.512 E0.29727
G1 X159.521 Y71.442 E0.29727
G1 X165.059 Y79.063 E0.29539
G1 X164.827 Y79.409 F10800.000
;WIPE_START
G1 F8640.000
G1 X165.071 Y82.355 E-0.76000
;WIPE_END
G1 E-0.04000 F2100.000
G1 Z0.600 F10800.000
G1 X161.291 Y74.712
G1 Z0.200
G1 E0.80000 F2100.000
;TYPE:Solid infill
;WIDTH:0.423763
G1 F1200.000
G1 X158.327 Y71.747 E0.13277
G1 X157.529 Y71.488 E0.02656
G1 X161.955 Y75.914 E0.19823
G1 X163.386 Y77.884 E0.07709
G1 X156.731 Y71.229 E0.29805
G1 X155.933 Y70.970 E0.02656
G1 X164.434 Y79.471 E0.38071
G1 X164.434 Y80.009 E0.01706
G1 X155.136 Y70.710 E0.41644
G1 X154.338 Y70.451 E0.02656
G1 X158.984 Y75.097 E0.20808
G1 X158.586 Y75.034 E0.01275
G1 X158.382 Y75.034 E0.00645
G1 X153.540 Y70.192 E0.21687
G1 X152.742 Y69.933 E0.02656
G1 X157.880 Y75.071 E0.23011
G1 X157.571 Y75.124 E0.00993
G1 X157.441 Y75.170 E0.00438
G1 X151.944 Y69.673 E0.24616
G1 X151.146 Y69.414 E0.02656
G1 X157.047 Y75.315 E0.26424
G1 X156.701 Y75.507 E0.01254
G1 X150.425 Y69.231 E0.28107
G1 X150.018 Y69.363 E0.01354
G1 X156.391 Y75.736 E0.28537
G1 X156.198 Y75.891 E0.00782
G1 X156.109 Y75.992 E0.00429
G1 X149.612 Y69.495 E0.29095
G1 X149.205 Y69.628 E0.01354
G1 X155.856 Y76.279 E0.29786
G1 X155.651 Y76.611 E0.01239
G1 X148.799 Y69.760 E0.30685
G1 X148.392 Y69.892 E0.01354
G1 X155.475 Y76.974 E0.31719
G1 X155.372 Y77.232 E0.00878
G1 X155.341 Y77.378 E0.00475
G1 X147.986 Y70.024 E0.32937
G1 X147.579 Y70.156 E0.01354
G1 X155.257 Y77.834 E0.34384
M73 Q2 S87
G1 X155.249 Y78.364 E0.01681
G1 X147.173 Y70.288 E0.36169
G1 X146.766 Y70.420 E0.01354
G1 X155.644 Y79.298 E0.39758
;WIPE_START
G1 F8640.000
G1 X153.317 Y76.970 E-0.76000
;WIPE_END
G1 E-0.04000 F2100.000
G1 Z0.600 F10800.000
G1 X161.185 Y77.299
G1 Z0.200
G1 E0.80000 F2100.000
G1 F1200.000
G1 X164.434 Y80.548 E0.14550
G1 X164.434 Y81.086 E0.01706
G1 X161.472 Y78.124 E0.13267
G1 X161.479 Y78.280 E0.00493
G1 X161.434 Y78.625 E0.01102
G1 X164.434 Y81.625 E0.13436
G1 X164.434 Y82.164 E0.01706
G1 X161.332 Y79.061 E0.13895
G1 X161.247 Y79.332 E0.00900
G1 X161.185 Y79.453 E0.00429
G1 X164.434 Y82.702 E0.14553
G1 X164.434 Y83.241 E0.01706
G1 X161.001 Y79.807 E0.15375
G1 X160.772 Y80.117 E0.01219
G1 X164.434 Y83.779 E0.16404
G1 X164.434 Y84.318 E0.01706
G1 X160.511 Y80.394 E0.17572
G1 X160.336 Y80.562 E0.00767
G1 X160.220 Y80.642 E0.00447
G1 X164.434 Y84.856 E0.18875
G1 X164.434 Y85.395 E0.01706
G1 X159.900 Y80.861 E0.20307
G1 X159.531 Y81.031 E0.01285
G1 X164.434 Y85.934 E0.21957
G1 X164.434 Y86.472 E0.01706
G1 X159.124 Y81.162 E0.23780
G1 X158.886 Y81.224 E0.00780
G1 X158.666 Y81.243 E0.00698
G1 X164.434 Y87.011 E0.25831
G1 X164.434 Y87.549 E0.01706
G1 X158.135 Y81.250 E0.28211
G1 X157.830 Y81.224 E0.00968
G1 X157.479 Y81.133 E0.01150
G1 X164.434 Y88.088 E0.31148
G1 X164.434 Y88.379 E0.00921
G1 X164.330 Y88.522 E0.00562
G1 X146.360 Y70.552 E0.80478
G1 X145.953 Y70.684 E0.01354
G1 X164.103 Y88.834 E0.81284
G1 X163.877 Y89.146 E0.01221
G1 X145.547 Y70.816 E0.82089
G1 X145.140 Y70.948 E0.01354
G1 X163.650 Y89.458 E0.82895
G1 X163.423 Y89.770 E0.01221
G1 X144.734 Y71.080 E0.83700
G1 X144.327 Y71.213 E0.01354
G1 X163.197 Y90.082 E0.84506
G1 X162.970 Y90.394 E0.01221
G1 X143.921 Y71.345 E0.85311
G1 X143.514 Y71.477 E0.01354
G1 X152.176 Y80.138 E0.38789
G1 X152.785 Y80.477 E0.02210
G1 X153.323 Y80.911 E0.02188
G1 X153.779 Y81.430 E0.02188
G1 X154.142 Y82.019 E0.02188
G1 X154.199 Y82.162 E0.00489
M73 P3 R86
M73 Q3 S87
G1 X162.743 Y90.706 E0.38264
G1 X162.517 Y91.018 E0.01221
G1 X154.466 Y82.967 E0.36057
G1 X154.537 Y83.300 E0.01081
G1 X154.553 Y83.592 E0.00926
G1 X162.290 Y91.330 E0.34652
G1 X162.064 Y91.642 E0.01221
G1 X154.560 Y84.138 E0.33605
G1 X154.499 Y84.616 E0.01524
G1 X161.837 Y91.954 E0.32864
G1 X161.610 Y92.266 E0.01221
G1 X154.385 Y85.041 E0.32356
G1 X154.248 Y85.442 E0.01344
G1 X161.384 Y92.578 E0.31955
G1 X161.157 Y92.890 E0.01221
G1 X154.068 Y85.800 E0.31748
G1 X153.973 Y85.988 E0.00667
G1 X153.864 Y86.136 E0.00579
G1 X160.930 Y93.202 E0.31645
G1 X160.704 Y93.513 E0.01221
G1 X153.635 Y86.445 E0.31655
G1 X153.562 Y86.544 E0.00389
G1 X153.375 Y86.723 E0.00821
G1 X160.477 Y93.825 E0.31806
G1 X160.250 Y94.137 E0.01221
G1 X153.100 Y86.987 E0.32022
G1 X152.783 Y87.209 E0.01225
G1 X160.024 Y94.449 E0.32427
G1 X159.797 Y94.761 E0.01221
G1 X152.459 Y87.423 E0.32862
G1 X152.088 Y87.591 E0.01289
G1 X159.570 Y95.073 E0.33509
G1 X159.344 Y95.385 E0.01221
G1 X151.695 Y87.737 E0.34253
G1 X151.268 Y87.848 E0.01398
G1 X159.117 Y95.697 E0.35152
G1 X158.714 Y95.832 E0.01348
G1 X150.784 Y87.902 E0.35512
G1 X150.504 Y87.926 E0.00889
G1 X150.247 Y87.904 E0.00817
G1 X158.307 Y95.964 E0.36095
G1 X157.901 Y96.096 E0.01354
G1 X149.384 Y87.580 E0.38140
;WIPE_START
G1 F8640.000
G1 X151.712 Y89.907 E-0.76000
;WIPE_END
G1 E-0.04000 F2100.000
G1 Z0.600 F10800.000
G1 X151.621 Y80.122
G1 Z0.200
G1 E0.80000 F2100.000
G1 F1200.000
G1 X143.108 Y71.609 E0.38126
G1 X142.701 Y71.741 E0.01354
G1 X150.754 Y79.794 E0.36066
G1 X150.215 Y79.793 E0.01709
G1 X142.295 Y71.873 E0.35470
G1 X141.891 Y72.008 E0.01348
G1 X149.748 Y79.865 E0.35187
G1 X149.480 Y79.909 E0.00861
G1 X149.313 Y79.968 E0.00561
G1 X141.665 Y72.320 E0.34253
G1 X141.438 Y72.632 E0.01221
G1 X148.915 Y80.109 E0.33486
G1 X148.558 Y80.290 E0.01269
G1 X141.211 Y72.944 E0.32901
M73 Q3 S86
G1 X140.985 Y73.256 E0.01221
G1 X148.214 Y80.485 E0.32375
G1 X147.916 Y80.726 E0.01213
G1 X140.758 Y73.568 E0.32055
G1 X140.531 Y73.880 E0.01221
G1 X147.628 Y80.977 E0.31783
G1 X147.376 Y81.263 E0.01208
G1 X140.305 Y74.192 E0.31669
G1 X140.078 Y74.504 E0.01221
G1 X147.144 Y81.570 E0.31644
G1 X146.941 Y81.906 E0.01242
G1 X139.851 Y74.816 E0.31752
G1 X139.625 Y75.128 E0.01221
G1 X146.766 Y82.269 E0.31982
G1 X146.612 Y82.653 E0.01311
G1 X139.398 Y75.439 E0.32306
G1 X139.171 Y75.751 E0.01221
