; generated by PrusaSlicer 2.3.3+win64 on 2022-01-26 at 08:28:05 UTC

; 

; external perimeters extrusion width = 0.45mm
; perimeters extrusion width = 0.45mm
; infill extrusion width = 0.45mm
; solid infill extrusion width = 0.45mm
; top infill extrusion width = 0.40mm
; first layer extrusion width = 0.42mm

M73 P0 R7
M73 Q0 S7
M201 X1000 Y1000 Z200 E8000 ; sets maximum accelerations, mm/sec^2
M203 X200 Y200 Z12 E120 ; sets maximum feedrates, mm/sec
M204 P1250 R1250 T1250 ; sets acceleration (P, T) and retract acceleration (R), mm/sec^2
M205 X8.00 Y8.00 Z0.40 E4.50 ; sets the jerk limits, mm/sec
M205 S0 T0 ; sets the minimum extruding and travel feed rate, mm/sec
M107
;TYPE:Custom
M862.3 P "MK3SMMU2S" ; printer model check
M862.1 P0.4 ; nozzle diameter check
M115 U3.10.0 ; tell printer latest fw version
G90 ; use absolute coordinates
M83 ; extruder relative mode
M104 S215 ; set extruder temp
M140 S60 ; set bed temp
M190 S60 ; wait for bed temp
M109 S215 ; wait for extruder temp
G28 W ; home all without mesh bed level
G80 ; mesh bed leveling

; Send the filament type to the MMU2.0 unit.
; E stands for extruder number, F stands for filament type (0: default; 1:flex; 2: PVA)
M403 E0 F0
M403 E1 F0
M403 E2 F0
M403 E3 F0
M403 E4 F0


;go outside print area
G1 Y-3.0 F1000.0
M73 P3 R7
M73 Q3 S7
G1 Z0.4 F1000.0
; select extruder
T3
; initial load
G1 X55.0 E29.0 F1073.0
M73 P4 R6
M73 Q4 S7
G1 X5.0 E29.0 F1800.0
G1 X55.0 E8.0 F2000.0
M73 P5 R6
M73 Q5 S6
G1 Z0.3 F1000.0
G92 E0.0
G1 X240.0 E25.0 F2200.0
M73 P6 R6
M73 Q6 S6
G1 Y-2.0 F1000.0
G1 X55.0 E25 F1400.0
M73 P8 R6
M73 Q8 S6
G1 Z0.20 F1000.0
G1 X5.0 E4.0 F1000.0
G92 E0.0


M221 S95
G92 E0.0

; Don't change E values below. Excessive value can damage the printer.

M907 E538 ; set extruder motor current
G21 ; set units to millimeters
G90 ; use absolute coordinates
M83 ; use relative distances for extrusion
T3
M900 K0.05 ; Filament gcode LA 1.5
M900 K30 ; Filament gcode LA 1.0
;LAYER_CHANGE
;Z:0.2
;HEIGHT:0.2
;BEFORE_LAYER_CHANGE
G92 E0.0
;0.2


M73 P9 R6
M73 Q9 S6
G1 E-0.80000 F2100.000
G1 Z0.400 F10800.000
;AFTER_LAYER_CHANGE
;0.2
G1 X130.452 Y83.323
G1 Z0.200
G1 E0.80000 F2100.000
M204 S1000
;TYPE:Skirt
;WIDTH:0.42
G1 F939
G1 X130.887 Y82.670 E0.02458
G1 X131.651 Y81.813 E0.03600
G1 X132.598 Y81.076 E0.03760
G1 X133.634 Y80.540 E0.03660
G1 X134.701 Y80.209 E0.03500
G1 X136.103 Y80.056 E0.04422
G1 X137.495 Y80.210 E0.04392
G1 X138.565 Y80.543 E0.03515
G1 X139.597 Y81.078 E0.03645
G1 X140.543 Y81.816 E0.03761
G1 X141.304 Y82.670 E0.03586
G1 X141.741 Y83.326 E0.02473
G1 X142.107 Y84.077 E0.02618
G1 X142.470 Y85.249 E0.03847
G1 X142.602 Y86.445 E0.03775
G1 X142.515 Y87.609 E0.03658
G1 X142.346 Y88.379 E0.02473
G1 X142.068 Y89.142 E0.02545
G1 X141.483 Y90.215 E0.03832
G1 X140.761 Y91.103 E0.03588
G1 X139.820 Y91.898 E0.03861
G1 X139.129 Y92.323 E0.02545
G1 X138.408 Y92.643 E0.02473
G1 X137.218 Y92.975 E0.03875
G1 X136.092 Y93.073 E0.03544
G1 X134.970 Y92.974 E0.03530
M73 Q10 S6
G1 X133.780 Y92.642 E0.03875
M73 P10 R6
G1 X133.063 Y92.323 E0.02458
G1 X132.372 Y91.898 E0.02545
G1 X131.428 Y91.100 E0.03876
G1 X130.706 Y90.212 E0.03588
G1 X130.122 Y89.138 E0.03832
G1 X129.846 Y88.380 E0.02531
G1 X129.676 Y87.605 E0.02487
G1 X129.590 Y86.442 E0.03658
G1 X129.723 Y85.245 E0.03775
G1 X130.086 Y84.073 E0.03847
G1 X130.426 Y83.377 E0.02430
G1 X130.764 Y83.541 F10800.000
G1 F939
G1 X131.198 Y82.885 E0.02467
G1 X131.916 Y82.082 E0.03379
G1 X132.802 Y81.393 E0.03517
G1 X133.771 Y80.892 E0.03421
G1 X134.775 Y80.579 E0.03298
G1 X136.101 Y80.433 E0.04182
G1 X137.424 Y80.580 E0.04173
G1 X138.424 Y80.893 E0.03284
G1 X139.392 Y81.395 E0.03421
G1 X140.278 Y82.083 E0.03517
G1 X140.993 Y82.883 E0.03365
G1 X141.413 Y83.511 E0.02368
G1 X141.761 Y84.226 E0.02492
G1 X142.100 Y85.322 E0.03598
G1 X142.225 Y86.446 E0.03544
G1 X142.146 Y87.534 E0.03420
G1 X141.983 Y88.276 E0.02382
G1 X141.720 Y88.998 E0.02410
G1 X141.170 Y90.005 E0.03598
G1 X140.496 Y90.835 E0.03353
G1 X139.614 Y91.582 E0.03625
G1 X138.952 Y91.990 E0.02437
G1 X138.265 Y92.294 E0.02355
G1 X137.147 Y92.605 E0.03638
G1 X136.095 Y92.696 E0.03312
G1 X135.046 Y92.605 E0.03299
G1 X133.928 Y92.295 E0.03639
G1 X133.242 Y91.991 E0.02355
G1 X132.580 Y91.583 E0.02437
G1 X131.697 Y90.836 E0.03625
G1 X131.022 Y90.007 E0.03353
G1 X130.473 Y88.999 E0.03598
G1 X130.208 Y88.273 E0.02423
G1 X130.046 Y87.535 E0.02368
G1 X129.967 Y86.443 E0.03434
G1 X130.091 Y85.324 E0.03531
G1 X130.432 Y84.223 E0.03612
G1 X130.738 Y83.595 E0.02191
G1 X131.077 Y83.760 F10800.000
G1 F939
G1 X131.508 Y83.099 E0.02475
G1 X132.181 Y82.350 E0.03158
G1 X133.006 Y81.710 E0.03274
G1 X133.912 Y81.241 E0.03198
G1 X134.846 Y80.949 E0.03070
G1 X136.100 Y80.810 E0.03954
G1 X137.348 Y80.950 E0.03940
G1 X138.283 Y81.243 E0.03069
G1 X139.185 Y81.710 E0.03185
G1 X140.013 Y82.352 E0.03287
G1 X140.683 Y83.098 E0.03145
G1 X141.083 Y83.694 E0.02249
G1 X141.413 Y84.372 E0.02365
M73 Q11 S6
G1 X141.731 Y85.401 E0.03377
M73 P11 R6
G1 X141.848 Y86.443 E0.03287
G1 X141.776 Y87.460 E0.03197
G1 X141.370 Y88.858 E0.04564
G1 X140.855 Y89.799 E0.03363
G1 X140.229 Y90.568 E0.03108
G1 X139.405 Y91.268 E0.03389
G1 X138.122 Y91.945 E0.04551
G1 X137.076 Y92.234 E0.03402
G1 X136.096 Y92.319 E0.03083
G1 X135.117 Y92.234 E0.03083
G1 X134.071 Y91.946 E0.03402
G1 X132.787 Y91.268 E0.04551
G1 X131.963 Y90.568 E0.03389
G1 X131.335 Y89.796 E0.03121
G1 X130.822 Y88.859 E0.03351
G1 X130.416 Y87.461 E0.04564
G1 X130.344 Y86.444 E0.03197
G1 X130.460 Y85.402 E0.03287
G1 X130.778 Y84.373 E0.03377
G1 X131.050 Y83.814 E0.01949
G1 X131.125 Y84.522 F10800.000
G1 F939
G1 X131.820 Y83.311 E0.04378
G1 X132.446 Y82.618 E0.02926
G1 X133.212 Y82.027 E0.03034
G1 X134.054 Y81.591 E0.02975
G1 X134.920 Y81.319 E0.02844
G1 X136.099 Y81.187 E0.03721
G1 X137.274 Y81.320 E0.03706
G1 X138.139 Y81.591 E0.02844
G1 X138.979 Y82.025 E0.02963
G1 X139.747 Y82.619 E0.03046
G1 X140.373 Y83.312 E0.02926
G1 X141.068 Y84.523 E0.04378
G1 X141.362 Y85.477 E0.03129
G1 X141.471 Y86.446 E0.03058
G1 X141.406 Y87.388 E0.02962
G1 X141.019 Y88.718 E0.04343
G1 X140.541 Y89.590 E0.03117
G1 X139.959 Y90.305 E0.02892
G1 X139.196 Y90.954 E0.03141
G1 X137.974 Y91.598 E0.04331
G1 X137.004 Y91.864 E0.03152
G1 X136.093 Y91.942 E0.02868
G1 X135.186 Y91.864 E0.02856
G1 X134.216 Y91.598 E0.03152
G1 X132.994 Y90.953 E0.04331
G1 X132.232 Y90.304 E0.03141
G1 X131.650 Y89.588 E0.02892
G1 X131.172 Y88.717 E0.03117
G1 X130.786 Y87.387 E0.04343
G1 X130.721 Y86.440 E0.02974
G1 X130.830 Y85.475 E0.03046
G1 X131.107 Y84.579 E0.02941
; printing object body348 id:0 copy 0
;WIPE_START
G1 F8640.000
G1 X131.820 Y83.311 E-0.33596
G1 X132.446 Y82.618 E-0.21548
G1 X133.161 Y82.066 E-0.20856
;WIPE_END
G1 E-0.04000 F2100.000
G1 Z0.600 F10800.000
G1 X134.029 Y85.781
G1 Z0.200
G1 E0.80000 F2100.000
;TYPE:Perimeter
M73 Q12 S6
G1 F939
G1 X134.182 Y85.459 E0.01115
M73 P12 R6
G1 X134.384 Y85.167 E0.01115
G1 X134.630 Y84.910 E0.01115
G1 X134.915 Y84.696 E0.01115
G1 X135.229 Y84.531 E0.01115
G1 X135.567 Y84.418 E0.01115
G1 X135.933 Y84.359 E0.01163
G1 X136.103 Y84.352 E0.00534
G1 X136.258 Y84.359 E0.00486
G1 X136.625 Y84.418 E0.01165
G1 X136.962 Y84.531 E0.01115
G1 X137.277 Y84.696 E0.01115
G1 X137.562 Y84.910 E0.01115
G1 X137.808 Y85.167 E0.01115
G1 X138.010 Y85.459 E0.01115
G1 X138.156 Y85.768 E0.01070
G1 X138.262 Y86.124 E0.01165
G1 X138.304 Y86.475 E0.01110
G1 X138.290 Y86.831 E0.01115
G1 X138.219 Y87.179 E0.01115
G1 X138.098 Y87.499 E0.01070
G1 X137.914 Y87.821 E0.01165
G1 X137.690 Y88.096 E0.01110
G1 X137.424 Y88.332 E0.01115
G1 X137.123 Y88.522 E0.01115
G1 X136.796 Y88.661 E0.01115
G1 X136.450 Y88.746 E0.01115
G1 X136.096 Y88.775 E0.01115
G1 X135.741 Y88.746 E0.01115
G1 X135.396 Y88.661 E0.01115
G1 X135.069 Y88.522 E0.01115
G1 X134.768 Y88.332 E0.01115
G1 X134.502 Y88.096 E0.01115
G1 X134.277 Y87.820 E0.01115
G1 X134.099 Y87.512 E0.01115
G1 X133.973 Y87.179 E0.01115
G1 X133.905 Y86.845 E0.01070
G1 X133.888 Y86.474 E0.01165
G1 X133.930 Y86.122 E0.01110
G1 X134.012 Y85.838 E0.00927
G1 X133.650 Y85.733 F10800.000
;TYPE:External perimeter
G1 F939
G1 X133.854 Y85.270 E0.01587
G1 X134.091 Y84.927 E0.01306
G1 X134.379 Y84.627 E0.01306
G1 X134.712 Y84.377 E0.01306
G1 X135.081 Y84.183 E0.01306
G1 X135.476 Y84.051 E0.01306
G1 X135.895 Y83.983 E0.01331
G1 X136.296 Y83.983 E0.01256
G1 X136.715 Y84.051 E0.01332
G1 X137.111 Y84.183 E0.01306
G1 X137.479 Y84.377 E0.01306
G1 X137.812 Y84.627 E0.01306
G1 X138.101 Y84.927 E0.01306
G1 X138.338 Y85.270 E0.01306
G1 X138.510 Y85.633 E0.01258
G1 X138.632 Y86.047 E0.01356
G1 X138.682 Y86.460 E0.01304
G1 X138.666 Y86.877 E0.01306
G1 X138.582 Y87.285 E0.01306
G1 X138.440 Y87.660 E0.01258
G1 X138.226 Y88.035 E0.01356
G1 X137.963 Y88.358 E0.01304
G1 X137.651 Y88.634 E0.01306
G1 X137.299 Y88.857 E0.01306
G1 X136.916 Y89.020 E0.01306
G1 X136.511 Y89.120 E0.01306
G1 X136.096 Y89.153 E0.01306
G1 X135.681 Y89.120 E0.01306
G1 X135.276 Y89.020 E0.01306
G1 X134.893 Y88.857 E0.01306
G1 X134.541 Y88.634 E0.01306
G1 X134.229 Y88.358 E0.01306
G1 X133.965 Y88.035 E0.01306
G1 X133.757 Y87.674 E0.01306
G1 X133.609 Y87.285 E0.01306
G1 X133.529 Y86.892 E0.01258
G1 X133.509 Y86.460 E0.01356
G1 X133.560 Y86.047 E0.01304
G1 X133.634 Y85.791 E0.00835
G1 X134.044 Y85.660 F10800.000
;WIPE_START
G1 F8640.000
G1 X133.854 Y85.270 E-0.13060
G1 X134.091 Y84.927 E-0.09619
G1 X134.379 Y84.627 E-0.09619
G1 X134.712 Y84.377 E-0.09619
G1 X135.081 Y84.183 E-0.09619
G1 X135.476 Y84.051 E-0.09619
G1 X135.895 Y83.983 E-0.09804
G1 X136.114 Y83.983 E-0.05038
;WIPE_END
G1 E-0.04000 F2100.000
G1 Z0.600 F10800.000
G1 X138.047 Y85.800
G1 Z0.200
G1 E0.80000 F2100.000
;TYPE:Solid infill
;WIDTH:0.427219
G1 F939
G1 X137.354 Y85.108 E0.03130
G1 X137.126 Y84.936 E0.00914
G1 X136.851 Y84.792 E0.00991
G1 X136.557 Y84.694 E0.00991
G1 X136.366 Y84.663 E0.00620
G1 X137.998 Y86.295 E0.07375
G1 X138.021 Y86.487 E0.00618
G1 X138.000 Y86.840 E0.01131
G1 X135.823 Y84.663 E0.09838
G1 X135.635 Y84.694 E0.00608
G1 X135.391 Y84.775 E0.00821
G1 X137.883 Y87.267 E0.11262
G1 X137.841 Y87.378 E0.00377
G1 X137.699 Y87.627 E0.00917
G1 X135.033 Y84.961 E0.12048
G1 X134.818 Y85.122 E0.00859
G1 X134.736 Y85.208 E0.00377
G1 X137.455 Y87.926 E0.12285
G1 X137.253 Y88.105 E0.00861
G1 X137.153 Y88.168 E0.00378
G1 X134.492 Y85.507 E0.12025
G1 X134.427 Y85.601 E0.00366
G1 X134.304 Y85.862 E0.00922
G1 X136.796 Y88.354 E0.11261
M73 P13 R6
M73 Q13 S6
G1 X136.706 Y88.392 E0.00312
G1 X136.368 Y88.469 E0.01109
G1 X134.194 Y86.296 E0.09823
G1 X134.171 Y86.484 E0.00608
G1 X134.191 Y86.836 E0.01126
G1 X135.824 Y88.469 E0.07379
G1 X135.486 Y88.392 E0.01109
G1 X135.201 Y88.270 E0.00991
G1 X134.938 Y88.105 E0.00991
G1 X134.157 Y87.345 E0.03484
; stop printing object body348 id:0 copy 0
M106 S84.15
;LAYER_CHANGE
;Z:0.35
;HEIGHT:0.15
;BEFORE_LAYER_CHANGE
G92 E0.0
;0.35


;WIPE_START
G1 F8640.000
G1 X134.938 Y88.105 E-0.25172
G1 X135.201 Y88.270 E-0.07159
G1 X135.486 Y88.392 E-0.07159
G1 X135.824 Y88.469 E-0.08015
G1 X134.952 Y87.597 E-0.28495
;WIPE_END
G1 E-0.04000 F2100.000
G1 Z0.600 F10800.000
;AFTER_LAYER_CHANGE
;0.35
M104 S205 ; set temperature
G1 X131.428 Y91.100
G1 Z0.350
G1 E0.80000 F2100.000
;TYPE:Skirt
;WIDTH:0.42
G1 F900
G1 X130.706 Y90.212 E0.02767
G1 X130.122 Y89.138 E0.02956
G1 X129.846 Y88.380 E0.01952
G1 X129.676 Y87.605 E0.01919
G1 X129.590 Y86.442 E0.02822
G1 X129.723 Y85.245 E0.02912
G1 X130.086 Y84.073 E0.02967
G1 X130.452 Y83.323 E0.02019
G1 X130.887 Y82.670 E0.01896
G1 X131.651 Y81.813 E0.02777
G1 X132.598 Y81.076 E0.02901
G1 X133.634 Y80.540 E0.02823
G1 X134.701 Y80.209 E0.02700
G1 X136.103 Y80.056 E0.03411
G1 X137.495 Y80.210 E0.03388
G1 X138.565 Y80.543 E0.02711
G1 X139.597 Y81.078 E0.02812
G1 X140.543 Y81.816 E0.02901
G1 X141.304 Y82.670 E0.02766
G1 X141.741 Y83.326 E0.01907
G1 X142.107 Y84.077 E0.02019
G1 X142.470 Y85.249 E0.02967
G1 X142.602 Y86.445 E0.02912
G1 X142.515 Y87.609 E0.02822
G1 X142.346 Y88.379 E0.01907
G1 X142.068 Y89.142 E0.01963
G1 X141.483 Y90.215 E0.02956
G1 X140.761 Y91.103 E0.02767
G1 X139.820 Y91.898 E0.02978
G1 X139.129 Y92.323 E0.01963
G1 X138.408 Y92.643 E0.01907
G1 X137.218 Y92.975 E0.02989
G1 X136.092 Y93.073 E0.02734
G1 X134.970 Y92.974 E0.02723
G1 X133.780 Y92.642 E0.02989
G1 X133.063 Y92.323 E0.01896
G1 X132.372 Y91.898 E0.01963
G1 X131.474 Y91.138 E0.02844
G1 X131.717 Y90.852 F10800.000
G1 F900
G1 X131.022 Y90.007 E0.02646
G1 X130.473 Y88.999 E0.02775
G1 X130.208 Y88.273 E0.01869
G1 X130.046 Y87.535 E0.01827
M73 P14 R6
M73 Q14 S6
G1 X129.967 Y86.443 E0.02649
G1 X130.091 Y85.324 E0.02723
G1 X130.432 Y84.223 E0.02786
G1 X130.780 Y83.509 E0.01922
G1 X131.198 Y82.885 E0.01816
G1 X131.916 Y82.082 E0.02606
G1 X132.802 Y81.393 E0.02712
G1 X133.771 Y80.892 E0.02639
G1 X134.775 Y80.579 E0.02544
G1 X136.101 Y80.433 E0.03226
G1 X137.424 Y80.580 E0.03219
G1 X138.424 Y80.893 E0.02533
G1 X139.392 Y81.395 E0.02639
G1 X140.278 Y82.083 E0.02713
G1 X140.993 Y82.883 E0.02596
G1 X141.413 Y83.511 E0.01827
G1 X141.761 Y84.226 E0.01922
G1 X142.100 Y85.322 E0.02776
G1 X142.225 Y86.446 E0.02734
G1 X142.146 Y87.534 E0.02638
G1 X141.983 Y88.276 E0.01837
G1 X141.720 Y88.998 E0.01859
G1 X141.170 Y90.005 E0.02775
G1 X140.496 Y90.835 E0.02586
G1 X139.614 Y91.582 E0.02796
G1 X138.952 Y91.990 E0.01880
G1 X138.265 Y92.294 E0.01816
G1 X137.147 Y92.605 E0.02807
G1 X136.095 Y92.696 E0.02555
G1 X135.046 Y92.605 E0.02544
G1 X133.928 Y92.295 E0.02807
G1 X133.242 Y91.991 E0.01816
G1 X132.580 Y91.583 E0.01880
G1 X131.762 Y90.891 E0.02591
;WIPE_START
G1 F8640.000
G1 X131.022 Y90.007 E-0.26627
G1 X130.473 Y88.999 E-0.26496
G1 X130.208 Y88.273 E-0.17846
G1 X130.161 Y88.060 E-0.05032
;WIPE_END
G1 E-0.04000 F2100.000
G1 Z0.750 F10800.000
G1 X132.787 Y91.268
G1 Z0.350
G1 E0.80000 F2100.000
G1 F900
G1 X131.963 Y90.568 E0.02614
G1 X131.335 Y89.796 E0.02408
G1 X130.822 Y88.859 E0.02585
G1 X130.416 Y87.461 E0.03520
G1 X130.344 Y86.444 E0.02466
G1 X130.460 Y85.402 E0.02536
G1 X130.778 Y84.373 E0.02604
G1 X131.108 Y83.695 E0.01824
G1 X131.508 Y83.099 E0.01735
G1 X132.181 Y82.350 E0.02436
G1 X133.006 Y81.710 E0.02526
G1 X133.912 Y81.241 E0.02467
G1 X134.846 Y80.949 E0.02368
G1 X136.100 Y80.810 E0.03050
G1 X137.348 Y80.950 E0.03039
G1 X138.283 Y81.243 E0.02368
G1 X139.185 Y81.710 E0.02457
G1 X140.013 Y82.352 E0.02536
G1 X140.683 Y83.098 E0.02426
M73 P15 R6
G1 X141.083 Y83.694 E0.01735
M73 Q15 S6
G1 X141.413 Y84.372 E0.01824
G1 X141.731 Y85.401 E0.02605
G1 X141.848 Y86.443 E0.02536
G1 X141.776 Y87.460 E0.02466
G1 X141.370 Y88.858 E0.03521
G1 X140.855 Y89.799 E0.02594
G1 X140.229 Y90.568 E0.02398
G1 X139.405 Y91.268 E0.02614
G1 X138.122 Y91.945 E0.03511
G1 X137.076 Y92.234 E0.02624
G1 X136.096 Y92.319 E0.02378
G1 X135.117 Y92.234 E0.02378
G1 X134.071 Y91.946 E0.02624
G1 X132.840 Y91.296 E0.03365
G1 X133.015 Y90.964 F10800.000
G1 F900
G1 X132.232 Y90.304 E0.02479
G1 X131.650 Y89.588 E0.02231
G1 X131.172 Y88.717 E0.02404
G1 X130.786 Y87.387 E0.03350
G1 X130.721 Y86.440 E0.02294
G1 X130.830 Y85.475 E0.02350
G1 X131.125 Y84.522 E0.02413
G1 X131.820 Y83.311 E0.03377
G1 X132.446 Y82.618 E0.02257
G1 X133.212 Y82.027 E0.02340
G1 X134.054 Y81.591 E0.02295
G1 X134.920 Y81.319 E0.02193
G1 X136.099 Y81.187 E0.02870
G1 X137.274 Y81.320 E0.02859
G1 X138.139 Y81.591 E0.02193
G1 X138.979 Y82.025 E0.02285
G1 X139.747 Y82.619 E0.02350
G1 X140.373 Y83.312 E0.02257
G1 X141.068 Y84.523 E0.03377
G1 X141.362 Y85.477 E0.02413
G1 X141.471 Y86.446 E0.02359
G1 X141.406 Y87.388 E0.02285
G1 X141.019 Y88.718 E0.03350
G1 X140.541 Y89.590 E0.02404
G1 X139.959 Y90.305 E0.02230
G1 X139.196 Y90.954 E0.02423
G1 X137.974 Y91.598 E0.03341
G1 X137.004 Y91.864 E0.02431
G1 X136.093 Y91.942 E0.02212
G1 X135.186 Y91.864 E0.02203
G1 X134.216 Y91.598 E0.02431
G1 X133.068 Y90.992 E0.03138
; printing object body348 id:0 copy 0
;WIPE_START
G1 F8640.000
G1 X132.232 Y90.304 E-0.25019
G1 X131.650 Y89.588 E-0.21295
G1 X131.172 Y88.717 E-0.22953
G1 X131.091 Y88.437 E-0.06733
;WIPE_END
G1 E-0.04000 F2100.000
G1 Z0.750 F10800.000
G1 X134.681 Y88.447
G1 Z0.350
G1 E0.80000 F2100.000
M204 S800
;TYPE:Perimeter
;WIDTH:0.45
G1 F900
G1 X134.397 Y88.196 E0.00988
G1 X134.158 Y87.902 E0.00988
