; generated by PrusaSlicer 2.3.3+win64 on 2022-01-26 at 08:26:47 UTC

; 

; external perimeters extrusion width = 0.45mm
; perimeters extrusion width = 0.45mm
; infill extrusion width = 0.45mm
; solid infill extrusion width = 0.45mm
; top infill extrusion width = 0.40mm
; first layer extrusion width = 0.42mm

; external perimeters extrusion width = 0.45mm
; perimeters extrusion width = 0.45mm
; infill extrusion width = 0.45mm
; solid infill extrusion width = 0.45mm
; top infill extrusion width = 0.40mm
; first layer extrusion width = 0.42mm

; external perimeters extrusion width = 0.45mm
; perimeters extrusion width = 0.45mm
; infill extrusion width = 0.45mm
; solid infill extrusion width = 0.45mm
; top infill extrusion width = 0.40mm
; first layer extrusion width = 0.42mm

; external perimeters extrusion width = 0.45mm
; perimeters extrusion width = 0.45mm
; infill extrusion width = 0.45mm
; solid infill extrusion width = 0.45mm
; top infill extrusion width = 0.40mm
; first layer extrusion width = 0.42mm

; external perimeters extrusion width = 0.45mm
; perimeters extrusion width = 0.45mm
; infill extrusion width = 0.45mm
; solid infill extrusion width = 0.45mm
; top infill extrusion width = 0.40mm
; first layer extrusion width = 0.42mm

M73 P0 R159
M73 Q0 S161
M201 X1000 Y1000 Z200 E8000 ; sets maximum accelerations, mm/sec^2
M203 X200 Y200 Z12 E120 ; sets maximum feedrates, mm/sec
M204 P1250 R1250 T1250 ; sets acceleration (P, T) and retract acceleration (R), mm/sec^2
M205 X8.00 Y8.00 Z0.40 E4.50 ; sets the jerk limits, mm/sec
M205 S0 T0 ; sets the minimum extruding and travel feed rate, mm/sec
M107
;TYPE:Custom
M862.3 P "MK3SMMU2S" ; printer model check
M862.1 P0.4 ; nozzle diameter check
M115 U3.10.0 ; tell printer latest fw version
G90 ; use absolute coordinates
M83 ; extruder relative mode
M104 S215 ; set extruder temp
M140 S60 ; set bed temp
M190 S60 ; wait for bed temp
M109 S215 ; wait for extruder temp
G28 W ; home all without mesh bed level
G80 ; mesh bed leveling

; Send the filament type to the MMU2.0 unit.
; E stands for extruder number, F stands for filament type (0: default; 1:flex; 2: PVA)
M403 E0 F0
M403 E1 F0
M403 E2 F0
M403 E3 F0
M403 E4 F0


;go outside print area
G1 Y-3.0 F1000.0
M73 Q0 S160
G1 Z0.4 F1000.0
; select extruder
T1
; initial load
G1 X55.0 E29.0 F1073.0
G1 X5.0 E29.0 F1800.0
G1 X55.0 E8.0 F2000.0
G1 Z0.3 F1000.0
G92 E0.0
G1 X240.0 E25.0 F2200.0
G1 Y-2.0 F1000.0
G1 X55.0 E25 F1400.0
G1 Z0.20 F1000.0
G1 X5.0 E4.0 F1000.0
G92 E0.0


M221 S95
G92 E0.0

; Don't change E values below. Excessive value can damage the printer.

M907 E538 ; set extruder motor current
G21 ; set units to millimeters
G90 ; use absolute coordinates
M83 ; use relative distances for extrusion
T1
M900 K0.05 ; Filament gcode LA 1.5
M900 K30 ; Filament gcode LA 1.0
G1 Z0.200 F10800.000
;LAYER_CHANGE
;Z:0.2
;HEIGHT:0.2
;BEFORE_LAYER_CHANGE
G92 E0.0
;0.2


G1 E-0.80000 F2100.000
G1 Z0.600 F10800.000
G1 Z0.200
;AFTER_LAYER_CHANGE
;0.2
G1 E-1.20000 F2100.000
G1 Z0.600 F10800.000
G1 X233.930 Y20.060
G1 Z0.200
G1 E2.00000 F2100.000
;HEIGHT:0.200000
;TYPE:Wipe tower
;WIDTH:0.500000
;-------------------------------------
; CP WIPE TOWER FIRST LAYER BRIM START
G1  X233.930 Y141.400  E6.9175 F2400
G1  X231.387 Y141.857   F7000
G1  Y19.603  E5.1111 F2100
M73 P0 R158
G1  X170.473  E2.5466
G1  Y141.857  E5.1111
G1  X231.387  E2.5466
G1  X231.844 Y142.314   F7000
G1  Y19.146  E5.1493 F2100
G1  X170.016  E2.5849
G1  Y142.314  E5.1493
G1  X231.844  E2.5849
M73 Q0 S159
G1  X232.301 Y142.771   F7000
G1  Y18.689  E5.1875 F2100
G1  X169.559  E2.6231
G1  Y142.771  E5.1875
G1  X232.301  E2.6231
G1  X232.758 Y143.228   F7000
G1  Y18.232  E5.2257 F2100
G1  X169.102  E2.6613
G1  Y143.228  E5.2257
G1  X232.758  E2.6613
; CP WIPE TOWER FIRST LAYER BRIM END
;-----------------------------------

;WIPE_START
G1 F8640.000
G1 X232.301 Y142.771 E-0.14926
G1 X229.656 Y142.771 E-0.61074
;WIPE_END
G1 E-0.04000 F2100.000
G1 Z0.600 F10800.000
G1 X234.713 Y143.941
G1 Z0.200
G1 E0.80000 F2100.000
M204 S1000
;TYPE:Skirt
;WIDTH:0.42
;HEIGHT:0.2
G1 F1200.000
G1 X234.170 Y144.720 E0.02977
G1 X233.423 Y145.203 E0.02790
G1 X232.554 Y145.377 E0.02778
G1 X169.239 Y145.375 E1.98519
G1 X110.760 Y142.424 E1.83589
G1 X110.249 Y142.323 E0.01633
G1 X103.987 Y140.287 E0.20645
G1 X103.490 Y140.042 E0.01740
G1 X103.063 Y139.688 E0.01740
G1 X99.023 Y134.163 E0.21461
G1 X98.697 Y133.507 E0.02296
G1 X98.587 Y132.802 E0.02237
G1 X98.587 Y126.269 E0.20484
G1 X98.653 Y125.733 E0.01692
G1 X121.285 Y53.054 E2.38673
M73 P1 R158
M73 Q1 S159
G1 X121.890 Y51.353 E0.05662
G1 X122.599 Y49.845 E0.05224
G1 X123.459 Y48.407 E0.05252
G1 X124.589 Y46.886 E0.05943
G1 X125.826 Y45.551 E0.05705
G1 X127.150 Y44.388 E0.05526
G1 X128.544 Y43.393 E0.05371
G1 X167.998 Y16.492 E1.49722
G1 X168.697 Y16.169 E0.02414
G1 X169.325 Y16.083 E0.01989
G1 X232.534 Y16.083 E1.98187
M73 P1 R157
G1 X233.436 Y16.263 E0.02884
G1 X234.200 Y16.768 E0.02872
G1 X234.717 Y17.529 E0.02884
G1 X234.907 Y18.429 E0.02884
G1 X234.907 Y143.015 E3.90632
G1 X234.725 Y143.882 E0.02778
; printing object body458 id:3 copy 0
;WIPE_START
G1 F8640.000
G1 X234.170 Y144.720 E-0.23209
G1 X233.423 Y145.203 E-0.20547
G1 X232.554 Y145.377 E-0.20460
G1 X232.044 Y145.377 E-0.11784
;WIPE_END
G1 E-0.04000 F2100.000
G1 Z0.600 F10800.000
G1 X137.519 Y62.051
G1 Z0.200
G1 E0.80000 F2100.000
;TYPE:Perimeter
G1 F1200.000
G1 X137.239 Y62.369 E0.01328
G1 X136.889 Y62.655 E0.01419
G1 X136.504 Y62.871 E0.01383
G1 X136.090 Y63.017 E0.01377
G1 X135.657 Y63.091 E0.01377
G1 X135.218 Y63.091 E0.01377
G1 X134.785 Y63.017 E0.01377
G1 X134.371 Y62.871 E0.01377
G1 X133.988 Y62.656 E0.01377
G1 X133.646 Y62.380 E0.01377
G1 X133.356 Y62.051 E0.01377
G1 X133.126 Y61.677 E0.01377
G1 X132.968 Y61.284 E0.01328
G1 X132.870 Y60.842 E0.01419
G1 X132.851 Y60.401 E0.01383
G1 X132.907 Y59.966 E0.01377
G1 X133.035 Y59.546 E0.01377
G1 X133.226 Y59.167 E0.01328
G1 X133.493 Y58.802 E0.01419
G1 X133.811 Y58.497 E0.01383
G1 X134.175 Y58.251 E0.01377
G1 X134.575 Y58.070 E0.01377
G1 X135.000 Y57.959 E0.01377
G1 X135.422 Y57.923 E0.01328
G1 X135.873 Y57.959 E0.01419
G1 X136.300 Y58.070 E0.01383
G1 X136.700 Y58.251 E0.01377
G1 X137.064 Y58.497 E0.01377
G1 X137.381 Y58.801 E0.01377
G1 X137.642 Y59.154 E0.01377
G1 X137.840 Y59.546 E0.01377
G1 X137.969 Y59.966 E0.01377
G1 X138.025 Y60.401 E0.01377
G1 X138.006 Y60.840 E0.01377
G1 X137.913 Y61.269 E0.01377
G1 X137.750 Y61.677 E0.01377
G1 X137.551 Y62.000 E0.01189
G1 X137.230 Y61.802 F10800.000
;TYPE:External perimeter
G1 F1200.000
G1 X136.977 Y62.097 E0.01217
G1 X136.676 Y62.342 E0.01218
G1 X136.348 Y62.526 E0.01178
G1 X135.995 Y62.651 E0.01176
G1 X135.625 Y62.714 E0.01176
G1 X135.250 Y62.714 E0.01176
G1 X134.881 Y62.651 E0.01176
G1 X134.527 Y62.526 E0.01176
G1 X134.200 Y62.343 E0.01176
G1 X133.908 Y62.107 E0.01176
G1 X133.660 Y61.826 E0.01176
G1 X133.464 Y61.506 E0.01176
G1 X133.329 Y61.172 E0.01131
G1 X133.245 Y60.793 E0.01218
G1 X133.229 Y60.417 E0.01178
G1 X133.277 Y60.045 E0.01176
G1 X133.386 Y59.687 E0.01176
G1 X133.549 Y59.365 E0.01131
G1 X133.778 Y59.051 E0.01218
G1 X134.049 Y58.791 E0.01178
G1 X134.359 Y58.581 E0.01176
G1 X134.701 Y58.427 E0.01176
G1 X135.064 Y58.332 E0.01176
G1 X135.423 Y58.302 E0.01131
G1 X135.811 Y58.332 E0.01218
G1 X136.174 Y58.427 E0.01178
G1 X136.516 Y58.581 E0.01176
G1 X136.827 Y58.791 E0.01176
G1 X137.097 Y59.051 E0.01176
G1 X137.320 Y59.352 E0.01176
G1 X137.489 Y59.687 E0.01176
G1 X137.599 Y60.045 E0.01176
G1 X137.646 Y60.417 E0.01176
G1 X137.631 Y60.792 E0.01176
G1 X137.552 Y61.159 E0.01176
G1 X137.412 Y61.506 E0.01176
G1 X137.261 Y61.751 E0.00900
G1 X137.388 Y62.157 F10800.000
;WIPE_START
G1 F8640.000
G1 X136.977 Y62.097 E-0.10335
G1 X136.676 Y62.342 E-0.08967
G1 X136.348 Y62.526 E-0.08674
G1 X135.995 Y62.651 E-0.08658
G1 X135.625 Y62.714 E-0.08658
G1 X135.250 Y62.714 E-0.08658
G1 X134.881 Y62.651 E-0.08658
G1 X134.527 Y62.526 E-0.08658
G1 X134.348 Y62.426 E-0.04733
;WIPE_END
G1 E-0.04000 F2100.000
G1 Z0.600 F10800.000
G1 X139.371 Y57.871
G1 Z0.200
G1 E0.80000 F2100.000
;TYPE:Perimeter
G1 F1200.000
G1 X138.988 Y57.656 E0.01377
G1 X138.646 Y57.380 E0.01377
G1 X138.356 Y57.051 E0.01377
G1 X138.126 Y56.677 E0.01377
G1 X137.962 Y56.269 E0.01377
G1 X137.869 Y55.840 E0.01377
G1 X137.851 Y55.401 E0.01377
G1 X137.907 Y54.966 E0.01377
G1 X138.035 Y54.546 E0.01377
G1 X138.233 Y54.154 E0.01377
G1 X138.494 Y53.801 E0.01377
G1 X138.811 Y53.497 E0.01377
G1 X139.175 Y53.251 E0.01377
G1 X139.575 Y53.070 E0.01377
G1 X140.000 Y52.959 E0.01377
G1 X140.422 Y52.923 E0.01328
G1 X140.873 Y52.959 E0.01419
G1 X141.300 Y53.070 E0.01383
G1 X141.700 Y53.251 E0.01377
G1 X142.064 Y53.497 E0.01377
G1 X142.381 Y53.801 E0.01377
G1 X142.633 Y54.141 E0.01328
G1 X142.840 Y54.544 E0.01419
G1 X142.969 Y54.966 E0.01383
G1 X143.025 Y55.401 E0.01377
G1 X143.006 Y55.840 E0.01377
G1 X142.913 Y56.269 E0.01377
G1 X142.750 Y56.677 E0.01377
G1 X142.519 Y57.051 E0.01377
G1 X142.229 Y57.380 E0.01377
G1 X141.888 Y57.656 E0.01377
G1 X141.518 Y57.863 E0.01328
G1 X141.092 Y58.017 E0.01419
G1 X140.657 Y58.091 E0.01383
G1 X140.218 Y58.091 E0.01377
G1 X139.785 Y58.017 E0.01377
G1 X139.428 Y57.891 E0.01189
G1 X139.553 Y57.535 F10800.000
;TYPE:External perimeter
G1 F1200.000
G1 X139.200 Y57.343 E0.01262
G1 X138.908 Y57.107 E0.01176
G1 X138.660 Y56.826 E0.01176
G1 X138.464 Y56.506 E0.01176
G1 X138.324 Y56.159 E0.01176
G1 X138.245 Y55.792 E0.01176
G1 X138.229 Y55.417 E0.01176
G1 X138.277 Y55.045 E0.01176
G1 X138.386 Y54.687 E0.01176
G1 X138.555 Y54.352 E0.01176
G1 X138.778 Y54.051 E0.01176
G1 X139.049 Y53.791 E0.01176
G1 X139.359 Y53.581 E0.01176
G1 X139.701 Y53.427 E0.01176
G1 X140.064 Y53.332 E0.01176
G1 X140.423 Y53.302 E0.01131
G1 X140.811 Y53.332 E0.01218
G1 X141.174 Y53.427 E0.01178
G1 X141.516 Y53.581 E0.01176
G1 X141.827 Y53.791 E0.01176
G1 X142.097 Y54.051 E0.01176
G1 X142.312 Y54.341 E0.01131
G1 X142.489 Y54.686 E0.01218
G1 X142.599 Y55.045 E0.01178
G1 X142.646 Y55.417 E0.01176
G1 X142.631 Y55.792 E0.01176
G1 X142.552 Y56.159 E0.01176
G1 X142.412 Y56.506 E0.01176
G1 X142.215 Y56.826 E0.01176
G1 X141.967 Y57.107 E0.01176
G1 X141.676 Y57.343 E0.01176
G1 X141.361 Y57.519 E0.01131
G1 X140.995 Y57.650 E0.01218
G1 X140.625 Y57.714 E0.01178
G1 X140.250 Y57.714 E0.01176
G1 X139.881 Y57.651 E0.01176
G1 X139.610 Y57.555 E0.00900
G1 X139.231 Y57.771 F10800.000
;WIPE_START
G1 F8640.000
G1 X139.200 Y57.343 E-0.10664
G1 X138.908 Y57.107 E-0.08658
G1 X138.660 Y56.826 E-0.08658
G1 X138.464 Y56.506 E-0.08658
G1 X138.324 Y56.159 E-0.08658
G1 X138.245 Y55.792 E-0.08658
G1 X138.229 Y55.417 E-0.08658
G1 X138.277 Y55.045 E-0.08658
G1 X138.336 Y54.850 E-0.04728
;WIPE_END
G1 E-0.04000 F2100.000
G1 Z0.600 F10800.000
G1 X151.583 Y54.039
G1 Z0.200
G1 E0.80000 F2100.000
;TYPE:Perimeter
G1 F1200.000
G1 X151.919 Y55.463 E0.04588
G1 X152.107 Y56.914 E0.04588
G1 X152.145 Y58.377 E0.04588
G1 X152.032 Y59.836 E0.04588
G1 X151.770 Y61.275 E0.04588
G1 X151.361 Y62.680 E0.04588
G1 X150.809 Y64.036 E0.04588
G1 X150.122 Y65.327 E0.04588
G1 X149.305 Y66.541 E0.04588
G1 X148.368 Y67.665 E0.04588
G1 X147.334 Y68.672 E0.04525
G1 X146.172 Y69.594 E0.04652
G1 X144.938 Y70.380 E0.04587
G1 X143.629 Y71.034 E0.04588
G1 X142.260 Y71.550 E0.04588
G1 X140.845 Y71.923 E0.04588
G1 X139.399 Y72.148 E0.04588
G1 X137.938 Y72.223 E0.04588
G1 X136.476 Y72.148 E0.04588
G1 X135.031 Y71.923 E0.04588
G1 X133.616 Y71.550 E0.04588
G1 X132.246 Y71.034 E0.04588
G1 X130.938 Y70.380 E0.04588
G1 X129.703 Y69.594 E0.04588
G1 X128.556 Y68.686 E0.04588
G1 X127.508 Y67.665 E0.04588
G1 X126.570 Y66.541 E0.04588
G1 X125.754 Y65.327 E0.04588
G1 X125.066 Y64.036 E0.04588
G1 X124.515 Y62.680 E0.04588
G1 X124.106 Y61.275 E0.04588
G1 X123.843 Y59.836 E0.04588
G1 X123.731 Y58.377 E0.04588
G1 X123.768 Y56.914 E0.04588
G1 X123.956 Y55.463 E0.04588
G1 X124.292 Y54.039 E0.04588
G1 X124.773 Y52.657 E0.04588
G1 X125.393 Y51.332 E0.04588
G1 X126.146 Y50.077 E0.04588
G1 X127.025 Y48.907 E0.04588
G1 X128.019 Y47.833 E0.04588
G1 X129.118 Y46.867 E0.04588
G1 X130.310 Y46.020 E0.04588
G1 X131.584 Y45.299 E0.04588
G1 X132.924 Y44.713 E0.04588
G1 X134.318 Y44.268 E0.04588
G1 X135.751 Y43.969 E0.04588
G1 X137.216 Y43.817 E0.04619
G1 X137.948 Y43.799 E0.02295
G1 X138.659 Y43.817 E0.02231
G1 X140.125 Y43.969 E0.04620
G1 X141.557 Y44.268 E0.04588
G1 X142.951 Y44.713 E0.04588
G1 X144.292 Y45.299 E0.04588
G1 X145.565 Y46.020 E0.04588
G1 X146.758 Y46.867 E0.04588
G1 X147.857 Y47.833 E0.04588
G1 X148.851 Y48.907 E0.04588
G1 X149.729 Y50.077 E0.04588
G1 X150.482 Y51.332 E0.04588
G1 X151.102 Y52.657 E0.04588
G1 X151.563 Y53.983 E0.04400
G1 X151.920 Y53.859 F10800.000
;TYPE:External perimeter
G1 F1200.000
G1 X152.291 Y55.396 E0.04958
G1 X152.484 Y56.885 E0.04710
G1 X152.522 Y58.387 E0.04710
G1 X152.406 Y59.884 E0.04710
G1 X152.137 Y61.362 E0.04710
G1 X151.717 Y62.804 E0.04710
G1 X151.151 Y64.196 E0.04710
G1 X150.445 Y65.522 E0.04710
G1 X149.607 Y66.768 E0.04710
G1 X148.645 Y67.921 E0.04710
G1 X147.584 Y68.956 E0.04646
G1 X146.391 Y69.902 E0.04774
G1 X145.124 Y70.708 E0.04709
G1 X143.780 Y71.380 E0.04710
G1 X142.375 Y71.910 E0.04710
G1 X140.922 Y72.292 E0.04710
G1 X139.438 Y72.523 E0.04710
G1 X137.938 Y72.601 E0.04710
G1 X136.438 Y72.523 E0.04710
G1 X134.953 Y72.292 E0.04710
G1 X133.501 Y71.910 E0.04710
G1 X132.095 Y71.380 E0.04710
G1 X130.752 Y70.708 E0.04710
G1 X129.484 Y69.902 E0.04710
G1 X128.306 Y68.970 E0.04710
G1 X127.231 Y67.921 E0.04710
G1 X126.268 Y66.768 E0.04710
G1 X125.430 Y65.522 E0.04710
G1 X124.724 Y64.196 E0.04710
G1 X124.158 Y62.804 E0.04710
G1 X123.738 Y61.362 E0.04710
G1 X123.469 Y59.884 E0.04710
G1 X123.353 Y58.387 E0.04710
G1 X123.392 Y56.885 E0.04710
G1 X123.585 Y55.396 E0.04710
G1 X123.930 Y53.934 E0.04710
G1 X124.423 Y52.515 E0.04710
G1 X125.060 Y51.154 E0.04710
G1 X125.833 Y49.867 E0.04710
G1 X126.735 Y48.665 E0.04710
G1 X127.755 Y47.563 E0.04710
G1 X128.883 Y46.571 E0.04710
G1 X130.108 Y45.701 E0.04710
G1 X131.415 Y44.961 E0.04710
M73 Q1 S158
G1 X132.791 Y44.360 E0.04710
G1 X134.222 Y43.903 E0.04710
G1 X135.692 Y43.596 E0.04710
G1 X137.192 Y43.441 E0.04726
G1 X137.948 Y43.422 E0.02371
G1 X138.683 Y43.441 E0.02307
G1 X140.183 Y43.596 E0.04726
G1 X141.653 Y43.903 E0.04710
G1 X143.084 Y44.360 E0.04710
G1 X144.461 Y44.961 E0.04710
G1 X145.768 Y45.701 E0.04710
G1 X146.992 Y46.571 E0.04710
G1 X148.120 Y47.563 E0.04710
G1 X149.141 Y48.665 E0.04710
G1 X150.042 Y49.867 E0.04710
G1 X150.815 Y51.154 E0.04710
G1 X151.452 Y52.515 E0.04710
G1 X151.900 Y53.802 E0.04273
G1 X151.644 Y54.149 F10800.000
;WIPE_START
G1 F8640.000
G1 X152.291 Y55.396 E-0.37888
G1 X152.484 Y56.885 E-0.34684
G1 X152.487 Y57.034 E-0.03428
;WIPE_END
G1 E-0.04000 F2100.000
G1 Z0.600 F10800.000
G1 X149.256 Y49.636
G1 Z0.200
G1 E0.80000 F2100.000
;TYPE:Solid infill
;WIDTH:0.424315
G1 F1200.000
G1 X147.636 Y48.016 E0.07266
G1 X146.582 Y47.089 E0.04451
G1 X145.413 Y46.258 E0.04548
G1 X145.243 Y46.162 E0.00620
G1 X149.761 Y50.680 E0.20262
G1 X150.232 Y51.465 E0.02904
G1 X150.431 Y51.889 E0.01486
G1 X144.038 Y45.497 E0.28671
G1 X143.080 Y45.078 E0.03316
G1 X150.880 Y52.878 E0.34981
G1 X151.167 Y53.705 E0.02777
G1 X142.248 Y44.785 E0.40002
G1 X141.460 Y44.537 E0.02621
G1 X151.395 Y54.471 E0.44557
G1 X151.561 Y55.177 E0.02300
G1 X140.778 Y44.394 E0.48362
G1 X140.096 Y44.252 E0.02209
G1 X151.683 Y55.838 E0.51965
G1 X151.763 Y56.458 E0.01981
G1 X139.493 Y44.188 E0.55030
G1 X138.891 Y44.125 E0.01918
G1 X151.828 Y57.062 E0.58021
G1 X151.842 Y57.616 E0.01756
G1 X138.318 Y44.091 E0.60657
G1 X137.773 Y44.086 E0.01727
G1 X151.857 Y58.169 E0.63163
G1 X151.862 Y58.370 E0.00636
G1 X151.837 Y58.689 E0.01016
G1 X137.247 Y44.099 E0.65435
G1 X136.757 Y44.149 E0.01561
G1 X151.798 Y59.190 E0.67458
G1 X151.760 Y59.691 E0.01592
G1 X136.268 Y44.199 E0.69476
G1 X135.781 Y44.251 E0.01555
G1 X151.686 Y60.156 E0.71334
G1 X151.603 Y60.613 E0.01471
G1 X135.335 Y44.344 E0.72962
G1 X134.889 Y44.438 E0.01445
G1 X151.520 Y61.069 E0.74590
G1 X151.410 Y61.499 E0.01406
G1 X134.442 Y44.531 E0.76099
G1 X134.029 Y44.657 E0.01370
G1 X151.288 Y61.916 E0.77407
G1 X151.167 Y62.334 E0.01380
