; generated by PrusaSlicer 2.3.3+win64 on 2022-02-10 at 13:51:36 UTC

; 

; external perimeters extrusion width = 0.45mm
; perimeters extrusion width = 0.45mm
; infill extrusion width = 0.45mm
; solid infill extrusion width = 0.45mm
; top infill extrusion width = 0.40mm
; first layer extrusion width = 0.42mm

M73 P0 R5
M73 Q0 S5
M201 X1000 Y1000 Z200 E8000 ; sets maximum accelerations, mm/sec^2
M203 X200 Y200 Z12 E120 ; sets maximum feedrates, mm/sec
M204 P1250 R1250 T1250 ; sets acceleration (P, T) and retract acceleration (R), mm/sec^2
M205 X8.00 Y8.00 Z0.40 E4.50 ; sets the jerk limits, mm/sec
M205 S0 T0 ; sets the minimum extruding and travel feed rate, mm/sec
M107
;TYPE:Custom
M862.3 P "MK3SMMU2S" ; printer model check
M862.1 P0.4 ; nozzle diameter check
M115 U3.10.0 ; tell printer latest fw version
G90 ; use absolute coordinates
M83 ; extruder relative mode
M104 S215 ; set extruder temp
M140 S60 ; set bed temp
M190 S60 ; wait for bed temp
M109 S215 ; wait for extruder temp
G28 W ; home all without mesh bed level
G80 ; mesh bed leveling

; Send the filament type to the MMU2.0 unit.
; E stands for extruder number, F stands for filament type (0: default; 1:flex; 2: PVA)
M403 E0 F0
M403 E1 F0
M403 E2 F0
M403 E3 F0
M403 E4 F0


;go outside print area
G1 Y-3.0 F1000.0
M73 P4 R5
M73 Q4 S5
G1 Z0.4 F1000.0
; select extruder
T3
; initial load
G1 X55.0 E29.0 F1073.0
M73 P5 R5
M73 Q5 S5
G1 X5.0 E29.0 F1800.0
M73 P6 R5
M73 Q6 S5
G1 X55.0 E8.0 F2000.0
G1 Z0.3 F1000.0
G92 E0.0
G1 X240.0 E25.0 F2200.0
M73 P8 R5
M73 Q8 S5
G1 Y-2.0 F1000.0
G1 X55.0 E25 F1400.0
M73 P10 R5
M73 Q10 S5
G1 Z0.20 F1000.0
G1 X5.0 E4.0 F1000.0
G92 E0.0


M221 S95
G92 E0.0

; Don't change E values below. Excessive value can damage the printer.
M907 E430 ; set extruder motor current
G21 ; set units to millimeters
G90 ; use absolute coordinates
M83 ; use relative distances for extrusion
T3
M900 K0.05 ; Filament gcode LA 1.5
M900 K30 ; Filament gcode LA 1.0
;LAYER_CHANGE
;Z:0.2
;HEIGHT:0.2
;BEFORE_LAYER_CHANGE
G92 E0.0
;0.2


M73 P11 R5
M73 Q11 S5
G1 E-0.80000 F2100.000
G1 Z0.400 F10800.000
;AFTER_LAYER_CHANGE
;0.2
G1 X115.447 Y78.548
M73 P12 R5
M73 Q12 S5
G1 Z0.200
G1 E0.80000 F2100.000
M204 S1000
;TYPE:Skirt
;WIDTH:0.42
G1 F941
G1 X116.211 Y77.691 E0.03600
G1 X117.158 Y76.954 E0.03761
G1 X118.190 Y76.420 E0.03645
G1 X119.261 Y76.087 E0.03515
G1 X120.663 Y75.934 E0.04422
G1 X122.055 Y76.088 E0.04392
G1 X123.125 Y76.422 E0.03515
G1 X124.157 Y76.957 E0.03645
G1 X125.103 Y77.694 E0.03760
G1 X125.864 Y78.548 E0.03586
G1 X126.301 Y79.204 E0.02473
G1 X126.667 Y79.955 E0.02618
G1 X127.030 Y81.127 E0.03847
G1 X127.162 Y82.324 E0.03775
G1 X127.075 Y83.487 E0.03658
G1 X126.906 Y84.257 E0.02473
G1 X126.628 Y85.020 E0.02545
G1 X126.043 Y86.094 E0.03832
G1 X125.321 Y86.981 E0.03588
G1 X124.380 Y87.776 E0.03861
G1 X123.689 Y88.201 E0.02545
G1 X122.968 Y88.521 E0.02473
G1 X121.778 Y88.853 E0.03875
G1 X120.652 Y88.951 E0.03544
G1 X119.530 Y88.852 E0.03530
G1 X118.340 Y88.520 E0.03875
G1 X117.623 Y88.201 E0.02458
G1 X116.932 Y87.776 E0.02545
G1 X115.988 Y86.978 E0.03876
G1 X115.266 Y86.090 E0.03588
G1 X114.682 Y85.017 E0.03832
G1 X114.406 Y84.258 E0.02531
G1 X114.236 Y83.483 E0.02487
G1 X114.150 Y82.320 E0.03658
G1 X114.283 Y81.123 E0.03775
G1 X114.646 Y79.951 E0.03847
G1 X115.012 Y79.201 E0.02618
G1 X115.414 Y78.598 E0.02270
;WIPE_START
G1 F8640.000
G1 X116.211 Y77.691 E-0.27886
G1 X117.158 Y76.954 E-0.27694
G1 X117.943 Y76.548 E-0.20421
;WIPE_END
G1 E-0.04000 F2100.000
G1 Z0.600 F10800.000
G1 X116.476 Y77.960
G1 Z0.200
G1 E0.80000 F2100.000
G1 F941
G1 X117.362 Y77.272 E0.03517
M73 P13 R5
G1 X118.331 Y76.770 E0.03421
M73 Q13 S5
G1 X119.335 Y76.457 E0.03298
G1 X120.661 Y76.311 E0.04182
G1 X121.984 Y76.458 E0.04173
G1 X122.984 Y76.771 E0.03284
G1 X123.952 Y77.273 E0.03421
G1 X124.838 Y77.962 E0.03517
G1 X125.553 Y78.762 E0.03365
G1 X125.973 Y79.389 E0.02368
G1 X126.321 Y80.104 E0.02492
G1 X126.660 Y81.200 E0.03598
G1 X126.785 Y82.324 E0.03544
G1 X126.706 Y83.412 E0.03420
G1 X126.543 Y84.154 E0.02382
G1 X126.280 Y84.876 E0.02410
G1 X125.730 Y85.883 E0.03598
G1 X125.056 Y86.713 E0.03353
G1 X124.174 Y87.460 E0.03625
G1 X123.512 Y87.868 E0.02437
G1 X122.825 Y88.172 E0.02355
G1 X121.707 Y88.483 E0.03639
G1 X120.655 Y88.574 E0.03312
G1 X119.606 Y88.483 E0.03299
G1 X118.488 Y88.173 E0.03639
G1 X117.802 Y87.869 E0.02355
G1 X117.140 Y87.461 E0.02437
G1 X116.257 Y86.714 E0.03625
G1 X115.582 Y85.885 E0.03353
G1 X115.033 Y84.877 E0.03598
G1 X114.768 Y84.151 E0.02423
G1 X114.606 Y83.413 E0.02368
G1 X114.527 Y82.321 E0.03434
G1 X114.651 Y81.202 E0.03531
G1 X114.992 Y80.102 E0.03612
G1 X115.340 Y79.387 E0.02492
G1 X115.758 Y78.763 E0.02355
G1 X116.436 Y78.004 E0.03191
G1 X116.716 Y78.256 F10800.000
G1 F941
G1 X117.566 Y77.588 E0.03390
G1 X118.472 Y77.120 E0.03198
G1 X119.406 Y76.827 E0.03070
G1 X120.660 Y76.688 E0.03954
G1 X121.908 Y76.828 E0.03940
G1 X122.843 Y77.121 E0.03069
G1 X123.745 Y77.588 E0.03185
G1 X124.573 Y78.230 E0.03287
G1 X125.243 Y78.977 E0.03145
G1 X125.643 Y79.572 E0.02249
G1 X125.973 Y80.250 E0.02365
G1 X126.290 Y81.275 E0.03364
G1 X126.408 Y82.321 E0.03300
M73 P14 R5
G1 X126.336 Y83.338 E0.03197
M73 Q14 S5
G1 X125.930 Y84.736 E0.04564
G1 X125.417 Y85.674 E0.03351
G1 X124.789 Y86.446 E0.03121
G1 X123.965 Y87.146 E0.03389
G1 X122.682 Y87.824 E0.04551
G1 X121.636 Y88.112 E0.03402
G1 X120.656 Y88.197 E0.03083
G1 X119.677 Y88.113 E0.03083
G1 X118.631 Y87.824 E0.03402
G1 X117.347 Y87.147 E0.04551
G1 X116.523 Y86.447 E0.03389
G1 X115.895 Y85.674 E0.03121
G1 X115.382 Y84.737 E0.03351
G1 X114.976 Y83.339 E0.04564
G1 X114.904 Y82.322 E0.03197
G1 X115.020 Y81.280 E0.03287
G1 X115.338 Y80.251 E0.03377
G1 X115.668 Y79.573 E0.02365
G1 X116.068 Y78.977 E0.02249
G1 X116.676 Y78.300 E0.02853
G1 X116.380 Y79.189 F10800.000
G1 F941
G1 X117.006 Y78.496 E0.02926
G1 X117.772 Y77.905 E0.03034
G1 X118.614 Y77.469 E0.02975
G1 X119.480 Y77.197 E0.02844
G1 X120.659 Y77.066 E0.03721
G1 X121.834 Y77.198 E0.03706
G1 X122.699 Y77.469 E0.02844
G1 X123.539 Y77.904 E0.02963
G1 X124.307 Y78.498 E0.03046
G1 X124.933 Y79.190 E0.02926
G1 X125.628 Y80.401 E0.04378
G1 X125.922 Y81.355 E0.03129
G1 X126.031 Y82.324 E0.03058
G1 X125.966 Y83.266 E0.02962
G1 X125.579 Y84.597 E0.04343
G1 X125.101 Y85.468 E0.03117
G1 X124.519 Y86.183 E0.02892
G1 X123.756 Y86.832 E0.03141
G1 X122.534 Y87.477 E0.04331
G1 X121.564 Y87.742 E0.03152
G1 X120.653 Y87.820 E0.02868
G1 X119.746 Y87.742 E0.02856
G1 X118.776 Y87.476 E0.03152
G1 X117.554 Y86.831 E0.04331
G1 X116.792 Y86.182 E0.03141
G1 X116.210 Y85.466 E0.02892
M73 P15 R5
G1 X115.732 Y84.595 E0.03117
M73 Q15 S5
G1 X115.346 Y83.265 E0.04343
G1 X115.281 Y82.318 E0.02974
G1 X115.390 Y81.353 E0.03046
G1 X115.685 Y80.400 E0.03129
G1 X116.350 Y79.241 E0.04190
; printing object body1783147 id:0 copy 0
;WIPE_START
G1 F8640.000
G1 X117.006 Y78.496 E-0.22903
G1 X117.772 Y77.905 E-0.22344
G1 X118.614 Y77.469 E-0.21908
G1 X118.980 Y77.354 E-0.08845
;WIPE_END
G1 E-0.04000 F2100.000
G1 Z0.600 F10800.000
G1 X118.944 Y81.045
G1 Z0.200
G1 E0.80000 F2100.000
;TYPE:Perimeter
G1 F941
G1 X119.190 Y80.788 E0.01115
G1 X119.475 Y80.574 E0.01115
G1 X119.789 Y80.409 E0.01115
G1 X120.127 Y80.296 E0.01115
G1 X120.493 Y80.237 E0.01163
G1 X120.818 Y80.237 E0.01019
G1 X121.185 Y80.296 E0.01165
G1 X121.522 Y80.409 E0.01115
G1 X121.837 Y80.574 E0.01115
G1 X122.122 Y80.788 E0.01115
G1 X122.368 Y81.045 E0.01115
G1 X122.570 Y81.337 E0.01115
G1 X122.716 Y81.646 E0.01070
G1 X122.822 Y82.002 E0.01165
G1 X122.864 Y82.354 E0.01110
G1 X122.850 Y82.709 E0.01115
G1 X122.779 Y83.058 E0.01115
G1 X122.658 Y83.377 E0.01070
G1 X122.474 Y83.699 E0.01165
G1 X122.250 Y83.974 E0.01110
G1 X121.984 Y84.210 E0.01115
G1 X121.683 Y84.400 E0.01115
G1 X121.356 Y84.539 E0.01115
G1 X121.010 Y84.624 E0.01115
G1 X120.656 Y84.653 E0.01115
G1 X120.301 Y84.624 E0.01115
G1 X119.956 Y84.539 E0.01115
G1 X119.629 Y84.400 E0.01115
G1 X119.328 Y84.210 E0.01115
G1 X119.062 Y83.974 E0.01115
G1 X118.837 Y83.698 E0.01115
G1 X118.659 Y83.390 E0.01115
G1 X118.533 Y83.058 E0.01115
G1 X118.465 Y82.723 E0.01070
G1 X118.448 Y82.352 E0.01165
G1 X118.490 Y82.000 E0.01110
G1 X118.589 Y81.659 E0.01115
G1 X118.742 Y81.337 E0.01115
G1 X118.910 Y81.094 E0.00927
G1 X118.599 Y80.880 F10800.000
;TYPE:External perimeter
G1 F941
G1 X118.939 Y80.505 E0.01587
G1 X119.272 Y80.255 E0.01306
G1 X119.641 Y80.061 E0.01306
G1 X120.036 Y79.929 E0.01306
G1 X120.455 Y79.861 E0.01331
G1 X120.856 Y79.861 E0.01256
G1 X121.275 Y79.929 E0.01332
G1 X121.671 Y80.061 E0.01306
G1 X122.039 Y80.255 E0.01306
G1 X122.372 Y80.505 E0.01306
G1 X122.661 Y80.805 E0.01306
G1 X122.898 Y81.148 E0.01306
G1 X123.070 Y81.511 E0.01258
G1 X123.192 Y81.925 E0.01356
G1 X123.242 Y82.338 E0.01304
G1 X123.226 Y82.755 E0.01306
G1 X123.142 Y83.163 E0.01306
G1 X123.000 Y83.538 E0.01258
G1 X122.786 Y83.914 E0.01356
G1 X122.523 Y84.236 E0.01304
G1 X122.211 Y84.512 E0.01306
G1 X121.859 Y84.735 E0.01306
G1 X121.476 Y84.898 E0.01306
G1 X121.071 Y84.998 E0.01306
G1 X120.656 Y85.031 E0.01306
G1 X120.241 Y84.998 E0.01306
G1 X119.836 Y84.898 E0.01306
G1 X119.453 Y84.735 E0.01306
G1 X119.101 Y84.512 E0.01306
G1 X118.789 Y84.236 E0.01306
G1 X118.525 Y83.913 E0.01306
G1 X118.317 Y83.552 E0.01306
G1 X118.169 Y83.163 E0.01306
G1 X118.089 Y82.770 E0.01258
G1 X118.069 Y82.338 E0.01356
G1 X118.120 Y81.925 E0.01304
G1 X118.235 Y81.525 E0.01306
G1 X118.414 Y81.148 E0.01306
G1 X118.565 Y80.929 E0.00835
G1 X118.995 Y80.935 F10800.000
;WIPE_START
G1 F8640.000
G1 X118.939 Y80.505 E-0.13060
G1 X119.272 Y80.255 E-0.09619
G1 X119.641 Y80.061 E-0.09619
G1 X120.036 Y79.929 E-0.09619
G1 X120.455 Y79.861 E-0.09804
G1 X120.856 Y79.861 E-0.09248
G1 X121.275 Y79.929 E-0.09811
G1 X121.490 Y80.001 E-0.05218
;WIPE_END
G1 E-0.04000 F2100.000
G1 Z0.600 F10800.000
G1 X122.607 Y81.679
G1 Z0.200
G1 E0.80000 F2100.000
;TYPE:Solid infill
;WIDTH:0.427219
M73 P16 R5
G1 F941
G1 X121.914 Y80.986 E0.03130
G1 X121.686 Y80.814 E0.00914
M73 Q16 S5
G1 X121.411 Y80.670 E0.00991
G1 X121.117 Y80.572 E0.00991
G1 X120.926 Y80.541 E0.00620
G1 X122.558 Y82.173 E0.07375
G1 X122.581 Y82.365 E0.00618
G1 X122.560 Y82.718 E0.01131
G1 X120.383 Y80.541 E0.09838
G1 X120.195 Y80.572 E0.00608
G1 X119.951 Y80.653 E0.00821
G1 X122.443 Y83.145 E0.11262
M73 P16 R4
G1 X122.401 Y83.256 E0.00377
G1 X122.259 Y83.505 E0.00917
G1 X119.593 Y80.839 E0.12048
G1 X119.378 Y81.000 E0.00859
G1 X119.296 Y81.086 E0.00377
G1 X122.015 Y83.804 E0.12285
G1 X121.813 Y83.983 E0.00861
G1 X121.713 Y84.046 E0.00378
G1 X119.052 Y81.385 E0.12025
G1 X118.987 Y81.479 E0.00366
G1 X118.864 Y81.740 E0.00922
G1 X121.356 Y84.232 E0.11261
G1 X121.266 Y84.270 E0.00312
G1 X120.928 Y84.347 E0.01109
G1 X118.754 Y82.174 E0.09823
G1 X118.731 Y82.363 E0.00608
G1 X118.751 Y82.715 E0.01126
G1 X120.384 Y84.347 E0.07379
G1 X120.046 Y84.270 E0.01109
G1 X119.761 Y84.149 E0.00991
G1 X119.498 Y83.983 E0.00991
G1 X118.717 Y83.223 E0.03484
; stop printing object body1783147 id:0 copy 0
M106 S84.15
;LAYER_CHANGE
;Z:0.4
;HEIGHT:0.2
;BEFORE_LAYER_CHANGE
G92 E0.0
;0.4


;WIPE_START
G1 F8640.000
G1 X119.498 Y83.983 E-0.25172
G1 X119.761 Y84.149 E-0.07159
G1 X120.046 Y84.270 E-0.07159
G1 X120.384 Y84.347 E-0.08015
G1 X119.512 Y83.475 E-0.28495
;WIPE_END
G1 E-0.04000 F2100.000
G1 Z0.600 F10800.000
;AFTER_LAYER_CHANGE
;0.4
M104 S205 ; set temperature
G1 X115.988 Y86.978
G1 Z0.400
G1 E0.80000 F2100.000
;TYPE:Skirt
;WIDTH:0.42
G1 F914
G1 X115.266 Y86.090 E0.03588
G1 X114.682 Y85.017 E0.03832
G1 X114.406 Y84.258 E0.02531
G1 X114.236 Y83.483 E0.02487
M73 Q16 S4
G1 X114.150 Y82.320 E0.03658
G1 X114.283 Y81.123 E0.03775
M73 P17 R4
G1 X114.646 Y79.951 E0.03847
G1 X115.012 Y79.201 E0.02618
M73 Q17 S4
G1 X115.447 Y78.548 E0.02458
G1 X116.211 Y77.691 E0.03600
G1 X117.158 Y76.954 E0.03761
G1 X118.190 Y76.420 E0.03645
G1 X119.261 Y76.087 E0.03515
G1 X120.663 Y75.934 E0.04422
G1 X122.055 Y76.088 E0.04392
G1 X123.125 Y76.422 E0.03515
G1 X124.157 Y76.957 E0.03645
G1 X125.103 Y77.694 E0.03760
G1 X125.864 Y78.548 E0.03586
G1 X126.301 Y79.204 E0.02473
G1 X126.667 Y79.955 E0.02618
G1 X127.030 Y81.127 E0.03847
G1 X127.162 Y82.324 E0.03775
G1 X127.075 Y83.487 E0.03658
G1 X126.906 Y84.257 E0.02473
G1 X126.628 Y85.020 E0.02545
G1 X126.043 Y86.094 E0.03832
G1 X125.321 Y86.981 E0.03588
G1 X124.380 Y87.776 E0.03861
G1 X123.689 Y88.201 E0.02545
G1 X122.968 Y88.521 E0.02473
G1 X121.778 Y88.853 E0.03875
G1 X120.652 Y88.951 E0.03544
G1 X119.530 Y88.852 E0.03530
G1 X118.340 Y88.520 E0.03875
G1 X117.623 Y88.201 E0.02458
G1 X116.932 Y87.776 E0.02545
G1 X116.034 Y87.017 E0.03688
G1 X116.277 Y86.730 F10800.000
G1 F914
G1 X115.582 Y85.885 E0.03430
G1 X115.033 Y84.877 E0.03598
G1 X114.768 Y84.151 E0.02423
G1 X114.606 Y83.413 E0.02368
G1 X114.527 Y82.321 E0.03434
G1 X114.651 Y81.202 E0.03531
G1 X114.992 Y80.102 E0.03612
G1 X115.340 Y79.387 E0.02492
G1 X115.758 Y78.763 E0.02355
G1 X116.476 Y77.960 E0.03379
G1 X117.362 Y77.272 E0.03517
G1 X118.331 Y76.770 E0.03421
G1 X119.335 Y76.457 E0.03298
G1 X120.661 Y76.311 E0.04182
M73 P18 R4
G1 X121.984 Y76.458 E0.04173
G1 X122.984 Y76.771 E0.03284
M73 Q18 S4
G1 X123.952 Y77.273 E0.03421
G1 X124.838 Y77.962 E0.03517
G1 X125.553 Y78.762 E0.03365
G1 X125.973 Y79.389 E0.02368
G1 X126.321 Y80.104 E0.02492
G1 X126.660 Y81.200 E0.03598
G1 X126.785 Y82.324 E0.03544
G1 X126.706 Y83.412 E0.03420
G1 X126.543 Y84.154 E0.02382
G1 X126.280 Y84.876 E0.02410
G1 X125.730 Y85.883 E0.03598
G1 X125.056 Y86.713 E0.03353
G1 X124.174 Y87.460 E0.03625
G1 X123.512 Y87.868 E0.02437
G1 X122.825 Y88.172 E0.02355
G1 X121.707 Y88.483 E0.03639
G1 X120.655 Y88.574 E0.03312
G1 X119.606 Y88.483 E0.03299
G1 X118.488 Y88.173 E0.03639
G1 X117.802 Y87.869 E0.02355
G1 X117.140 Y87.461 E0.02437
G1 X116.322 Y86.769 E0.03359
;WIPE_START
G1 F8640.000
G1 X115.582 Y85.885 E-0.26627
G1 X115.033 Y84.877 E-0.26496
G1 X114.768 Y84.151 E-0.17845
G1 X114.721 Y83.938 E-0.05032
;WIPE_END
G1 E-0.04000 F2100.000
G1 Z0.800 F10800.000
G1 X117.347 Y87.147
G1 Z0.400
G1 E0.80000 F2100.000
G1 F914
G1 X116.523 Y86.447 E0.03389
G1 X115.895 Y85.674 E0.03121
G1 X115.382 Y84.737 E0.03351
G1 X114.976 Y83.339 E0.04564
G1 X114.904 Y82.322 E0.03197
G1 X115.020 Y81.280 E0.03287
G1 X115.338 Y80.251 E0.03377
G1 X115.668 Y79.573 E0.02365
G1 X116.068 Y78.977 E0.02249
G1 X116.741 Y78.228 E0.03158
G1 X117.566 Y77.588 E0.03274
G1 X118.472 Y77.120 E0.03198
G1 X119.406 Y76.827 E0.03070
G1 X120.660 Y76.688 E0.03954
G1 X121.908 Y76.828 E0.03940
G1 X122.843 Y77.121 E0.03069
G1 X123.745 Y77.588 E0.03185
G1 X124.573 Y78.230 E0.03287
M73 P19 R4
G1 X125.243 Y78.977 E0.03145
G1 X125.643 Y79.572 E0.02249
M73 Q19 S4
G1 X125.973 Y80.250 E0.02365
G1 X126.290 Y81.275 E0.03364
G1 X126.408 Y82.321 E0.03300
G1 X126.336 Y83.338 E0.03197
G1 X125.930 Y84.736 E0.04564
G1 X125.417 Y85.674 E0.03351
G1 X124.789 Y86.446 E0.03121
G1 X123.965 Y87.146 E0.03389
G1 X122.682 Y87.824 E0.04551
G1 X121.636 Y88.112 E0.03402
G1 X120.656 Y88.197 E0.03083
G1 X119.677 Y88.113 E0.03083
G1 X118.631 Y87.824 E0.03402
G1 X117.400 Y87.175 E0.04363
G1 X117.575 Y86.843 F10800.000
G1 F914
G1 X116.792 Y86.182 E0.03213
G1 X116.210 Y85.466 E0.02892
G1 X115.732 Y84.595 E0.03117
G1 X115.346 Y83.265 E0.04343
G1 X115.281 Y82.318 E0.02974
G1 X115.390 Y81.353 E0.03046
G1 X115.685 Y80.400 E0.03129
G1 X116.380 Y79.189 E0.04378
G1 X117.006 Y78.496 E0.02926
G1 X117.772 Y77.905 E0.03034
G1 X118.614 Y77.469 E0.02975
G1 X119.480 Y77.197 E0.02844
G1 X120.659 Y77.066 E0.03721
G1 X121.834 Y77.198 E0.03706
G1 X122.699 Y77.469 E0.02844
G1 X123.539 Y77.904 E0.02963
G1 X124.307 Y78.498 E0.03046
G1 X124.933 Y79.190 E0.02926
G1 X125.628 Y80.401 E0.04378
G1 X125.922 Y81.355 E0.03129
G1 X126.031 Y82.324 E0.03058
G1 X125.966 Y83.266 E0.02962
G1 X125.579 Y84.597 E0.04343
G1 X125.101 Y85.468 E0.03117
G1 X124.519 Y86.183 E0.02892
G1 X123.756 Y86.832 E0.03141
G1 X122.534 Y87.477 E0.04331
G1 X121.564 Y87.742 E0.03152
G1 X120.653 Y87.820 E0.02868
G1 X119.746 Y87.742 E0.02856
M73 P20 R4
G1 X118.776 Y87.476 E0.03152
G1 X117.628 Y86.871 E0.04068
; printing object body1783147 id:0 copy 0
;WIPE_START
M73 Q20 S4
G1 F8640.000
G1 X116.792 Y86.182 E-0.25019
