; generated by PrusaSlicer 2.3.3+win64 on 2022-02-02 at 13:33:29 UTC

; 

; external perimeters extrusion width = 0.45mm
; perimeters extrusion width = 0.45mm
; infill extrusion width = 0.45mm
; solid infill extrusion width = 0.45mm
; top infill extrusion width = 0.40mm
; first layer extrusion width = 0.42mm

; external perimeters extrusion width = 0.45mm
; perimeters extrusion width = 0.45mm
; infill extrusion width = 0.45mm
; solid infill extrusion width = 0.45mm
; top infill extrusion width = 0.40mm
; first layer extrusion width = 0.42mm

M73 P0 R86
M73 Q0 S86
M201 X1000 Y1000 Z200 E8000 ; sets maximum accelerations, mm/sec^2
M203 X200 Y200 Z12 E120 ; sets maximum feedrates, mm/sec
M204 P1250 R1250 T1250 ; sets acceleration (P, T) and retract acceleration (R), mm/sec^2
M205 X8.00 Y8.00 Z0.40 E4.50 ; sets the jerk limits, mm/sec
M205 S0 T0 ; sets the minimum extruding and travel feed rate, mm/sec
M107
;TYPE:Custom
M862.3 P "MK3SMMU2S" ; printer model check
M862.1 P0.4 ; nozzle diameter check
M115 U3.10.0 ; tell printer latest fw version
G90 ; use absolute coordinates
M83 ; extruder relative mode
M104 S215 ; set extruder temp
M140 S60 ; set bed temp
M190 S60 ; wait for bed temp
M109 S215 ; wait for extruder temp
G28 W ; home all without mesh bed level
G80 ; mesh bed leveling

; Send the filament type to the MMU2.0 unit.
; E stands for extruder number, F stands for filament type (0: default; 1:flex; 2: PVA)
M403 E0 F0
M403 E1 F0
M403 E2 F0
M403 E3 F0
M403 E4 F0


;go outside print area
G1 Y-3.0 F1000.0
G1 Z0.4 F1000.0
; select extruder
T1
; initial load
G1 X55.0 E29.0 F1073.0
G1 X5.0 E29.0 F1800.0
G1 X55.0 E8.0 F2000.0
G1 Z0.3 F1000.0
G92 E0.0
G1 X240.0 E25.0 F2200.0
G1 Y-2.0 F1000.0
G1 X55.0 E25 F1400.0
M73 P0 R85
G1 Z0.20 F1000.0
G1 X5.0 E4.0 F1000.0
G92 E0.0


M221 S95
G92 E0.0

; Don't change E values below. Excessive value can damage the printer.

M907 E538 ; set extruder motor current
G21 ; set units to millimeters
G90 ; use absolute coordinates
M83 ; use relative distances for extrusion
T1
M900 K0.05 ; Filament gcode LA 1.5
M900 K30 ; Filament gcode LA 1.0
G1 Z0.200 F10800.000
;LAYER_CHANGE
;Z:0.2
;HEIGHT:0.2
;BEFORE_LAYER_CHANGE
G92 E0.0
;0.2


G1 E-0.80000 F2100.000
G1 Z0.600 F10800.000
G1 Z0.200
;AFTER_LAYER_CHANGE
;0.2
G1 E-1.20000 F2100.000
G1 Z0.600 F10800.000
G1 X239.372 Y14.923
G1 Z0.200
G1 E2.00000 F2100.000
;HEIGHT:0.200000
;TYPE:Wipe tower
;WIDTH:0.500000
;-------------------------------------
; CP WIPE TOWER FIRST LAYER BRIM START
G1  X239.372 Y107.983  E5.3053 F2400
G1  X236.829 Y108.440   F7000
G1  Y14.466  E3.9288 F2100
G1  X175.915  E2.5466
G1  Y108.440  E3.9288
G1  X236.829  E2.5466
M73 Q1 S85
G1  X237.286 Y108.897   F7000
G1  Y14.009  E3.9670 F2100
M73 P1 R85
G1  X175.458  E2.5849
G1  Y108.897  E3.9670
G1  X237.286  E2.5849
G1  X237.743 Y109.354   F7000
G1  Y13.552  E4.0052 F2100
G1  X175.001  E2.6231
G1  Y109.354  E4.0052
G1  X237.743  E2.6231
G1  X238.200 Y109.811   F7000
G1  Y13.095  E4.0434 F2100
G1  X174.544  E2.6613
G1  Y109.811  E4.0434
G1  X238.200  E2.6613
; CP WIPE TOWER FIRST LAYER BRIM END
;-----------------------------------

;WIPE_START
G1 F8640.000
G1 X237.743 Y109.355 E-0.14926
G1 X235.098 Y109.355 E-0.61074
;WIPE_END
G1 E-0.04000 F2100.000
G1 Z0.600 F10800.000
G1 X238.819 Y111.804
G1 Z0.200
G1 E0.80000 F2100.000
M204 S1000
;TYPE:Skirt
;WIDTH:0.42
;HEIGHT:0.2
G1 F1200.000
G1 X237.992 Y111.960 E0.02637
G1 X174.408 Y111.932 E1.99363
G1 X173.765 Y111.736 E0.02107
G1 X141.757 Y96.632 E1.10971
G1 X140.991 Y96.053 E0.03013
G1 X136.063 Y89.286 E0.26245
G1 X135.730 Y88.605 E0.02378
G1 X135.627 Y87.941 E0.02107
G1 X135.627 Y79.780 E0.25590
G1 X135.783 Y78.945 E0.02661
G1 X172.694 Y12.170 E2.39228
M73 P1 R84
G1 X173.206 Y11.536 E0.02555
G1 X173.927 Y11.102 E0.02637
G1 X174.750 Y10.947 E0.02626
G1 X237.976 Y10.947 E1.98241
G1 X238.878 Y11.126 E0.02884
G1 X239.641 Y11.632 E0.02872
G1 X240.157 Y12.389 E0.02872
G1 X240.349 Y13.285 E0.02872
G1 X240.349 Y109.602 E3.01998
G1 X240.293 Y110.097 E0.01562
G1 X240.133 Y110.573 E0.01574
G1 X239.877 Y111.005 E0.01574
G1 X239.539 Y111.370 E0.01562
G1 X238.870 Y111.773 E0.02449
; printing object body908 id:0 copy 0
;WIPE_START
G1 F8640.000
G1 X237.992 Y111.960 E-0.20727
G1 X235.598 Y111.959 E-0.55273
;WIPE_END
G1 E-0.04000 F2100.000
G1 Z0.600 F10800.000
G1 X153.557 Y85.079
G1 Z0.200
G1 E0.80000 F2100.000
;TYPE:Perimeter
G1 F1200.000
G1 X153.306 Y85.577 E0.01750
G1 X152.974 Y86.026 E0.01750
G1 X152.594 Y86.390 E0.01649
G1 X152.111 Y86.723 E0.01840
G1 X151.600 Y86.955 E0.01759
G1 X151.060 Y87.095 E0.01750
G1 X150.504 Y87.142 E0.01750
G1 X149.948 Y87.095 E0.01750
G1 X149.408 Y86.955 E0.01750
G1 X148.900 Y86.725 E0.01750
G1 X148.437 Y86.412 E0.01750
G1 X148.035 Y86.026 E0.01750
G1 X147.703 Y85.577 E0.01750
G1 X147.451 Y85.079 E0.01750
G1 X147.288 Y84.546 E0.01750
G1 X147.217 Y83.992 E0.01750
G1 X147.241 Y83.435 E0.01750
G1 X147.358 Y82.889 E0.01750
G1 X147.567 Y82.371 E0.01750
G1 X147.859 Y81.896 E0.01750
G1 X148.228 Y81.477 E0.01750
G1 X148.662 Y81.127 E0.01750
G1 X149.149 Y80.855 E0.01750
G1 X149.675 Y80.669 E0.01750
G1 X150.227 Y80.574 E0.01754
G1 X150.782 Y80.574 E0.01740
G1 X151.333 Y80.669 E0.01754
G1 X151.859 Y80.855 E0.01750
G1 X152.346 Y81.127 E0.01750
G1 X152.781 Y81.477 E0.01750
G1 X153.149 Y81.896 E0.01750
G1 X153.442 Y82.371 E0.01750
G1 X153.650 Y82.889 E0.01750
G1 X153.767 Y83.435 E0.01750
G1 X153.791 Y83.992 E0.01750
G1 X153.720 Y84.546 E0.01750
G1 X153.574 Y85.022 E0.01561
G1 X153.214 Y84.911 F10800.000
;TYPE:External perimeter
G1 F1200.000
G1 X152.983 Y85.379 E0.01635
G1 X152.690 Y85.776 E0.01548
G1 X152.355 Y86.097 E0.01454
G1 X151.925 Y86.394 E0.01638
G1 X151.474 Y86.598 E0.01552
G1 X150.996 Y86.722 E0.01548
G1 X150.504 Y86.764 E0.01548
G1 X150.012 Y86.722 E0.01548
G1 X149.534 Y86.598 E0.01548
G1 X149.084 Y86.394 E0.01548
G1 X148.675 Y86.118 E0.01548
G1 X148.319 Y85.776 E0.01548
G1 X148.025 Y85.379 E0.01548
G1 X147.803 Y84.938 E0.01548
G1 X147.658 Y84.466 E0.01548
G1 X147.595 Y83.976 E0.01548
G1 X147.616 Y83.483 E0.01548
G1 X147.720 Y83.000 E0.01548
G1 X147.904 Y82.542 E0.01548
G1 X148.163 Y82.121 E0.01548
G1 X148.490 Y81.751 E0.01548
G1 X148.874 Y81.440 E0.01548
G1 X149.305 Y81.200 E0.01548
G1 X149.771 Y81.035 E0.01548
G1 X150.259 Y80.951 E0.01553
G1 X150.750 Y80.951 E0.01539
G1 X151.238 Y81.035 E0.01553
G1 X151.703 Y81.200 E0.01548
G1 X152.135 Y81.440 E0.01548
G1 X152.519 Y81.751 E0.01548
G1 X152.845 Y82.121 E0.01548
G1 X153.104 Y82.542 E0.01548
G1 X153.288 Y83.000 E0.01548
G1 X153.392 Y83.483 E0.01548
G1 X153.413 Y83.976 E0.01548
G1 X153.350 Y84.466 E0.01548
G1 X153.231 Y84.854 E0.01273
G1 X153.463 Y85.224 F10800.000
;WIPE_START
G1 F8640.000
G1 X152.983 Y85.379 E-0.13408
G1 X152.690 Y85.776 E-0.11402
G1 X152.355 Y86.097 E-0.10705
G1 X151.925 Y86.394 E-0.12066
G1 X151.474 Y86.598 E-0.11427
G1 X150.996 Y86.722 E-0.11403
G1 X150.755 Y86.743 E-0.05589
;WIPE_END
G1 E-0.04000 F2100.000
G1 Z0.600 F10800.000
G1 X155.503 Y81.016
G1 Z0.200
G1 E0.80000 F2100.000
;TYPE:Perimeter
G1 F1200.000
G1 X155.199 Y80.725 E0.01319
G1 X154.951 Y80.389 E0.01310
G1 X154.763 Y80.016 E0.01311
G1 X154.640 Y79.616 E0.01312
G1 X154.587 Y79.201 E0.01310
G1 X154.605 Y78.784 E0.01311
G1 X154.693 Y78.376 E0.01308
G1 X154.843 Y78.001 E0.01266
G1 X155.068 Y77.632 E0.01353
G1 X155.345 Y77.317 E0.01315
G1 X155.670 Y77.055 E0.01311
G1 X156.034 Y76.852 E0.01307
G1 X156.428 Y76.713 E0.01310
G1 X156.840 Y76.642 E0.01310
G1 X157.228 Y76.642 E0.01217
G1 X157.667 Y76.711 E0.01391
G1 X158.064 Y76.852 E0.01322
G1 X158.429 Y77.056 E0.01310
G1 X158.754 Y77.318 E0.01310
G1 X159.030 Y77.632 E0.01310
G1 X159.250 Y77.988 E0.01310
G1 X159.406 Y78.376 E0.01312
G1 X159.494 Y78.785 E0.01311
G1 X159.511 Y79.202 E0.01311
G1 X159.458 Y79.619 E0.01316
G1 X159.328 Y80.033 E0.01361
G1 X159.137 Y80.405 E0.01311
G1 X158.898 Y80.726 E0.01255
G1 X158.610 Y81.003 E0.01254
G1 X158.253 Y81.248 E0.01359
G1 X157.870 Y81.421 E0.01316
G1 X157.466 Y81.526 E0.01310
G1 X157.049 Y81.561 E0.01310
G1 X156.633 Y81.526 E0.01311
G1 X156.228 Y81.421 E0.01310
G1 X155.867 Y81.257 E0.01245
G1 X155.553 Y81.049 E0.01179
G1 X155.761 Y80.735 F10800.000
;TYPE:External perimeter
G1 F1200.000
G1 X155.484 Y80.475 E0.01193
G1 X155.273 Y80.191 E0.01109
G1 X155.114 Y79.875 E0.01109
G1 X155.010 Y79.536 E0.01111
G1 X154.965 Y79.185 E0.01109
G1 X154.980 Y78.832 E0.01109
G1 X155.055 Y78.486 E0.01108
G1 X155.181 Y78.170 E0.01068
G1 X155.372 Y77.857 E0.01151
G1 X155.607 Y77.591 E0.01111
G1 X155.882 Y77.369 E0.01110
G1 X156.190 Y77.197 E0.01106
G1 X156.524 Y77.079 E0.01109
G1 X156.872 Y77.019 E0.01109
G1 X157.199 Y77.019 E0.01023
G1 X157.574 Y77.078 E0.01190
G1 X157.908 Y77.197 E0.01113
G1 X158.217 Y77.369 E0.01109
G1 X158.492 Y77.591 E0.01109
G1 X158.726 Y77.857 E0.01109
G1 X158.912 Y78.158 E0.01109
G1 X159.044 Y78.487 E0.01111
G1 X159.118 Y78.833 E0.01109
G1 X159.133 Y79.186 E0.01109
G1 X159.088 Y79.538 E0.01111
G1 X158.978 Y79.889 E0.01155
G1 X158.816 Y80.205 E0.01112
G1 X158.614 Y80.476 E0.01059
G1 X158.371 Y80.710 E0.01058
G1 X158.067 Y80.918 E0.01156
G1 X157.744 Y81.064 E0.01111
G1 X157.402 Y81.153 E0.01109
G1 X157.049 Y81.183 E0.01109
G1 X156.697 Y81.153 E0.01109
G1 X156.354 Y81.064 E0.01109
G1 X156.049 Y80.926 E0.01049
G1 X155.811 Y80.768 E0.00895
G1 X155.408 Y80.875 F10800.000
;WIPE_START
G1 F8640.000
G1 X155.484 Y80.475 E-0.10156
G1 X155.273 Y80.191 E-0.08169
G1 X155.114 Y79.875 E-0.08169
G1 X155.010 Y79.536 E-0.08182
G1 X154.965 Y79.185 E-0.08167
G1 X154.980 Y78.832 E-0.08170
G1 X155.055 Y78.486 E-0.08162
G1 X155.181 Y78.170 E-0.07863
G1 X155.372 Y77.857 E-0.08473
M73 Q2 S85
G1 X155.386 Y77.841 E-0.00490
;WIPE_END
G1 E-0.04000 F2100.000
G1 Z0.600 F10800.000
G1 X162.217 Y80.047
G1 Z0.200
G1 E0.80000 F2100.000
;TYPE:Perimeter
G1 F1200.000
G1 X162.217 Y87.658 E0.23865
G1 X157.743 Y93.816 E0.23865
M73 P2 R84
G1 X150.504 Y96.168 E0.23865
G1 X143.265 Y93.816 E0.23865
G1 X138.791 Y87.658 E0.23865
G1 X138.791 Y80.047 E0.23865
G1 X143.265 Y73.889 E0.23865
G1 X150.504 Y71.537 E0.23865
G1 X157.743 Y73.889 E0.23865
G1 X162.182 Y79.998 E0.23677
G1 X162.594 Y79.924 F10800.000
;TYPE:External perimeter
G1 F1200.000
G1 X162.594 Y87.781 E0.24634
G1 X157.976 Y94.137 E0.24634
G1 X150.504 Y96.565 E0.24634
G1 X143.032 Y94.137 E0.24634
G1 X138.414 Y87.781 E0.24634
G1 X138.414 Y79.924 E0.24634
G1 X143.032 Y73.568 E0.24634
G1 X150.504 Y71.140 E0.24634
G1 X157.976 Y73.568 E0.24634
M73 Q2 S84
G1 X162.559 Y79.876 E0.24446
G1 X162.327 Y80.222 F10800.000
;WIPE_START
G1 F8640.000
G1 X162.574 Y83.167 E-0.76000
;WIPE_END
G1 E-0.04000 F2100.000
G1 Z0.600 F10800.000
G1 X156.510 Y73.607
G1 Z0.200
G1 E0.80000 F2100.000
;TYPE:Solid infill
;WIDTH:0.425973
G1 F1200.000
G1 X158.992 Y76.089 E0.11177
G1 X160.431 Y78.070 E0.07799
G1 X155.972 Y73.611 E0.20084
G1 X155.170 Y73.350 E0.02687
G1 X161.870 Y80.051 E0.30182
G1 X161.934 Y80.139 E0.00347
G1 X161.934 Y80.656 E0.01649
G1 X159.706 Y78.428 E0.10037
G1 X159.775 Y78.749 E0.01045
G1 X159.788 Y79.052 E0.00965
G1 X161.934 Y81.198 E0.09668
G1 X161.934 Y81.740 E0.01725
G1 X159.751 Y79.556 E0.09835
G1 X159.735 Y79.679 E0.00395
G1 X159.639 Y79.986 E0.01024
G1 X161.934 Y82.281 E0.10338
G1 X161.934 Y82.823 E0.01725
G1 X159.476 Y80.365 E0.11074
G1 X159.378 Y80.555 E0.00681
G1 X159.270 Y80.700 E0.00578
G1 X161.934 Y83.365 E0.12002
G1 X161.934 Y83.907 E0.01725
G1 X159.025 Y80.997 E0.13106
G1 X158.742 Y81.256 E0.01221
G1 X161.934 Y84.448 E0.14380
G1 X161.934 Y84.990 E0.01725
G1 X158.420 Y81.476 E0.15829
G1 X158.052 Y81.649 E0.01297
G1 X161.934 Y85.532 E0.17489
G1 X161.934 Y86.074 E0.01725
G1 X157.635 Y81.774 E0.19366
G1 X157.514 Y81.806 E0.00399
G1 X157.155 Y81.836 E0.01145
G1 X161.934 Y86.615 E0.21526
G1 X161.934 Y87.157 E0.01725
G1 X156.345 Y81.568 E0.25175
;WIPE_START
G1 F8640.000
G1 X158.673 Y83.895 E-0.76000
;WIPE_END
G1 E-0.04000 F2100.000
G1 Z0.600 F10800.000
G1 X157.980 Y76.702
G1 Z0.200
G1 E0.80000 F2100.000
G1 F1200.000
G1 X154.367 Y73.089 E0.16273
G1 X153.565 Y72.829 E0.02687
G1 X157.095 Y76.359 E0.15902
G1 X156.816 Y76.359 E0.00889
G1 X156.592 Y76.398 E0.00724
G1 X152.763 Y72.568 E0.17250
G1 X151.960 Y72.307 E0.02687
G1 X156.160 Y76.507 E0.18919
G1 X155.918 Y76.593 E0.00820
G1 X155.781 Y76.670 E0.00499
G1 X151.158 Y72.047 E0.20824
G1 X150.504 Y71.834 E0.02188
G1 X150.428 Y71.859 E0.00254
G1 X155.444 Y76.874 E0.22592
G1 X155.145 Y77.117 E0.01227
G1 X150.019 Y71.992 E0.23086
G1 X149.611 Y72.125 E0.01369
G1 X154.891 Y77.405 E0.23785
G1 X154.676 Y77.732 E0.01246
G1 X149.202 Y72.257 E0.24658
G1 X148.793 Y72.390 E0.01369
G1 X154.500 Y78.097 E0.25707
G1 X154.422 Y78.293 E0.00670
G1 X154.374 Y78.513 E0.00719
G1 X148.384 Y72.523 E0.26982
G1 X147.975 Y72.656 E0.01369
G1 X154.313 Y78.994 E0.28549
G1 X154.304 Y79.213 E0.00699
G1 X154.350 Y79.572 E0.01153
G1 X147.566 Y72.789 E0.30555
G1 X147.157 Y72.922 E0.01369
G1 X161.879 Y87.643 E0.66311
G1 X161.651 Y87.957 E0.01235
G1 X146.748 Y73.055 E0.67126
G1 X146.340 Y73.187 E0.01369
G1 X161.423 Y88.271 E0.67941
G1 X161.195 Y88.584 E0.01235
G1 X145.931 Y73.320 E0.68756
G1 X145.522 Y73.453 E0.01369
G1 X160.967 Y88.898 E0.69571
G1 X160.739 Y89.212 E0.01235
G1 X145.113 Y73.586 E0.70385
G1 X144.704 Y73.719 E0.01369
G1 X151.374 Y80.389 E0.30045
G1 X150.735 Y80.291 E0.02059
G1 X144.295 Y73.852 E0.29008
G1 X143.886 Y73.984 E0.01369
G1 X150.195 Y80.293 E0.28415
G1 X149.732 Y80.372 E0.01494
G1 X143.477 Y74.117 E0.28174
G1 X143.440 Y74.130 E0.00126
G1 X143.233 Y74.414 E0.01122
G1 X149.315 Y80.496 E0.27395
G1 X149.032 Y80.596 E0.00954
G1 X148.930 Y80.653 E0.00373
G1 X143.005 Y74.728 E0.26688
G1 X142.777 Y75.042 E0.01235
G1 X148.582 Y80.847 E0.26150
G1 X148.272 Y81.078 E0.01233
G1 X142.549 Y75.356 E0.25777
G1 X142.321 Y75.670 E0.01235
M73 P3 R83
M73 Q3 S84
G1 X147.981 Y81.330 E0.25495
G1 X147.728 Y81.618 E0.01223
G1 X142.093 Y75.983 E0.25380
G1 X141.865 Y76.297 E0.01235
G1 X147.503 Y81.935 E0.25396
G1 X147.301 Y82.274 E0.01258
G1 X141.637 Y76.611 E0.25511
G1 X141.409 Y76.925 E0.01235
G1 X147.145 Y82.661 E0.25838
G1 X147.087 Y82.806 E0.00499
G1 X147.027 Y83.084 E0.00906
G1 X141.181 Y77.238 E0.26332
G1 X140.953 Y77.552 E0.01235
G1 X146.953 Y83.552 E0.27024
G1 X146.944 Y84.084 E0.01697
G1 X140.725 Y77.866 E0.28011
G1 X140.497 Y78.180 E0.01235
G1 X147.305 Y84.987 E0.30664
;WIPE_START
G1 F8640.000
G1 X144.978 Y82.660 E-0.76000
;WIPE_END
G1 E-0.04000 F2100.000
G1 Z0.600 F10800.000
G1 X153.703 Y82.717
G1 Z0.200
G1 E0.80000 F2100.000
G1 F1200.000
G1 X160.511 Y89.526 E0.30666
G1 X160.283 Y89.839 E0.01235
G1 X154.058 Y83.615 E0.28039
G1 X154.075 Y84.004 E0.01242
G1 X154.056 Y84.154 E0.00480
G1 X160.055 Y90.153 E0.27024
G1 X159.827 Y90.467 E0.01235
G1 X153.990 Y84.630 E0.26291
G1 X153.863 Y85.045 E0.01381
G1 X159.599 Y90.781 E0.25837
G1 X159.371 Y91.094 E0.01235
G1 X153.700 Y85.423 E0.25545
G1 X153.511 Y85.776 E0.01274
G1 X159.143 Y91.408 E0.25371
G1 X158.915 Y91.722 E0.01235
G1 X153.280 Y86.087 E0.25381
G1 X153.187 Y86.214 E0.00501
G1 X153.023 Y86.371 E0.00725
G1 X158.687 Y92.036 E0.25516
G1 X158.459 Y92.349 E0.01235
G1 X152.742 Y86.632 E0.25754
G1 X152.421 Y86.853 E0.01240
G1 X158.231 Y92.663 E0.26171
G1 X158.003 Y92.977 E0.01235
G1 X152.076 Y87.050 E0.26698
G1 X151.703 Y87.218 E0.01304
G1 X157.775 Y93.291 E0.27352
G1 X157.568 Y93.576 E0.01122
G1 X157.531 Y93.588 E0.00126
G1 X151.275 Y87.332 E0.28181
G1 X151.108 Y87.375 E0.00548
G1 X150.802 Y87.401 E0.00978
G1 X157.122 Y93.721 E0.28467
G1 X156.713 Y93.854 E0.01369
G1 X150.266 Y87.406 E0.29042
M73 Q3 S83
G1 X149.900 Y87.375 E0.01168
G1 X149.620 Y87.302 E0.00923
G1 X156.304 Y93.986 E0.30110
G1 X155.895 Y94.119 E0.01369
G1 X140.269 Y78.493 E0.70385
G1 X140.041 Y78.807 E0.01235
G1 X155.486 Y94.252 E0.69570
G1 X155.078 Y94.385 E0.01369
G1 X139.814 Y79.121 E0.68755
G1 X139.586 Y79.435 E0.01235
G1 X154.669 Y94.518 E0.67941
G1 X154.260 Y94.651 E0.01369
G1 X139.358 Y79.748 E0.67126
G1 X139.130 Y80.062 E0.01235
G1 X153.851 Y94.783 E0.66311
G1 X153.442 Y94.916 E0.01369
G1 X139.074 Y80.548 E0.64720
G1 X139.074 Y81.090 E0.01725
G1 X153.033 Y95.049 E0.62878
G1 X152.624 Y95.182 E0.01369
G1 X139.074 Y81.632 E0.61036
G1 X139.074 Y82.173 E0.01725
