; generated by PrusaSlicer 2.3.3+win64 on 2022-01-28 at 08:53:07 UTC

; 

; external perimeters extrusion width = 0.45mm
; perimeters extrusion width = 0.45mm
; infill extrusion width = 0.45mm
; solid infill extrusion width = 0.45mm
; top infill extrusion width = 0.40mm
; first layer extrusion width = 0.42mm

M73 P0 R13
M73 Q0 S14
M201 X1000 Y1000 Z200 E8000 ; sets maximum accelerations, mm/sec^2
M203 X200 Y200 Z12 E120 ; sets maximum feedrates, mm/sec
M204 P1250 R1250 T1250 ; sets acceleration (P, T) and retract acceleration (R), mm/sec^2
M205 X8.00 Y8.00 Z0.40 E4.50 ; sets the jerk limits, mm/sec
M205 S0 T0 ; sets the minimum extruding and travel feed rate, mm/sec
M107
;TYPE:Custom
M862.3 P "MK3SMMU2S" ; printer model check
M862.1 P0.4 ; nozzle diameter check
M115 U3.10.0 ; tell printer latest fw version
G90 ; use absolute coordinates
M83 ; extruder relative mode
M104 S215 ; set extruder temp
M140 S60 ; set bed temp
M190 S60 ; wait for bed temp
M109 S215 ; wait for extruder temp
G28 W ; home all without mesh bed level
G80 ; mesh bed leveling

; Send the filament type to the MMU2.0 unit.
; E stands for extruder number, F stands for filament type (0: default; 1:flex; 2: PVA)
M403 E0 F0
M403 E1 F0
M403 E2 F0
M403 E3 F0
M403 E4 F0


;go outside print area
G1 Y-3.0 F1000.0
M73 P1 R13
M73 Q1 S13
G1 Z0.4 F1000.0
; select extruder
T3
; initial load
G1 X55.0 E29.0 F1073.0
M73 P2 R13
M73 Q2 S13
G1 X5.0 E29.0 F1800.0
G1 X55.0 E8.0 F2000.0
G1 Z0.3 F1000.0
G92 E0.0
G1 X240.0 E25.0 F2200.0
M73 P3 R13
M73 Q3 S13
G1 Y-2.0 F1000.0
G1 X55.0 E25 F1400.0
M73 P4 R13
M73 Q4 S13
G1 Z0.20 F1000.0
G1 X5.0 E4.0 F1000.0
G92 E0.0


M221 S95
G92 E0.0

; Don't change E values below. Excessive value can damage the printer.
M907 E430 ; set extruder motor current
G21 ; set units to millimeters
G90 ; use absolute coordinates
M83 ; use relative distances for extrusion
T3
M900 K0.05 ; Filament gcode LA 1.5
M900 K30 ; Filament gcode LA 1.0
;LAYER_CHANGE
;Z:0.2
;HEIGHT:0.2
;BEFORE_LAYER_CHANGE
G92 E0.0
;0.2


G1 E-0.80000 F2100.000
G1 Z0.400 F10800.000
;AFTER_LAYER_CHANGE
;0.2
G1 X108.839 Y93.568
G1 Z0.200
G1 E0.80000 F2100.000
M204 S1000
;TYPE:Skirt
;WIDTH:0.42
G1 F1195
G1 X109.687 Y92.624 E0.03979
G1 X110.731 Y91.816 E0.04139
G1 X111.875 Y91.225 E0.04038
G1 X113.051 Y90.857 E0.03864
G1 X114.633 Y90.682 E0.04989
G1 X116.205 Y90.858 E0.04959
G1 X117.385 Y91.228 E0.03879
G1 X118.525 Y91.818 E0.04024
G1 X119.571 Y92.630 E0.04153
G1 X120.415 Y93.571 E0.03964
G1 X120.919 Y94.323 E0.02837
G1 X121.335 Y95.178 E0.02982
G1 X121.734 Y96.470 E0.04240
G1 X121.881 Y97.791 E0.04168
G1 X121.790 Y99.075 E0.04037
G1 X121.596 Y99.964 E0.02851
G1 X121.279 Y100.831 E0.02895
G1 X120.631 Y102.017 E0.04239
G1 X119.838 Y102.991 E0.03937
G1 X118.797 Y103.876 E0.04283
G1 X118.003 Y104.365 E0.02924
G1 X117.180 Y104.729 E0.02822
G1 X115.863 Y105.092 E0.04282
G1 X114.626 Y105.199 E0.03894
M73 Q5 S13
G1 X113.389 Y105.092 E0.03894
G1 X112.072 Y104.729 E0.04282
M73 P5 R13
G1 X111.245 Y104.363 E0.02837
G1 X110.455 Y103.876 E0.02909
G1 X109.414 Y102.992 E0.04283
G1 X108.621 Y102.018 E0.03937
G1 X107.973 Y100.832 E0.04239
G1 X107.656 Y99.965 E0.02895
G1 X107.461 Y99.072 E0.02866
G1 X107.371 Y97.787 E0.04037
G1 X107.518 Y96.471 E0.04154
G1 X107.919 Y95.175 E0.04254
G1 X108.335 Y94.320 E0.02982
G1 X108.806 Y93.618 E0.02648
G1 X109.119 Y93.828 F10800.000
G1 F1195
G1 X109.949 Y92.896 E0.03914
G1 X110.935 Y92.133 E0.03909
G1 X112.011 Y91.576 E0.03800
G1 X113.121 Y91.228 E0.03649
G1 X114.631 Y91.059 E0.04763
G1 X116.129 Y91.227 E0.04726
G1 X117.239 Y91.576 E0.03649
G1 X118.316 Y92.132 E0.03800
G1 X119.302 Y92.895 E0.03908
G1 X120.104 Y93.785 E0.03757
G1 X120.590 Y94.509 E0.02733
G1 X120.989 Y95.328 E0.02857
G1 X121.365 Y96.548 E0.04004
G1 X121.504 Y97.791 E0.03922
G1 X121.420 Y99.000 E0.03798
G1 X121.235 Y99.856 E0.02747
G1 X120.929 Y100.691 E0.02788
G1 X120.315 Y101.811 E0.04004
G1 X119.570 Y102.727 E0.03704
G1 X118.590 Y103.560 E0.04031
G1 X117.830 Y104.030 E0.02802
G1 X117.033 Y104.382 E0.02733
G1 X115.789 Y104.722 E0.04044
G1 X114.625 Y104.822 E0.03663
G1 X113.460 Y104.722 E0.03663
G1 X112.217 Y104.381 E0.04044
G1 X111.423 Y104.031 E0.02719
G1 X110.663 Y103.561 E0.02802
G1 X109.683 Y102.728 E0.04031
G1 X108.935 Y101.809 E0.03718
G1 X108.323 Y100.693 E0.03990
G1 X108.017 Y99.858 E0.02788
G1 X107.832 Y99.002 E0.02747
G1 X107.748 Y97.789 E0.03812
G1 X107.887 Y96.550 E0.03909
G1 X108.264 Y95.325 E0.04018
G1 X108.663 Y94.506 E0.02856
G1 X109.085 Y93.878 E0.02373
G1 X109.398 Y94.089 F10800.000
G1 F1195
G1 X109.459 Y93.997 E0.00345
G1 X110.216 Y93.162 E0.03536
G1 X111.139 Y92.450 E0.03653
G1 X112.152 Y91.926 E0.03576
G1 X113.193 Y91.598 E0.03422
G1 X114.630 Y91.436 E0.04533
G1 X116.058 Y91.598 E0.04506
G1 X117.099 Y91.926 E0.03422
G1 X118.112 Y92.450 E0.03577
G1 X119.038 Y93.164 E0.03666
G1 X119.794 Y94.000 E0.03536
G1 X120.263 Y94.695 E0.02627
G1 X120.643 Y95.478 E0.02730
G1 X120.996 Y96.627 E0.03768
G1 X121.127 Y97.789 E0.03666
G1 X121.050 Y98.930 E0.03588
G1 X120.872 Y99.754 E0.02640
G1 X120.579 Y100.551 E0.02666
G1 X120.002 Y101.601 E0.03755
G1 X119.300 Y102.463 E0.03487
G1 X118.383 Y103.246 E0.03780
G1 X117.653 Y103.697 E0.02692
G1 X116.889 Y104.033 E0.02614
G1 X115.722 Y104.351 E0.03793
G1 X114.626 Y104.445 E0.03449
G1 X113.530 Y104.351 E0.03448
G1 X112.363 Y104.033 E0.03793
G1 X111.600 Y103.698 E0.02614
G1 X110.870 Y103.246 E0.02691
G1 X109.952 Y102.464 E0.03781
G1 X109.250 Y101.602 E0.03487
G1 X108.673 Y100.552 E0.03755
G1 X108.379 Y99.750 E0.02679
G1 X108.202 Y98.927 E0.02640
G1 X108.125 Y97.790 E0.03575
G1 X108.256 Y96.624 E0.03679
G1 X108.610 Y95.475 E0.03768
G1 X108.991 Y94.692 E0.02730
G1 X109.364 Y94.139 E0.02094
;WIPE_START
G1 F8640.000
G1 X109.459 Y93.997 E-0.03928
G1 X110.216 Y93.162 E-0.26043
G1 X111.139 Y92.450 E-0.26901
G1 X111.875 Y92.069 E-0.19128
;WIPE_END
G1 E-0.04000 F2100.000
G1 Z0.600 F10800.000
G1 X110.479 Y93.433
G1 Z0.200
G1 E0.80000 F2100.000
G1 F1195
G1 X111.344 Y92.767 E0.03424
G1 X112.290 Y92.277 E0.03341
G1 X113.266 Y91.968 E0.03210
G1 X114.629 Y91.813 E0.04300
G1 X115.987 Y91.968 E0.04285
G1 X116.963 Y92.277 E0.03210
G1 X117.909 Y92.768 E0.03342
G1 X118.775 Y93.434 E0.03424
G1 X119.484 Y94.214 E0.03304
G1 X119.935 Y94.883 E0.02531
G1 X120.297 Y95.630 E0.02603
G1 X120.627 Y96.703 E0.03519
G1 X120.750 Y97.792 E0.03436
G1 X120.680 Y98.858 E0.03352
G1 X120.510 Y99.648 E0.02531
G1 X120.228 Y100.412 E0.02555
G1 X119.686 Y101.395 E0.03519
G1 X119.032 Y102.198 E0.03246
G1 X118.173 Y102.932 E0.03543
G1 X117.478 Y103.363 E0.02567
G1 X116.742 Y103.686 E0.02519
G1 X115.647 Y103.982 E0.03554
G1 X114.623 Y104.068 E0.03223
G1 X113.603 Y103.981 E0.03211
G1 X112.509 Y103.685 E0.03554
G1 X111.776 Y103.364 E0.02507
G1 X111.077 Y102.931 E0.02579
G1 X110.218 Y102.196 E0.03543
G1 X109.565 Y101.394 E0.03246
G1 X109.023 Y100.411 E0.03519
G1 X108.741 Y99.646 E0.02555
G1 X108.572 Y98.857 E0.02531
G1 X108.502 Y97.790 E0.03352
G1 X108.625 Y96.705 E0.03425
G1 X108.955 Y95.628 E0.03531
G1 X109.317 Y94.881 E0.02603
G1 X109.769 Y94.212 E0.02531
G1 X110.438 Y93.477 E0.03116
; printing object body348 id:0 copy 0
;WIPE_START
G1 F8640.000
G1 X111.344 Y92.767 E-0.26583
G1 X112.290 Y92.277 E-0.24607
G1 X113.266 Y91.968 E-0.23640
G1 X113.317 Y91.962 E-0.01169
;WIPE_END
G1 E-0.04000 F2100.000
G1 Z0.600 F10800.000
G1 X112.914 Y96.008
G1 Z0.200
G1 E0.80000 F2100.000
;TYPE:Perimeter
G1 F1195
G1 X113.246 Y95.758 E0.01303
G1 X113.614 Y95.565 E0.01303
G1 X114.008 Y95.433 E0.01303
G1 X114.440 Y95.363 E0.01372
G1 X114.636 Y95.356 E0.00617
G1 X114.810 Y95.363 E0.00546
G1 X115.244 Y95.433 E0.01377
G1 X115.638 Y95.565 E0.01303
G1 X116.006 Y95.758 E0.01303
G1 X116.338 Y96.008 E0.01303
G1 X116.626 Y96.307 E0.01303
G1 X116.862 Y96.649 E0.01303
G1 X117.031 Y97.006 E0.01237
G1 X117.156 Y97.427 E0.01377
G1 X117.206 Y97.836 E0.01293
M73 Q6 S13
G1 X117.189 Y98.252 E0.01303
G1 X117.106 Y98.659 E0.01303
G1 X116.959 Y99.047 E0.01303
G1 X116.751 Y99.407 E0.01303
G1 X116.488 Y99.729 E0.01303
G1 X116.177 Y100.005 E0.01303
M73 P6 R13
G1 X115.826 Y100.227 E0.01303
G1 X115.444 Y100.390 E0.01303
G1 X115.040 Y100.489 E0.01303
G1 X114.626 Y100.523 E0.01303
G1 X114.212 Y100.489 E0.01303
G1 X113.808 Y100.390 E0.01303
G1 X113.426 Y100.227 E0.01303
G1 X113.075 Y100.005 E0.01303
G1 X112.764 Y99.729 E0.01303
G1 X112.501 Y99.407 E0.01303
G1 X112.293 Y99.047 E0.01303
G1 X112.146 Y98.659 E0.01303
G1 X112.063 Y98.252 E0.01303
G1 X112.046 Y97.836 E0.01303
G1 X112.096 Y97.424 E0.01303
G1 X112.212 Y97.025 E0.01303
G1 X112.390 Y96.649 E0.01303
G1 X112.626 Y96.307 E0.01303
G1 X112.872 Y96.051 E0.01115
G1 X112.600 Y95.790 F10800.000
G1 F1195
G1 X113.044 Y95.438 E0.01774
G1 X113.466 Y95.217 E0.01494
G1 X113.917 Y95.066 E0.01494
G1 X114.402 Y94.987 E0.01541
G1 X114.637 Y94.979 E0.00736
G1 X114.848 Y94.987 E0.00663
G1 X115.334 Y95.066 E0.01544
G1 X115.786 Y95.217 E0.01494
G1 X116.208 Y95.438 E0.01494
G1 X116.589 Y95.725 E0.01494
G1 X116.919 Y96.068 E0.01494
G1 X117.190 Y96.460 E0.01494
G1 X117.384 Y96.871 E0.01424
G1 X117.527 Y97.350 E0.01568
G1 X117.584 Y97.821 E0.01488
G1 X117.565 Y98.297 E0.01494
G1 X117.469 Y98.764 E0.01494
G1 X117.300 Y99.210 E0.01494
G1 X117.062 Y99.622 E0.01494
G1 X116.761 Y99.991 E0.01494
G1 X116.404 Y100.307 E0.01494
G1 X116.002 Y100.562 E0.01494
G1 X115.563 Y100.748 E0.01494
G1 X115.101 Y100.862 E0.01494
G1 X114.626 Y100.901 E0.01494
G1 X114.151 Y100.862 E0.01494
G1 X113.688 Y100.748 E0.01494
G1 X113.250 Y100.562 E0.01494
G1 X112.847 Y100.307 E0.01494
G1 X112.491 Y99.991 E0.01494
G1 X112.190 Y99.622 E0.01494
G1 X111.951 Y99.210 E0.01494
G1 X111.782 Y98.764 E0.01494
G1 X111.687 Y98.297 E0.01494
G1 X111.668 Y97.821 E0.01494
G1 X111.725 Y97.348 E0.01494
G1 X111.858 Y96.891 E0.01494
G1 X112.062 Y96.460 E0.01494
G1 X112.333 Y96.068 E0.01494
G1 X112.559 Y95.833 E0.01022
G1 X112.412 Y95.441 F10800.000
;TYPE:External perimeter
G1 F1195
G1 X112.842 Y95.119 E0.01685
G1 X113.317 Y94.869 E0.01685
G1 X113.827 Y94.699 E0.01685
G1 X114.365 Y94.611 E0.01710
G1 X114.638 Y94.601 E0.00855
G1 X114.886 Y94.611 E0.00781
G1 X115.425 Y94.699 E0.01711
G1 X115.935 Y94.869 E0.01685
G1 X116.410 Y95.119 E0.01685
G1 X116.840 Y95.441 E0.01685
G1 X117.212 Y95.829 E0.01685
G1 X117.517 Y96.271 E0.01685
G1 X117.738 Y96.735 E0.01611
G1 X117.897 Y97.273 E0.01759
G1 X117.962 Y97.806 E0.01683
G1 X117.940 Y98.343 E0.01685
G1 X117.833 Y98.869 E0.01685
G1 X117.642 Y99.372 E0.01685
G1 X117.374 Y99.837 E0.01685
G1 X117.034 Y100.253 E0.01685
G1 X116.632 Y100.610 E0.01685
G1 X116.177 Y100.897 E0.01685
G1 X115.683 Y101.107 E0.01685
G1 X115.161 Y101.236 E0.01685
G1 X114.626 Y101.279 E0.01685
G1 X114.090 Y101.236 E0.01685
G1 X113.569 Y101.107 E0.01685
G1 X113.074 Y100.897 E0.01685
G1 X112.620 Y100.610 E0.01685
G1 X112.218 Y100.253 E0.01685
G1 X111.878 Y99.837 E0.01685
G1 X111.610 Y99.372 E0.01685
G1 X111.419 Y98.869 E0.01685
G1 X111.312 Y98.343 E0.01685
G1 X111.290 Y97.806 E0.01685
G1 X111.355 Y97.273 E0.01685
G1 X111.504 Y96.757 E0.01685
G1 X111.735 Y96.271 E0.01685
G1 X112.040 Y95.829 E0.01685
G1 X112.370 Y95.485 E0.01497
G1 X112.791 Y95.568 F10800.000
;WIPE_START
G1 F8640.000
G1 X112.842 Y95.119 E-0.13776
G1 X113.317 Y94.869 E-0.12406
G1 X113.827 Y94.699 E-0.12406
G1 X114.365 Y94.611 E-0.12590
G1 X114.638 Y94.601 E-0.06297
G1 X114.886 Y94.611 E-0.05748
G1 X115.425 Y94.699 E-0.12598
G1 X115.432 Y94.701 E-0.00178
;WIPE_END
G1 E-0.04000 F2100.000
G1 Z0.600 F10800.000
G1 X116.882 Y96.956
G1 Z0.200
G1 E0.80000 F2100.000
;TYPE:Solid infill
;WIDTH:0.425222
G1 F1195
G1 X116.136 Y96.210 E0.03353
G1 X115.854 Y95.998 E0.01122
G1 X115.527 Y95.826 E0.01176
G1 X115.079 Y95.693 E0.01485
G1 X116.879 Y97.494 E0.08094
G1 X116.922 Y97.848 E0.01135
G1 X116.913 Y98.068 E0.00701
G1 X114.491 Y95.646 E0.10890
G1 X114.029 Y95.725 E0.01490
G1 X116.842 Y98.538 E0.12646
G1 X116.698 Y98.934 E0.01341
G1 X113.636 Y95.873 E0.13762
G1 X113.398 Y95.998 E0.00858
G1 X113.297 Y96.074 E0.00400
G1 X116.496 Y99.273 E0.14381
G1 X116.247 Y99.565 E0.01219
G1 X113.004 Y96.322 E0.14579
G1 X112.846 Y96.487 E0.00728
G1 X112.757 Y96.615 E0.00496
G1 X115.953 Y99.812 E0.14369
G1 X115.612 Y100.011 E0.01257
G1 X112.557 Y96.956 E0.13732
G1 X112.477 Y97.125 E0.00596
G1 X112.412 Y97.351 E0.00747
G1 X115.215 Y100.155 E0.12604
G1 X114.995 Y100.209 E0.00722
G1 X114.749 Y100.229 E0.00784
G1 X112.334 Y97.814 E0.10858
G1 X112.344 Y98.217 E0.01284
G1 X112.382 Y98.403 E0.00602
G1 X114.166 Y100.186 E0.08018
G1 X113.898 Y100.121 E0.00876
G1 X113.558 Y99.976 E0.01176
G1 X113.245 Y99.778 E0.01176
G1 X112.993 Y99.555 E0.01071
G1 X112.370 Y98.932 E0.02800
; stop printing object body348 id:0 copy 0
M106 S84.15
;LAYER_CHANGE
;Z:0.3
;HEIGHT:0.1
;BEFORE_LAYER_CHANGE
G92 E0.0
;0.3


;WIPE_START
G1 F8640.000
G1 X112.993 Y99.555 E-0.20339
G1 X113.245 Y99.778 E-0.07777
G1 X113.558 Y99.976 E-0.08541
G1 X113.898 Y100.121 E-0.08541
G1 X114.166 Y100.186 E-0.06365
G1 X113.417 Y99.438 E-0.24438
;WIPE_END
G1 E-0.04000 F2100.000
G1 Z0.600 F10800.000
;AFTER_LAYER_CHANGE
;0.3
M104 S205 ; set temperature
G1 X109.414 Y102.992
G1 Z0.300
G1 E0.80000 F2100.000
;TYPE:Skirt
;WIDTH:0.42
G1 F1111
G1 X108.621 Y102.018 E0.02080
G1 X107.973 Y100.832 E0.02240
G1 X107.656 Y99.965 E0.01530
G1 X107.461 Y99.072 E0.01514
G1 X107.371 Y97.787 E0.02133
G1 X107.518 Y96.471 E0.02195
G1 X107.919 Y95.175 E0.02248
G1 X108.335 Y94.320 E0.01576
G1 X108.839 Y93.568 E0.01499
G1 X109.687 Y92.624 E0.02103
G1 X110.731 Y91.816 E0.02187
G1 X111.875 Y91.225 E0.02134
G1 X113.051 Y90.857 E0.02042
G1 X114.633 Y90.682 E0.02636
G1 X116.205 Y90.858 E0.02621
G1 X117.385 Y91.228 E0.02050
G1 X118.525 Y91.818 E0.02126
G1 X119.571 Y92.630 E0.02195
G1 X120.415 Y93.571 E0.02095
G1 X120.919 Y94.323 E0.01499
G1 X121.335 Y95.178 E0.01576
G1 X121.734 Y96.470 E0.02240
G1 X121.881 Y97.791 E0.02203
G1 X121.790 Y99.075 E0.02133
G1 X121.596 Y99.964 E0.01507
G1 X121.279 Y100.831 E0.01530
G1 X120.631 Y102.017 E0.02240
G1 X119.838 Y102.991 E0.02081
G1 X118.797 Y103.876 E0.02263
G1 X118.003 Y104.365 E0.01545
M73 Q7 S13
G1 X117.180 Y104.729 E0.01491
G1 X115.863 Y105.092 E0.02263
M73 P7 R13
G1 X114.626 Y105.199 E0.02058
G1 X113.389 Y105.092 E0.02058
G1 X112.072 Y104.729 E0.02263
G1 X111.245 Y104.363 E0.01499
G1 X110.455 Y103.876 E0.01537
G1 X109.460 Y103.031 E0.02164
G1 X109.703 Y102.745 F10800.000
G1 F1111
G1 X108.935 Y101.809 E0.02006
G1 X108.323 Y100.693 E0.02108
G1 X108.017 Y99.858 E0.01473
G1 X107.832 Y99.002 E0.01452
G1 X107.748 Y97.789 E0.02014
G1 X107.887 Y96.550 E0.02066
G1 X108.264 Y95.325 E0.02123
G1 X108.663 Y94.506 E0.01509
G1 X109.149 Y93.783 E0.01444
G1 X109.949 Y92.896 E0.01978
G1 X110.935 Y92.133 E0.02066
G1 X112.011 Y91.576 E0.02008
G1 X113.121 Y91.228 E0.01928
G1 X114.631 Y91.059 E0.02517
G1 X116.129 Y91.227 E0.02498
G1 X117.239 Y91.576 E0.01928
G1 X118.316 Y92.132 E0.02008
G1 X119.302 Y92.895 E0.02065
G1 X120.104 Y93.785 E0.01985
G1 X120.590 Y94.509 E0.01444
G1 X120.989 Y95.328 E0.01510
G1 X121.365 Y96.548 E0.02116
G1 X121.504 Y97.791 E0.02073
G1 X121.420 Y99.000 E0.02007
G1 X121.235 Y99.856 E0.01452
G1 X120.929 Y100.691 E0.01473
G1 X120.315 Y101.811 E0.02116
G1 X119.570 Y102.727 E0.01958
G1 X118.590 Y103.560 E0.02130
G1 X117.830 Y104.030 E0.01481
G1 X117.033 Y104.382 E0.01444
G1 X115.789 Y104.722 E0.02137
G1 X114.625 Y104.822 E0.01936
M73 P7 R12
G1 X113.460 Y104.722 E0.01936
G1 X112.217 Y104.381 E0.02137
G1 X111.423 Y104.031 E0.01437
G1 X110.663 Y103.561 E0.01481
G1 X109.749 Y102.784 E0.01989
G1 X109.992 Y102.498 F10800.000
G1 F1111
G1 X109.250 Y101.602 E0.01928
G1 X108.673 Y100.552 E0.01984
G1 X108.379 Y99.750 E0.01416
G1 X108.202 Y98.927 E0.01395
G1 X108.125 Y97.790 E0.01889
G1 X108.256 Y96.624 E0.01944
G1 X108.610 Y95.475 E0.01991
G1 X108.991 Y94.692 E0.01443
G1 X109.459 Y93.997 E0.01388
G1 X110.216 Y93.162 E0.01869
G1 X111.139 Y92.450 E0.01930
G1 X112.152 Y91.926 E0.01890
G1 X113.193 Y91.598 E0.01809
G1 X114.630 Y91.436 E0.02396
G1 X116.058 Y91.598 E0.02381
G1 X117.099 Y91.926 E0.01809
G1 X118.112 Y92.450 E0.01890
G1 X119.038 Y93.164 E0.01937
G1 X119.794 Y94.000 E0.01869
G1 X120.263 Y94.695 E0.01388
G1 X120.643 Y95.478 E0.01443
M73 Q7 S12
