; generated by PrusaSlicer 2.3.3+win64 on 2022-02-02 at 09:57:23 UTC

; 

; external perimeters extrusion width = 0.45mm
; perimeters extrusion width = 0.45mm
; infill extrusion width = 0.45mm
; solid infill extrusion width = 0.45mm
; top infill extrusion width = 0.40mm
; first layer extrusion width = 0.42mm

M73 P0 R12
M73 Q0 S12
M201 X1000 Y1000 Z200 E8000 ; sets maximum accelerations, mm/sec^2
M203 X200 Y200 Z12 E120 ; sets maximum feedrates, mm/sec
M204 P1250 R1250 T1250 ; sets acceleration (P, T) and retract acceleration (R), mm/sec^2
M205 X8.00 Y8.00 Z0.40 E4.50 ; sets the jerk limits, mm/sec
M205 S0 T0 ; sets the minimum extruding and travel feed rate, mm/sec
M107
;TYPE:Custom
M862.3 P "MK3SMMU2S" ; printer model check
M862.1 P0.4 ; nozzle diameter check
M115 U3.10.0 ; tell printer latest fw version
G90 ; use absolute coordinates
M83 ; extruder relative mode
M104 S215 ; set extruder temp
M140 S60 ; set bed temp
M190 S60 ; wait for bed temp
M109 S215 ; wait for extruder temp
G28 W ; home all without mesh bed level
G80 ; mesh bed leveling

; Send the filament type to the MMU2.0 unit.
; E stands for extruder number, F stands for filament type (0: default; 1:flex; 2: PVA)
M403 E0 F0
M403 E1 F0
M403 E2 F0
M403 E3 F0
M403 E4 F0


;go outside print area
G1 Y-3.0 F1000.0
M73 P2 R12
M73 Q2 S12
G1 Z0.4 F1000.0
; select extruder
T3
; initial load
G1 X55.0 E29.0 F1073.0
G1 X5.0 E29.0 F1800.0
G1 X55.0 E8.0 F2000.0
G1 Z0.3 F1000.0
G92 E0.0
G1 X240.0 E25.0 F2200.0
M73 P3 R12
M73 Q3 S12
G1 Y-2.0 F1000.0
G1 X55.0 E25 F1400.0
M73 P4 R12
M73 Q4 S12
G1 Z0.20 F1000.0
G1 X5.0 E4.0 F1000.0
G92 E0.0


M221 S95
G92 E0.0

; Don't change E values below. Excessive value can damage the printer.
M907 E430 ; set extruder motor current
G21 ; set units to millimeters
G90 ; use absolute coordinates
M83 ; use relative distances for extrusion
T3
M900 K0.05 ; Filament gcode LA 1.5
M900 K30 ; Filament gcode LA 1.0
;LAYER_CHANGE
;Z:0.2
;HEIGHT:0.2
;BEFORE_LAYER_CHANGE
G92 E0.0
;0.2


M73 P5 R12
M73 Q5 S12
G1 E-0.80000 F2100.000
G1 Z0.400 F10800.000
;AFTER_LAYER_CHANGE
;0.2
; printing object body348 id:0 copy 0
G1 X129.649 Y96.014
G1 Z0.200
G1 E0.80000 F2100.000
M204 S1000
;TYPE:Perimeter
;WIDTH:0.42
G1 F900
G1 X129.936 Y95.714 E0.01303
G1 X130.269 Y95.465 E0.01303
G1 X130.637 Y95.272 E0.01303
G1 X131.031 Y95.140 E0.01303
G1 X131.463 Y95.070 E0.01372
G1 X131.833 Y95.070 E0.01162
G1 X132.267 Y95.140 E0.01377
G1 X132.661 Y95.272 E0.01303
G1 X133.029 Y95.465 E0.01303
G1 X133.361 Y95.714 E0.01303
G1 X133.649 Y96.014 E0.01303
G1 X133.885 Y96.356 E0.01303
G1 X134.054 Y96.713 E0.01237
G1 X134.179 Y97.134 E0.01377
G1 X134.229 Y97.543 E0.01293
G1 X134.212 Y97.958 E0.01303
G1 X134.129 Y98.366 E0.01303
G1 X133.981 Y98.754 E0.01303
G1 X133.774 Y99.114 E0.01303
G1 X133.511 Y99.436 E0.01303
G1 X133.200 Y99.711 E0.01303
G1 X132.849 Y99.933 E0.01303
G1 X132.466 Y100.096 E0.01303
G1 X132.063 Y100.196 E0.01303
G1 X131.649 Y100.229 E0.01303
G1 X131.235 Y100.196 E0.01303
G1 X130.831 Y100.096 E0.01303
G1 X130.449 Y99.933 E0.01303
G1 X130.098 Y99.711 E0.01303
G1 X129.787 Y99.436 E0.01303
G1 X129.524 Y99.114 E0.01303
G1 X129.316 Y98.754 E0.01303
G1 X129.169 Y98.366 E0.01303
G1 X129.085 Y97.958 E0.01303
G1 X129.069 Y97.543 E0.01303
G1 X129.119 Y97.131 E0.01303
G1 X129.234 Y96.732 E0.01303
G1 X129.413 Y96.356 E0.01303
G1 X129.615 Y96.064 E0.01115
G1 X129.304 Y95.849 F10800.000
G1 F900
G1 X129.686 Y95.431 E0.01774
G1 X130.066 Y95.145 E0.01494
G1 X130.488 Y94.924 E0.01494
G1 X130.940 Y94.773 E0.01494
G1 X131.425 Y94.694 E0.01541
G1 X131.871 Y94.694 E0.01398
G1 X132.357 Y94.773 E0.01544
G1 X132.809 Y94.924 E0.01494
G1 X133.231 Y95.145 E0.01494
G1 X133.612 Y95.431 E0.01494
G1 X133.942 Y95.775 E0.01494
G1 X134.212 Y96.167 E0.01494
G1 X134.407 Y96.577 E0.01424
G1 X134.549 Y97.057 E0.01568
G1 X134.607 Y97.528 E0.01488
G1 X134.587 Y98.004 E0.01494
G1 X134.492 Y98.471 E0.01494
G1 X134.323 Y98.916 E0.01494
G1 X134.085 Y99.329 E0.01494
G1 X133.784 Y99.698 E0.01494
G1 X133.427 Y100.014 E0.01494
G1 X133.024 Y100.268 E0.01494
G1 X132.586 Y100.455 E0.01494
G1 X132.124 Y100.569 E0.01494
G1 X131.649 Y100.608 E0.01494
G1 X131.174 Y100.569 E0.01494
G1 X130.711 Y100.455 E0.01494
G1 X130.273 Y100.268 E0.01494
G1 X129.870 Y100.014 E0.01494
G1 X129.514 Y99.698 E0.01494
G1 X129.212 Y99.329 E0.01494
G1 X128.974 Y98.916 E0.01494
G1 X128.805 Y98.471 E0.01494
G1 X128.710 Y98.004 E0.01494
G1 X128.691 Y97.528 E0.01494
G1 X128.748 Y97.055 E0.01494
G1 X128.881 Y96.597 E0.01494
G1 X129.085 Y96.167 E0.01494
G1 X129.270 Y95.899 E0.01022
G1 X129.063 Y95.536 F10800.000
;TYPE:External perimeter
G1 F900
G1 X129.435 Y95.148 E0.01685
G1 X129.864 Y94.825 E0.01685
G1 X130.340 Y94.576 E0.01685
G1 X130.850 Y94.406 E0.01685
G1 X131.388 Y94.318 E0.01710
G1 X131.909 Y94.318 E0.01634
G1 X132.448 Y94.406 E0.01711
G1 X132.957 Y94.576 E0.01685
G1 X133.433 Y94.825 E0.01685
G1 X133.863 Y95.148 E0.01685
G1 X134.235 Y95.536 E0.01685
G1 X134.540 Y95.978 E0.01685
G1 X134.760 Y96.442 E0.01611
G1 X134.920 Y96.980 E0.01759
G1 X134.985 Y97.513 E0.01683
G1 X134.963 Y98.050 E0.01685
G1 X134.856 Y98.576 E0.01685
G1 X134.665 Y99.078 E0.01685
G1 X134.396 Y99.544 E0.01685
G1 X134.057 Y99.960 E0.01685
G1 X133.654 Y100.316 E0.01685
G1 X133.200 Y100.603 E0.01685
G1 X132.706 Y100.814 E0.01685
G1 X132.184 Y100.943 E0.01685
M73 P5 R11
G1 X131.649 Y100.986 E0.01685
G1 X131.113 Y100.943 E0.01685
G1 X130.591 Y100.814 E0.01685
G1 X130.097 Y100.603 E0.01685
G1 X129.643 Y100.316 E0.01685
G1 X129.241 Y99.960 E0.01685
G1 X128.901 Y99.544 E0.01685
G1 X128.632 Y99.078 E0.01685
G1 X128.442 Y98.576 E0.01685
G1 X128.334 Y98.050 E0.01685
G1 X128.313 Y97.513 E0.01685
G1 X128.378 Y96.979 E0.01685
G1 X128.527 Y96.463 E0.01685
G1 X128.757 Y95.978 E0.01685
G1 X129.028 Y95.585 E0.01497
G1 X129.457 Y95.600 F10800.000
;WIPE_START
G1 F8640.000
G1 X129.435 Y95.148 E-0.13776
G1 X129.864 Y94.825 E-0.12406
G1 X130.340 Y94.576 E-0.12406
G1 X130.850 Y94.406 E-0.12406
G1 X131.388 Y94.318 E-0.12590
G1 X131.909 Y94.318 E-0.12036
G1 X131.925 Y94.321 E-0.00379
;WIPE_END
G1 E-0.04000 F2100.000
G1 Z0.600 F10800.000
G1 X133.905 Y96.662
G1 Z0.200
G1 E0.80000 F2100.000
;TYPE:Solid infill
;WIDTH:0.425222
G1 F900
G1 X133.159 Y95.917 E0.03353
G1 X132.877 Y95.705 E0.01122
G1 X132.550 Y95.533 E0.01176
G1 X132.102 Y95.400 E0.01485
G1 X133.902 Y97.200 E0.08094
G1 X133.945 Y97.555 E0.01135
G1 X133.936 Y97.775 E0.00701
G1 X131.514 Y95.353 E0.10890
G1 X131.052 Y95.431 E0.01490
G1 X133.865 Y98.244 E0.12646
M73 P6 R11
M73 Q6 S12
G1 X133.720 Y98.641 E0.01341
G1 X130.659 Y95.579 E0.13762
G1 X130.420 Y95.705 E0.00858
G1 X130.320 Y95.780 E0.00400
G1 X133.519 Y98.979 E0.14381
G1 X133.270 Y99.271 E0.01219
G1 X130.027 Y96.028 E0.14579
G1 X129.868 Y96.194 E0.00728
G1 X129.780 Y96.322 E0.00496
G1 X132.976 Y99.518 E0.14369
G1 X132.635 Y99.717 E0.01257
G1 X129.580 Y96.663 E0.13732
G1 X129.500 Y96.832 E0.00596
G1 X129.434 Y97.058 E0.00747
G1 X132.238 Y99.861 E0.12604
G1 X132.017 Y99.916 E0.00722
G1 X131.772 Y99.936 E0.00784
G1 X129.356 Y97.520 E0.10858
M73 Q6 S11
G1 X129.367 Y97.924 E0.01284
G1 X129.405 Y98.110 E0.00602
G1 X131.189 Y99.893 E0.08018
G1 X130.921 Y99.827 E0.00876
G1 X130.581 Y99.682 E0.01176
G1 X130.268 Y99.485 E0.01176
G1 X130.016 Y99.261 E0.01071
G1 X129.393 Y98.638 E0.02800
; stop printing object body348 id:0 copy 0
M106 S84.15
;LAYER_CHANGE
;Z:0.3
;HEIGHT:0.1
;BEFORE_LAYER_CHANGE
G92 E0.0
;0.3


;WIPE_START
G1 F8640.000
G1 X130.016 Y99.261 E-0.20339
G1 X130.268 Y99.485 E-0.07777
G1 X130.581 Y99.682 E-0.08541
G1 X130.921 Y99.827 E-0.08541
G1 X131.189 Y99.893 E-0.06365
G1 X130.440 Y99.145 E-0.24438
;WIPE_END
G1 E-0.04000 F2100.000
G1 Z0.600 F10800.000
;AFTER_LAYER_CHANGE
;0.3
M104 S205 ; set temperature
; printing object body348 id:0 copy 0
G1 X130.048 Y99.777
G1 Z0.300
G1 E0.80000 F2100.000
M204 S800
;TYPE:Perimeter
;WIDTH:0.45
G1 F900
G1 X129.727 Y99.493 E0.00764
G1 X129.456 Y99.161 E0.00764
G1 X129.242 Y98.789 E0.00764
G1 X129.089 Y98.388 E0.00764
G1 X129.004 Y97.968 E0.00764
G1 X128.986 Y97.540 E0.00764
G1 X129.038 Y97.114 E0.00764
G1 X129.157 Y96.702 E0.00764
G1 X129.341 Y96.315 E0.00764
G1 X129.585 Y95.962 E0.00764
G1 X129.882 Y95.653 E0.00764
G1 X130.225 Y95.395 E0.00764
G1 X130.604 Y95.196 E0.00764
G1 X131.011 Y95.060 E0.00764
G1 X131.450 Y94.989 E0.00792
G1 X131.841 Y94.988 E0.00698
G1 X132.286 Y95.060 E0.00803
G1 X132.693 Y95.196 E0.00764
G1 X133.073 Y95.395 E0.00764
G1 X133.416 Y95.653 E0.00764
G1 X133.713 Y95.962 E0.00764
G1 X133.956 Y96.315 E0.00764
G1 X134.134 Y96.690 E0.00740
G1 X134.259 Y97.114 E0.00787
G1 X134.311 Y97.540 E0.00764
G1 X134.294 Y97.968 E0.00764
G1 X134.208 Y98.388 E0.00764
G1 X134.056 Y98.789 E0.00764
G1 X133.841 Y99.161 E0.00764
G1 X133.570 Y99.493 E0.00764
G1 X133.249 Y99.777 E0.00764
G1 X132.887 Y100.006 E0.00764
G1 X132.492 Y100.174 E0.00764
G1 X132.076 Y100.277 E0.00764
G1 X131.649 Y100.312 E0.00764
G1 X131.221 Y100.277 E0.00764
G1 X130.805 Y100.174 E0.00764
G1 X130.410 Y100.006 E0.00764
G1 X130.099 Y99.809 E0.00657
M204 S1000
G1 X129.870 Y100.171 F10800.000
M204 S800
G1 F900
G1 X129.790 Y100.121 E0.00169
G1 X129.417 Y99.791 E0.00887
G1 X129.102 Y99.405 E0.00887
G1 X128.853 Y98.974 E0.00887
G1 X128.677 Y98.508 E0.00887
G1 X128.577 Y98.020 E0.00887
G1 X128.557 Y97.523 E0.00887
G1 X128.617 Y97.028 E0.00887
G1 X128.755 Y96.550 E0.00887
G1 X128.969 Y96.100 E0.00887
G1 X129.252 Y95.690 E0.00887
G1 X129.597 Y95.331 E0.00887
G1 X129.995 Y95.032 E0.00887
G1 X130.436 Y94.800 E0.00887
G1 X130.908 Y94.643 E0.00887
G1 X131.409 Y94.561 E0.00904
G1 X131.885 Y94.561 E0.00847
G1 X132.389 Y94.643 E0.00911
G1 X132.862 Y94.800 E0.00887
G1 X133.303 Y95.032 E0.00887
G1 X133.701 Y95.331 E0.00887
G1 X134.046 Y95.690 E0.00887
G1 X134.328 Y96.100 E0.00887
G1 X134.521 Y96.507 E0.00802
G1 X134.680 Y97.028 E0.00971
G1 X134.741 Y97.523 E0.00887
G1 X134.720 Y98.020 E0.00887
G1 X134.621 Y98.508 E0.00887
G1 X134.444 Y98.974 E0.00887
G1 X134.195 Y99.405 E0.00887
G1 X133.880 Y99.791 E0.00887
G1 X133.508 Y100.121 E0.00887
G1 X133.087 Y100.387 E0.00887
G1 X132.629 Y100.582 E0.00887
G1 X132.145 Y100.701 E0.00887
G1 X131.649 Y100.742 E0.00887
G1 X131.152 Y100.701 E0.00887
G1 X130.669 Y100.582 E0.00887
G1 X130.211 Y100.387 E0.00887
G1 X129.920 Y100.204 E0.00612
M204 S1000
G1 X129.532 Y100.465 F10800.000
M204 S800
;TYPE:External perimeter
G1 F900
G1 X129.107 Y100.089 E0.01011
G1 X128.748 Y99.649 E0.01011
G1 X128.465 Y99.158 E0.01011
G1 X128.264 Y98.628 E0.01011
G1 X128.150 Y98.072 E0.01011
G1 X128.127 Y97.505 E0.01011
G1 X128.196 Y96.942 E0.01011
G1 X128.353 Y96.397 E0.01011
G1 X128.597 Y95.885 E0.01011
G1 X128.872 Y95.486 E0.00864
G1 X129.312 Y95.009 E0.01156
G1 X129.765 Y94.669 E0.01011
G1 X130.267 Y94.405 E0.01011
G1 X130.805 Y94.225 E0.01011
G1 X131.368 Y94.134 E0.01016
G1 X131.928 Y94.134 E0.00997
G1 X132.492 Y94.225 E0.01019
G1 X133.030 Y94.405 E0.01011
G1 X133.532 Y94.669 E0.01011
G1 X133.986 Y95.009 E0.01011
G1 X134.379 Y95.418 E0.01011
G1 X134.701 Y95.885 E0.01011
G1 X134.909 Y96.323 E0.00864
G1 X135.102 Y96.942 E0.01156
G1 X135.170 Y97.505 E0.01011
G1 X135.147 Y98.072 E0.01011
G1 X135.034 Y98.628 E0.01011
G1 X134.833 Y99.158 E0.01011
G1 X134.549 Y99.649 E0.01011
G1 X134.190 Y100.089 E0.01011
G1 X133.766 Y100.465 E0.01011
G1 X133.287 Y100.768 E0.01011
G1 X132.765 Y100.990 E0.01011
G1 X132.214 Y101.126 E0.01011
G1 X131.649 Y101.171 E0.01011
G1 X131.083 Y101.126 E0.01011
G1 X130.533 Y100.990 E0.01011
G1 X130.011 Y100.768 E0.01011
G1 X129.582 Y100.497 E0.00904
M204 S1000
G1 X129.580 Y100.068 F10800.000
;WIPE_START
G1 F8640.000
G1 X129.107 Y100.089 E-0.14465
G1 X128.748 Y99.649 E-0.13096
G1 X128.465 Y99.158 E-0.13096
G1 X128.264 Y98.628 E-0.13096
G1 X128.150 Y98.072 E-0.13096
G1 X128.134 Y97.676 E-0.09150
;WIPE_END
G1 E-0.04000 F2100.000
G1 Z0.700 F10800.000
G1 X133.995 Y98.588
M73 P7 R11
M73 Q7 S11
G1 Z0.300
G1 E0.80000 F2100.000
;TYPE:Solid infill
;WIDTH:0.485882
G1 F900
G1 X133.056 Y99.519 E0.02554
G1 X132.737 Y99.721 E0.00728
G1 X132.390 Y99.869 E0.00728
G1 X131.964 Y99.962 E0.00843
G1 X133.968 Y97.958 E0.05472
G1 X133.989 Y97.553 E0.00784
G1 X133.959 Y97.310 E0.00473
G1 X131.308 Y99.962 E0.07241
G1 X130.907 Y99.869 E0.00794
G1 X130.793 Y99.820 E0.00240
G1 X133.825 Y96.788 E0.08280
G1 X133.677 Y96.476 E0.00666
G1 X133.596 Y96.359 E0.00274
G1 X130.361 Y99.595 E0.08835
G1 X130.242 Y99.519 E0.00272
G1 X129.997 Y99.302 E0.00633
G1 X133.301 Y95.998 E0.09023
G1 X133.202 Y95.894 E0.00277
G1 X132.943 Y95.699 E0.00626
G1 X129.700 Y98.941 E0.08853
G1 X129.533 Y98.651 E0.00647
G1 X129.478 Y98.507 E0.00298
G1 X132.511 Y95.474 E0.08282
G1 X132.209 Y95.373 E0.00615
G1 X131.991 Y95.338 E0.00428
G1 X129.337 Y97.992 E0.07247
G1 X129.309 Y97.553 E0.00849
G1 X129.335 Y97.337 E0.00421
G1 X131.339 Y95.333 E0.05473
G1 X131.088 Y95.373 E0.00491
G1 X130.731 Y95.493 E0.00728
G1 X130.397 Y95.668 E0.00728
G1 X130.196 Y95.819 E0.00486
G1 X129.288 Y96.727 E0.02478
; stop printing object body348 id:0 copy 0
M106 S170.85
;LAYER_CHANGE
;Z:0.4
;HEIGHT:0.1
;BEFORE_LAYER_CHANGE
G92 E0.0
;0.4


;WIPE_START
G1 F8640.000
G1 X130.196 Y95.819 E-0.29635
G1 X130.397 Y95.668 E-0.05811
G1 X130.731 Y95.493 E-0.08703
G1 X131.088 Y95.373 E-0.08703
G1 X131.339 Y95.333 E-0.05868
G1 X130.810 Y95.862 E-0.17281
;WIPE_END
G1 E-0.04000 F2100.000
G1 Z0.700 F10800.000
;AFTER_LAYER_CHANGE
;0.4
; printing object body348 id:0 copy 0
G1 X130.604 Y95.196
G1 Z0.400
G1 E0.80000 F2100.000
M204 S800
;TYPE:Perimeter
;WIDTH:0.45
G1 F900
G1 X131.011 Y95.060 E0.00764
G1 X131.448 Y94.989 E0.00788
G1 X131.711 Y94.983 E0.00469
G1 X132.286 Y95.060 E0.01035
G1 X132.693 Y95.196 E0.00764
G1 X133.073 Y95.395 E0.00764
G1 X133.416 Y95.653 E0.00764
G1 X133.713 Y95.962 E0.00764
G1 X133.956 Y96.315 E0.00764
G1 X134.140 Y96.702 E0.00764
G1 X134.259 Y97.114 E0.00764
G1 X134.311 Y97.540 E0.00764
G1 X134.294 Y97.968 E0.00764
G1 X134.208 Y98.388 E0.00764
G1 X134.056 Y98.789 E0.00764
G1 X133.841 Y99.161 E0.00764
G1 X133.570 Y99.493 E0.00764
G1 X133.249 Y99.777 E0.00764
G1 X132.887 Y100.006 E0.00764
G1 X132.492 Y100.174 E0.00764
G1 X132.076 Y100.277 E0.00764
G1 X131.649 Y100.312 E0.00764
G1 X131.221 Y100.277 E0.00764
G1 X130.805 Y100.174 E0.00764
G1 X130.410 Y100.006 E0.00764
G1 X130.048 Y99.777 E0.00764
G1 X129.727 Y99.493 E0.00764
G1 X129.456 Y99.161 E0.00764
G1 X129.242 Y98.789 E0.00764
G1 X129.089 Y98.388 E0.00764
G1 X129.004 Y97.968 E0.00764
G1 X128.986 Y97.540 E0.00764
G1 X129.038 Y97.114 E0.00764
G1 X129.157 Y96.702 E0.00764
G1 X129.341 Y96.315 E0.00764
G1 X129.585 Y95.962 E0.00764
G1 X129.882 Y95.653 E0.00764
G1 X130.225 Y95.395 E0.00764
G1 X130.551 Y95.224 E0.00657
M204 S1000
G1 X130.352 Y94.844 F10800.000
M204 S800
G1 F900
G1 X130.436 Y94.800 E0.00169
G1 X130.908 Y94.643 E0.00887
G1 X131.408 Y94.562 E0.00902
G1 X131.885 Y94.561 E0.00849
G1 X132.389 Y94.643 E0.00911
G1 X132.862 Y94.800 E0.00887
G1 X133.303 Y95.032 E0.00887
G1 X133.701 Y95.331 E0.00887
G1 X134.046 Y95.690 E0.00887
G1 X134.328 Y96.100 E0.00887
G1 X134.542 Y96.550 E0.00887
G1 X134.680 Y97.028 E0.00887
G1 X134.741 Y97.523 E0.00887
G1 X134.720 Y98.020 E0.00887
G1 X134.621 Y98.508 E0.00887
G1 X134.444 Y98.974 E0.00887
G1 X134.195 Y99.405 E0.00887
G1 X133.880 Y99.791 E0.00887
G1 X133.508 Y100.121 E0.00887
G1 X133.087 Y100.387 E0.00887
G1 X132.629 Y100.582 E0.00887
G1 X132.145 Y100.701 E0.00887
G1 X131.649 Y100.742 E0.00887
G1 X131.152 Y100.701 E0.00887
G1 X130.669 Y100.582 E0.00887
G1 X130.211 Y100.387 E0.00887
G1 X129.790 Y100.121 E0.00887
G1 X129.417 Y99.791 E0.00887
G1 X129.102 Y99.405 E0.00887
G1 X128.853 Y98.974 E0.00887
G1 X128.677 Y98.508 E0.00887
G1 X128.577 Y98.020 E0.00887
G1 X128.557 Y97.523 E0.00887
G1 X128.617 Y97.028 E0.00887
G1 X128.755 Y96.550 E0.00887
G1 X128.969 Y96.100 E0.00887
G1 X129.252 Y95.690 E0.00887
G1 X129.597 Y95.331 E0.00887
G1 X129.995 Y95.032 E0.00887
G1 X130.299 Y94.872 E0.00612
M204 S1000
G1 X130.267 Y94.405 F10800.000
M204 S800
;TYPE:External perimeter
G1 F900
G1 X130.805 Y94.225 E0.01011
G1 X131.368 Y94.134 E0.01016
G1 X131.717 Y94.125 E0.00623
G1 X131.928 Y94.134 E0.00375
G1 X132.492 Y94.225 E0.01019
G1 X133.030 Y94.405 E0.01011
