; generated by PrusaSlicer 2.3.3+win64 on 2022-01-28 at 08:49:54 UTC

; 

; external perimeters extrusion width = 0.45mm
; perimeters extrusion width = 0.45mm
; infill extrusion width = 0.45mm
; solid infill extrusion width = 0.45mm
; top infill extrusion width = 0.40mm
; first layer extrusion width = 0.42mm

; external perimeters extrusion width = 0.45mm
; perimeters extrusion width = 0.45mm
; infill extrusion width = 0.45mm
; solid infill extrusion width = 0.45mm
; top infill extrusion width = 0.40mm
; first layer extrusion width = 0.42mm

; external perimeters extrusion width = 0.60mm
; perimeters extrusion width = 0.50mm
; infill extrusion width = 0.50mm
; solid infill extrusion width = 0.50mm
; top infill extrusion width = 0.45mm
; first layer extrusion width = 0.42mm

; external perimeters extrusion width = 0.60mm
; perimeters extrusion width = 0.50mm
; infill extrusion width = 0.50mm
; solid infill extrusion width = 0.50mm
; top infill extrusion width = 0.45mm
; first layer extrusion width = 0.42mm

; external perimeters extrusion width = 0.60mm
; perimeters extrusion width = 0.50mm
; infill extrusion width = 0.50mm
; solid infill extrusion width = 0.50mm
; top infill extrusion width = 0.45mm
; first layer extrusion width = 0.42mm

M73 P0 R153
M73 Q0 S154
M201 X1000 Y1000 Z200 E8000 ; sets maximum accelerations, mm/sec^2
M203 X200 Y200 Z12 E120 ; sets maximum feedrates, mm/sec
M204 P1250 R1250 T1250 ; sets acceleration (P, T) and retract acceleration (R), mm/sec^2
M205 X8.00 Y8.00 Z0.40 E4.50 ; sets the jerk limits, mm/sec
M205 S0 T0 ; sets the minimum extruding and travel feed rate, mm/sec
M107
;TYPE:Custom
M862.3 P "MK3SMMU2S" ; printer model check
M862.1 P0.4 ; nozzle diameter check
M115 U3.10.0 ; tell printer latest fw version
G90 ; use absolute coordinates
M83 ; extruder relative mode
M104 S215 ; set extruder temp
M140 S60 ; set bed temp
M190 S60 ; wait for bed temp
M109 S215 ; wait for extruder temp
G28 W ; home all without mesh bed level
G80 ; mesh bed leveling

; Send the filament type to the MMU2.0 unit.
; E stands for extruder number, F stands for filament type (0: default; 1:flex; 2: PVA)
M403 E0 F0
M403 E1 F0
M403 E2 F0
M403 E3 F0
M403 E4 F0


;go outside print area
G1 Y-3.0 F1000.0
G1 Z0.4 F1000.0
; select extruder
T1
; initial load
G1 X55.0 E29.0 F1073.0
M73 P0 R152
G1 X5.0 E29.0 F1800.0
G1 X55.0 E8.0 F2000.0
G1 Z0.3 F1000.0
G92 E0.0
G1 X240.0 E25.0 F2200.0
G1 Y-2.0 F1000.0
G1 X55.0 E25 F1400.0
M73 Q0 S153
G1 Z0.20 F1000.0
G1 X5.0 E4.0 F1000.0
G92 E0.0


M221 S95
G92 E0.0

; Don't change E values below. Excessive value can damage the printer.

M907 E538 ; set extruder motor current
G21 ; set units to millimeters
G90 ; use absolute coordinates
M83 ; use relative distances for extrusion
T1
M900 K0.05 ; Filament gcode LA 1.5
M900 K30 ; Filament gcode LA 1.0
G1 Z0.200 F10800.000
;LAYER_CHANGE
;Z:0.2
;HEIGHT:0.2
;BEFORE_LAYER_CHANGE
G92 E0.0
;0.2


G1 E-0.80000 F2100.000
G1 Z0.600 F10800.000
G1 Z0.200
;AFTER_LAYER_CHANGE
;0.2
G1 E-1.20000 F2100.000
G1 Z0.600 F10800.000
G1 X227.884 Y34.144
G1 Z0.200
G1 E2.00000 F2100.000
;HEIGHT:0.200000
;TYPE:Wipe tower
;WIDTH:0.500000
;-------------------------------------
; CP WIPE TOWER FIRST LAYER BRIM START
G1  X227.884 Y155.484  E6.9175 F2400
G1  X225.341 Y155.941   F7000
G1  Y33.687  E5.1111 F2100
G1  X164.427  E2.5466
G1  Y155.941  E5.1111
G1  X225.341  E2.5466
G1  X225.798 Y156.398   F7000
G1  Y33.230  E5.1493 F2100
G1  X163.970  E2.5849
G1  Y156.398  E5.1493
G1  X225.798  E2.5849
G1  X226.255 Y156.855   F7000
G1  Y32.773  E5.1875 F2100
G1  X163.513  E2.6231
G1  Y156.855  E5.1875
G1  X226.255  E2.6231
G1  X226.712 Y157.312   F7000
G1  Y32.316  E5.2257 F2100
M73 P0 R151
G1  X163.056  E2.6613
G1  Y157.312  E5.2257
G1  X226.712  E2.6613
; CP WIPE TOWER FIRST LAYER BRIM END
;-----------------------------------

;WIPE_START
G1 F8640.000
G1 X226.255 Y156.855 E-0.14926
G1 X223.610 Y156.855 E-0.61074
;WIPE_END
G1 E-0.04000 F2100.000
G1 Z0.600 F10800.000
G1 X227.436 Y159.262
G1 Z0.200
G1 E0.80000 F2100.000
M204 S1000
;TYPE:Skirt
;WIDTH:0.42
;HEIGHT:0.2
G1 F1200.000
G1 X226.508 Y159.461 E0.02977
M73 Q0 S152
G1 X163.280 Y159.461 E1.98245
G1 X162.793 Y159.410 E0.01538
G1 X162.049 Y159.115 E0.02508
G1 X126.377 Y137.331 E1.31053
M73 Q1 S152
G1 X125.990 Y137.036 E0.01526
G1 X120.910 Y130.115 E0.26919
M73 P1 R151
G1 X120.591 Y129.490 E0.02201
G1 X120.467 Y128.768 E0.02296
G1 X120.467 Y120.599 E0.25614
G1 X121.018 Y56.127 E2.02152
G1 X121.145 Y55.533 E0.01906
G1 X121.419 Y54.990 E0.01906
G1 X126.431 Y48.122 E0.26659
G1 X127.113 Y47.618 E0.02661
G1 X162.242 Y30.408 E1.22651
G1 X162.862 Y30.205 E0.02048
G1 X226.488 Y30.167 E1.99492
G1 X227.390 Y30.347 E0.02884
G1 X228.153 Y30.852 E0.02872
G1 X228.671 Y31.613 E0.02884
G1 X228.861 Y32.513 E0.02884
G1 X228.861 Y157.095 E3.90620
G1 X228.691 Y157.965 E0.02778
G1 X228.215 Y158.712 E0.02778
G1 X227.485 Y159.227 E0.02801
; printing object body1260 id:2 copy 0
;WIPE_START
G1 F8640.000
G1 X226.508 Y159.461 E-0.23208
G1 X224.221 Y159.461 E-0.52792
;WIPE_END
G1 E-0.04000 F2100.000
G1 Z0.600 F10800.000
G1 X137.954 Y62.944
G1 Z0.200
G1 E0.80000 F2100.000
;TYPE:Perimeter
G1 F1200.000
G1 X137.492 Y63.256 E0.01750
G1 X136.983 Y63.486 E0.01750
G1 X136.443 Y63.627 E0.01750
G1 X135.887 Y63.674 E0.01750
G1 X135.359 Y63.629 E0.01661
G1 X134.794 Y63.487 E0.01828
G1 X134.283 Y63.256 E0.01758
G1 X133.821 Y62.944 E0.01750
G1 X133.418 Y62.558 E0.01750
G1 X133.086 Y62.109 E0.01750
G1 X132.835 Y61.611 E0.01750
G1 X132.671 Y61.077 E0.01750
G1 X132.600 Y60.524 E0.01750
G1 X132.624 Y59.966 E0.01750
G1 X132.742 Y59.421 E0.01750
G1 X132.950 Y58.903 E0.01750
G1 X133.242 Y58.428 E0.01750
G1 X133.592 Y58.030 E0.01661
G1 X134.043 Y57.660 E0.01828
G1 X134.532 Y57.386 E0.01758
G1 X135.058 Y57.200 E0.01750
G1 X135.608 Y57.106 E0.01750
G1 X136.166 Y57.106 E0.01750
G1 X136.716 Y57.200 E0.01750
G1 X137.243 Y57.386 E0.01750
G1 X137.730 Y57.658 E0.01750
G1 X138.164 Y58.009 E0.01750
G1 X138.533 Y58.428 E0.01750
G1 X138.825 Y58.903 E0.01750
G1 X139.033 Y59.421 E0.01750
G1 X139.151 Y59.966 E0.01750
G1 X139.174 Y60.524 E0.01750
G1 X139.104 Y61.077 E0.01750
G1 X138.940 Y61.611 E0.01750
G1 X138.689 Y62.109 E0.01750
G1 X138.357 Y62.558 E0.01750
G1 X137.998 Y62.902 E0.01561
G1 X137.737 Y62.630 F10800.000
;TYPE:External perimeter
G1 F1200.000
G1 X137.307 Y62.926 E0.01635
G1 X136.857 Y63.129 E0.01548
G1 X136.379 Y63.254 E0.01548
G1 X135.887 Y63.296 E0.01548
G1 X135.422 Y63.256 E0.01465
G1 X134.918 Y63.130 E0.01627
G1 X134.468 Y62.926 E0.01551
G1 X134.058 Y62.649 E0.01548
G1 X133.702 Y62.308 E0.01548
G1 X133.408 Y61.911 E0.01548
G1 X133.186 Y61.470 E0.01548
G1 X133.041 Y60.997 E0.01548
G1 X132.979 Y60.508 E0.01548
G1 X133.000 Y60.014 E0.01548
G1 X133.104 Y59.531 E0.01548
G1 X133.288 Y59.073 E0.01548
G1 X133.547 Y58.653 E0.01548
G1 X133.855 Y58.302 E0.01466
G1 X134.256 Y57.972 E0.01627
G1 X134.688 Y57.731 E0.01551
G1 X135.154 Y57.566 E0.01548
G1 X135.641 Y57.483 E0.01548
G1 X136.134 Y57.483 E0.01548
G1 X136.621 Y57.566 E0.01548
G1 X137.087 Y57.731 E0.01548
G1 X137.518 Y57.972 E0.01548
G1 X137.902 Y58.282 E0.01548
G1 X138.228 Y58.653 E0.01548
G1 X138.487 Y59.073 E0.01548
G1 X138.671 Y59.531 E0.01548
G1 X138.775 Y60.014 E0.01548
G1 X138.796 Y60.508 E0.01548
G1 X138.734 Y60.997 E0.01548
G1 X138.589 Y61.470 E0.01548
G1 X138.367 Y61.911 E0.01548
G1 X138.073 Y62.308 E0.01548
G1 X137.780 Y62.588 E0.01273
G1 X137.801 Y63.025 F10800.000
;WIPE_START
G1 F8640.000
G1 X137.307 Y62.926 E-0.13408
G1 X136.857 Y63.129 E-0.11403
G1 X136.379 Y63.254 E-0.11403
G1 X135.887 Y63.296 E-0.11402
G1 X135.422 Y63.256 E-0.10792
G1 X134.918 Y63.130 E-0.11982
G1 X134.697 Y63.030 E-0.05610
;WIPE_END
G1 E-0.04000 F2100.000
G1 Z0.600 F10800.000
G1 X141.260 Y57.760
G1 Z0.200
G1 E0.80000 F2100.000
;TYPE:Perimeter
G1 F1200.000
G1 X140.913 Y57.526 E0.01314
G1 X140.611 Y57.236 E0.01310
G1 X140.362 Y56.900 E0.01310
G1 X140.174 Y56.527 E0.01310
G1 X140.052 Y56.127 E0.01310
G1 X140.000 Y55.720 E0.01287
G1 X140.016 Y55.296 E0.01330
G1 X140.105 Y54.887 E0.01314
G1 X140.260 Y54.499 E0.01310
G1 X140.479 Y54.143 E0.01310
G1 X140.756 Y53.829 E0.01310
G1 X141.081 Y53.567 E0.01310
G1 X141.439 Y53.366 E0.01287
G1 X141.839 Y53.224 E0.01330
G1 X142.252 Y53.153 E0.01314
G1 X142.670 Y53.153 E0.01310
G1 X143.082 Y53.224 E0.01310
G1 X143.476 Y53.363 E0.01310
G1 X143.841 Y53.567 E0.01310
G1 X144.166 Y53.829 E0.01310
G1 X144.442 Y54.143 E0.01310
G1 X144.661 Y54.499 E0.01310
G1 X144.817 Y54.887 E0.01310
G1 X144.905 Y55.295 E0.01310
G1 X144.923 Y55.713 E0.01310
G1 X144.870 Y56.127 E0.01310
G1 X144.747 Y56.527 E0.01310
G1 X144.559 Y56.900 E0.01310
G1 X144.311 Y57.236 E0.01310
G1 X144.009 Y57.526 E0.01310
G1 X143.662 Y57.760 E0.01310
G1 X143.282 Y57.932 E0.01310
G1 X142.877 Y58.037 E0.01310
G1 X142.461 Y58.072 E0.01310
G1 X142.044 Y58.037 E0.01310
G1 X141.647 Y57.934 E0.01287
G1 X141.314 Y57.785 E0.01142
G1 X141.469 Y57.441 F10800.000
;TYPE:External perimeter
G1 F1200.000
G1 X141.150 Y57.231 E0.01195
G1 X140.895 Y56.986 E0.01109
G1 X140.685 Y56.702 E0.01109
G1 X140.525 Y56.386 E0.01109
G1 X140.422 Y56.048 E0.01109
G1 X140.378 Y55.703 E0.01088
G1 X140.392 Y55.344 E0.01129
G1 X140.466 Y54.998 E0.01110
G1 X140.598 Y54.669 E0.01109
G1 X140.784 Y54.368 E0.01109
G1 X141.017 Y54.102 E0.01109
G1 X141.293 Y53.880 E0.01109
G1 X141.596 Y53.711 E0.01088
G1 X141.935 Y53.590 E0.01129
G1 X142.284 Y53.530 E0.01110
G1 X142.638 Y53.530 E0.01109
G1 X142.986 Y53.590 E0.01109
G1 X143.320 Y53.708 E0.01109
G1 X143.629 Y53.880 E0.01109
G1 X143.904 Y54.102 E0.01109
G1 X144.138 Y54.368 E0.01109
G1 X144.323 Y54.669 E0.01109
G1 X144.455 Y54.998 E0.01109
G1 X144.530 Y55.343 E0.01109
G1 X144.545 Y55.697 E0.01109
G1 X144.500 Y56.048 E0.01109
G1 X144.396 Y56.386 E0.01109
G1 X144.237 Y56.702 E0.01109
G1 X144.026 Y56.986 E0.01109
G1 X143.771 Y57.231 E0.01109
G1 X143.478 Y57.429 E0.01109
G1 X143.156 Y57.575 E0.01109
G1 X142.813 Y57.664 E0.01109
G1 X142.461 Y57.694 E0.01109
G1 X142.108 Y57.664 E0.01109
G1 X141.772 Y57.577 E0.01088
G1 X141.523 Y57.465 E0.00855
G1 X141.143 Y57.639 F10800.000
;WIPE_START
G1 F8640.000
G1 X141.150 Y57.231 E-0.10168
G1 X140.895 Y56.986 E-0.08169
G1 X140.685 Y56.702 E-0.08169
G1 X140.525 Y56.386 E-0.08169
G1 X140.422 Y56.048 E-0.08169
G1 X140.378 Y55.703 E-0.08014
G1 X140.392 Y55.344 E-0.08313
G1 X140.466 Y54.998 E-0.08177
G1 X140.598 Y54.669 E-0.08169
G1 X140.609 Y54.651 E-0.00485
;WIPE_END
G1 E-0.04000 F2100.000
G1 Z0.600 F10800.000
G1 X147.600 Y56.578
G1 Z0.200
G1 E0.80000 F2100.000
;TYPE:Perimeter
G1 F1200.000
G1 X147.600 Y64.190 E0.23865
G1 X143.126 Y70.348 E0.23865
G1 X135.887 Y72.700 E0.23865
G1 X128.648 Y70.348 E0.23865
G1 X124.175 Y64.190 E0.23865
G1 X124.175 Y56.578 E0.23865
G1 X128.648 Y50.420 E0.23865
G1 X135.887 Y48.068 E0.23865
G1 X143.126 Y50.420 E0.23865
G1 X147.565 Y56.530 E0.23677
G1 X147.977 Y56.456 F10800.000
;TYPE:External perimeter
G1 F1200.000
G1 X147.977 Y64.312 E0.24634
G1 X143.359 Y70.668 E0.24634
G1 X135.887 Y73.096 E0.24634
G1 X128.415 Y70.668 E0.24634
G1 X123.797 Y64.312 E0.24634
G1 X123.797 Y56.456 E0.24634
G1 X128.415 Y50.100 E0.24634
G1 X135.887 Y47.672 E0.24634
G1 X143.359 Y50.100 E0.24634
G1 X147.942 Y56.407 E0.24446
G1 X147.710 Y56.753 F10800.000
;WIPE_START
G1 F8640.000
G1 X147.957 Y59.699 E-0.76000
;WIPE_END
G1 E-0.04000 F2100.000
G1 Z0.600 F10800.000
G1 X141.894 Y50.139
G1 Z0.200
G1 E0.80000 F2100.000
;TYPE:Solid infill
;WIDTH:0.425973
G1 F1200.000
G1 X144.375 Y52.620 E0.11177
G1 X145.814 Y54.601 E0.07799
G1 X141.356 Y50.142 E0.20084
G1 X140.553 Y49.882 E0.02687
G1 X147.254 Y56.582 E0.30182
G1 X147.318 Y56.670 E0.00347
G1 X147.318 Y57.188 E0.01649
G1 X145.131 Y55.001 E0.09850
G1 X145.186 Y55.259 E0.00841
G1 X145.202 Y55.613 E0.01129
G1 X147.318 Y57.730 E0.09532
G1 X147.318 Y58.271 E0.01725
G1 X145.157 Y56.111 E0.09733
G1 X145.040 Y56.536 E0.01404
G1 X147.318 Y58.813 E0.10258
G1 X147.318 Y59.355 E0.01725
G1 X144.872 Y56.909 E0.11018
G1 X144.801 Y57.049 E0.00501
G1 X144.660 Y57.239 E0.00753
G1 X147.318 Y59.896 E0.11970
G1 X147.318 Y60.438 E0.01725
G1 X144.411 Y57.532 E0.13092
G1 X144.126 Y57.788 E0.01222
G1 X147.318 Y60.980 E0.14378
G1 X147.318 Y61.522 E0.01725
G1 X143.802 Y58.006 E0.15834
G1 X143.430 Y58.175 E0.01304
G1 X147.318 Y62.063 E0.17513
G1 X147.318 Y62.605 E0.01725
G1 X143.008 Y58.295 E0.19413
G1 X142.522 Y58.351 E0.01558
G1 X147.318 Y63.147 E0.21601
G1 X147.318 Y63.688 E0.01725
G1 X141.691 Y58.062 E0.25344
;WIPE_START
G1 F8640.000
G1 X144.018 Y60.389 E-0.76000
;WIPE_END
G1 E-0.04000 F2100.000
G1 Z0.600 F10800.000
G1 X143.316 Y53.187
G1 Z0.200
G1 E0.80000 F2100.000
G1 F1200.000
G1 X139.751 Y49.621 E0.16061
G1 X138.948 Y49.360 E0.02687
G1 X142.458 Y52.870 E0.15810
G1 X142.228 Y52.870 E0.00734
G1 X141.962 Y52.916 E0.00858
G1 X138.146 Y49.099 E0.17190
G1 X137.343 Y48.839 E0.02687
G1 X141.536 Y53.032 E0.18886
G1 X141.322 Y53.108 E0.00724
G1 X141.161 Y53.198 E0.00588
G1 X136.541 Y48.578 E0.20810
G1 X135.887 Y48.366 E0.02188
G1 X135.812 Y48.390 E0.00254
G1 X140.828 Y53.407 E0.22597
G1 X140.533 Y53.654 E0.01225
G1 X135.403 Y48.523 E0.23110
G1 X134.994 Y48.656 E0.01369
G1 X140.280 Y53.942 E0.23810
G1 X140.068 Y54.272 E0.01249
G1 X134.585 Y48.789 E0.24698
G1 X134.176 Y48.922 E0.01369
G1 X139.898 Y54.643 E0.25772
G1 X139.833 Y54.804 E0.00550
G1 X139.777 Y55.064 E0.00850
G1 X133.767 Y49.055 E0.27070
G1 X133.358 Y49.187 E0.01369
G1 X139.723 Y55.552 E0.28670
G1 X139.716 Y55.733 E0.00575
G1 X139.768 Y56.139 E0.01305
G1 X132.949 Y49.320 E0.30714
G1 X132.541 Y49.453 E0.01369
G1 X147.262 Y64.175 E0.66311
G1 X147.034 Y64.488 E0.01235
G1 X132.132 Y49.586 E0.67126
G1 X131.723 Y49.719 E0.01369
G1 X146.806 Y64.802 E0.67941
G1 X146.578 Y65.116 E0.01235
G1 X131.314 Y49.852 E0.68756
M73 P1 R150
G1 X130.905 Y49.985 E0.01369
G1 X146.350 Y65.430 E0.69571
G1 X146.122 Y65.743 E0.01235
G1 X130.496 Y50.117 E0.70385
G1 X130.087 Y50.250 E0.01369
G1 X136.757 Y56.920 E0.30045
G1 X136.119 Y56.823 E0.02059
G1 X129.678 Y50.383 E0.29009
G1 X129.270 Y50.516 E0.01369
G1 X135.578 Y56.824 E0.28415
G1 X135.116 Y56.904 E0.01494
G1 X128.861 Y50.649 E0.28174
G1 X128.823 Y50.661 E0.00126
G1 X128.616 Y50.946 E0.01122
G1 X134.698 Y57.028 E0.27395
G1 X134.415 Y57.128 E0.00954
G1 X134.313 Y57.185 E0.00373
G1 X128.388 Y51.260 E0.26688
G1 X128.160 Y51.573 E0.01235
G1 X133.966 Y57.379 E0.26150
G1 X133.883 Y57.425 E0.00302
G1 X133.656 Y57.611 E0.00934
G1 X127.932 Y51.887 E0.25783
G1 X127.704 Y52.201 E0.01235
G1 X133.364 Y57.861 E0.25495
G1 X133.111 Y58.149 E0.01223
G1 X127.476 Y52.515 E0.25380
G1 X127.248 Y52.829 E0.01235
G1 X132.886 Y58.466 E0.25396
G1 X132.684 Y58.806 E0.01258
G1 X127.020 Y53.142 E0.25511
G1 X126.793 Y53.456 E0.01235
G1 X132.529 Y59.192 E0.25838
G1 X132.470 Y59.338 E0.00499
G1 X132.410 Y59.616 E0.00906
G1 X126.565 Y53.770 E0.26332
G1 X126.337 Y54.084 E0.01235
G1 X132.336 Y60.083 E0.27024
G1 X132.327 Y60.616 E0.01697
G1 X126.109 Y54.397 E0.28011
G1 X125.881 Y54.711 E0.01235
G1 X132.688 Y61.519 E0.30664
;WIPE_START
M73 Q1 S151
G1 F8640.000
G1 X130.361 Y59.191 E-0.76000
;WIPE_END
G1 E-0.04000 F2100.000
G1 Z0.600 F10800.000
G1 X139.086 Y59.249
G1 Z0.200
G1 E0.80000 F2100.000
G1 F1200.000
G1 X145.894 Y66.057 E0.30666
G1 X145.666 Y66.371 E0.01235
G1 X139.441 Y60.146 E0.28039
G1 X139.458 Y60.536 E0.01242
G1 X139.439 Y60.685 E0.00480
G1 X145.438 Y66.685 E0.27024
G1 X145.210 Y66.998 E0.01235
G1 X139.373 Y61.162 E0.26291
G1 X139.246 Y61.576 E0.01381
G1 X144.982 Y67.312 E0.25837
G1 X144.754 Y67.626 E0.01235
G1 X139.083 Y61.955 E0.25545
G1 X138.894 Y62.307 E0.01274
G1 X144.526 Y67.940 E0.25371
G1 X144.298 Y68.253 E0.01235
G1 X138.664 Y62.619 E0.25381
G1 X138.570 Y62.745 E0.00501
G1 X138.406 Y62.903 E0.00725
G1 X144.070 Y68.567 E0.25516
G1 X143.843 Y68.881 E0.01235
G1 X138.129 Y63.167 E0.25737
G1 X137.805 Y63.386 E0.01243
G1 X143.615 Y69.195 E0.26166
G1 X143.387 Y69.508 E0.01235
G1 X137.459 Y63.581 E0.26698
G1 X137.086 Y63.750 E0.01304
G1 X143.159 Y69.822 E0.27352
G1 X142.952 Y70.107 E0.01122
G1 X142.914 Y70.119 E0.00126
G1 X136.658 Y63.863 E0.28181
G1 X136.491 Y63.906 E0.00548
G1 X136.185 Y63.932 E0.00978
