; generated by PrusaSlicer 2.3.3+win64 on 2022-01-26 at 10:42:42 UTC

; 

; external perimeters extrusion width = 0.45mm
; perimeters extrusion width = 0.45mm
; infill extrusion width = 0.45mm
; solid infill extrusion width = 0.45mm
; top infill extrusion width = 0.40mm
; first layer extrusion width = 0.42mm

; external perimeters extrusion width = 0.45mm
; perimeters extrusion width = 0.45mm
; infill extrusion width = 0.45mm
; solid infill extrusion width = 0.45mm
; top infill extrusion width = 0.40mm
; first layer extrusion width = 0.42mm

; external perimeters extrusion width = 0.45mm
; perimeters extrusion width = 0.45mm
; infill extrusion width = 0.45mm
; solid infill extrusion width = 0.45mm
; top infill extrusion width = 0.40mm
; first layer extrusion width = 0.42mm

M73 P0 R266
M73 Q0 S267
M201 X1000 Y1000 Z200 E8000 ; sets maximum accelerations, mm/sec^2
M203 X200 Y200 Z12 E120 ; sets maximum feedrates, mm/sec
M204 P1250 R1250 T1250 ; sets acceleration (P, T) and retract acceleration (R), mm/sec^2
M205 X8.00 Y8.00 Z0.40 E4.50 ; sets the jerk limits, mm/sec
M205 S0 T0 ; sets the minimum extruding and travel feed rate, mm/sec
M107
;TYPE:Custom
M862.3 P "MK3SMMU2S" ; printer model check
M862.1 P0.4 ; nozzle diameter check
M115 U3.10.0 ; tell printer latest fw version
G90 ; use absolute coordinates
M83 ; extruder relative mode
M104 S215 ; set extruder temp
M140 S60 ; set bed temp
M190 S60 ; wait for bed temp
M109 S215 ; wait for extruder temp
G28 W ; home all without mesh bed level
G80 ; mesh bed leveling

; Send the filament type to the MMU2.0 unit.
; E stands for extruder number, F stands for filament type (0: default; 1:flex; 2: PVA)
M403 E0 F0
M403 E1 F0
M403 E2 F0
M403 E3 F0
M403 E4 F0


;go outside print area
G1 Y-3.0 F1000.0
G1 Z0.4 F1000.0
; select extruder
T1
; initial load
G1 X55.0 E29.0 F1073.0
G1 X5.0 E29.0 F1800.0
G1 X55.0 E8.0 F2000.0
G1 Z0.3 F1000.0
G92 E0.0
G1 X240.0 E25.0 F2200.0
M73 P0 R265
G1 Y-2.0 F1000.0
G1 X55.0 E25 F1400.0
G1 Z0.20 F1000.0
G1 X5.0 E4.0 F1000.0
G92 E0.0


M221 S95
G92 E0.0

; Don't change E values below. Excessive value can damage the printer.
M907 E430 ; set extruder motor current
G21 ; set units to millimeters
G90 ; use absolute coordinates
M83 ; use relative distances for extrusion
T1
M900 K0.05 ; Filament gcode LA 1.5
M900 K30 ; Filament gcode LA 1.0
G1 Z0.200 F10800.000
;LAYER_CHANGE
;Z:0.2
;HEIGHT:0.2
;BEFORE_LAYER_CHANGE
G92 E0.0
;0.2


G1 E-0.80000 F2100.000
G1 Z0.600 F10800.000
G1 Z0.200
;AFTER_LAYER_CHANGE
;0.2
G1 E-1.20000 F2100.000
G1 Z0.600 F10800.000
G1 X221.203 Y12.540
G1 Z0.200
G1 E2.00000 F2100.000
;HEIGHT:0.200000
;TYPE:Wipe tower
;WIDTH:0.500000
;-------------------------------------
; CP WIPE TOWER FIRST LAYER BRIM START
G1  X221.203 Y190.660  E10.1545 F2400
G1  X218.660 Y191.117   F7000
G1  Y12.083  E7.4849 F2100
G1  X157.746  E2.5466
G1  Y191.117  E7.4849
G1  X218.660  E2.5466
G1  X219.117 Y191.574   F7000
M73 Q0 S266
G1  Y11.626  E7.5231 F2100
G1  X157.289  E2.5849
G1  Y191.574  E7.5231
G1  X219.117  E2.5849
G1  X219.574 Y192.031   F7000
G1  Y11.169  E7.5613 F2100
G1  X156.832  E2.6231
G1  Y192.031  E7.5613
G1  X219.574  E2.6231
M73 P0 R264
G1  X220.031 Y192.488   F7000
G1  Y10.712  E7.5995 F2100
G1  X156.375  E2.6613
G1  Y192.488  E7.5995
G1  X220.031  E2.6613
; CP WIPE TOWER FIRST LAYER BRIM END
;-----------------------------------

;WIPE_START
G1 F8640.000
G1 X219.574 Y192.031 E-0.14925
G1 X216.929 Y192.031 E-0.61075
;WIPE_END
G1 E-0.04000 F2100.000
G1 Z0.600 F10800.000
G1 X222.050 Y193.034
G1 Z0.200
G1 E0.80000 F2100.000
M204 S1000
;TYPE:Skirt
;WIDTH:0.42
;HEIGHT:0.2
G1 F1200.000
G1 X221.715 Y193.672 E0.02260
G1 X221.204 Y194.180 E0.02260
G1 X220.563 Y194.512 E0.02260
G1 X219.857 Y194.636 E0.02249
G1 X156.599 Y194.637 E1.98340
G1 X155.829 Y194.507 E0.02449
G1 X155.040 Y194.050 E0.02860
G1 X154.480 Y193.329 E0.02860
G1 X112.715 Y108.903 E2.95333
G1 X112.623 Y108.295 E0.01929
G1 X112.127 Y78.529 E0.93341
G1 X112.083 Y42.836 E1.11914
G1 X112.213 Y42.066 E0.02449
G1 X112.537 Y41.442 E0.02203
G1 X116.377 Y36.158 E0.20483
G1 X116.837 Y35.694 E0.02048
G1 X155.249 Y8.986 E1.46690
G1 X155.897 Y8.670 E0.02260
G1 X156.599 Y8.563 E0.02225
G1 X219.806 Y8.563 E1.98183
M73 Q0 S265
G1 X220.709 Y8.743 E0.02884
G1 X221.475 Y9.251 E0.02884
G1 X221.991 Y10.012 E0.02884
G1 X222.180 Y10.913 E0.02884
G1 X222.180 Y192.260 E5.68602
G1 X222.060 Y192.975 E0.02273
; printing object body1957693 id:0 copy 0
;WIPE_START
G1 F8640.000
G1 X221.715 Y193.672 E-0.17967
G1 X221.204 Y194.180 E-0.16646
G1 X220.563 Y194.512 E-0.16646
G1 X219.857 Y194.636 E-0.16559
G1 X219.503 Y194.636 E-0.08181
;WIPE_END
G1 E-0.04000 F2100.000
G1 Z0.600 F10800.000
G1 X131.826 Y102.561
G1 Z0.200
G1 E0.80000 F2100.000
;TYPE:Perimeter
G1 F1200.000
G1 X131.558 Y102.816 E0.01161
G1 X131.255 Y103.016 E0.01137
G1 X130.921 Y103.160 E0.01143
G1 X130.595 Y103.241 E0.01051
G1 X130.269 Y103.268 E0.01028
G1 X129.907 Y103.239 E0.01139
G1 X129.561 Y103.149 E0.01119
G1 X129.225 Y102.995 E0.01160
G1 X128.919 Y102.784 E0.01166
G1 X128.571 Y102.415 E0.01591
G1 X128.329 Y101.982 E0.01553
G1 X128.217 Y101.621 E0.01185
G1 X128.171 Y101.267 E0.01120
G1 X128.188 Y100.897 E0.01162
G1 X128.269 Y100.541 E0.01143
G1 X128.405 Y100.216 E0.01105
G1 X128.580 Y99.936 E0.01034
G1 X128.801 Y99.684 E0.01052
G1 X129.087 Y99.450 E0.01159
G1 X129.398 Y99.276 E0.01118
G1 X129.733 Y99.157 E0.01115
G1 X130.098 Y99.096 E0.01160
G1 X130.456 Y99.100 E0.01122
G1 X130.786 Y99.158 E0.01051
G1 X131.112 Y99.273 E0.01082
G1 X131.428 Y99.448 E0.01132
G1 X131.704 Y99.671 E0.01114
G1 X131.939 Y99.938 E0.01115
G1 X132.132 Y100.254 E0.01159
G1 X132.262 Y100.586 E0.01119
G1 X132.334 Y100.940 E0.01135
G1 X132.345 Y101.287 E0.01088
G1 X132.300 Y101.622 E0.01059
G1 X132.200 Y101.948 E0.01070
G1 X132.039 Y102.273 E0.01139
G1 X131.862 Y102.512 E0.00932
G1 X131.559 Y102.288 F10800.000
;TYPE:External perimeter
G1 F1200.000
G1 X131.322 Y102.519 E0.01037
G1 X131.075 Y102.683 E0.00928
G1 X130.800 Y102.802 E0.00942
G1 X130.534 Y102.868 E0.00859
G1 X130.268 Y102.890 E0.00835
G1 X129.970 Y102.866 E0.00939
G1 X129.688 Y102.792 E0.00913
G1 X129.412 Y102.666 E0.00953
G1 X129.166 Y102.496 E0.00937
G1 X128.877 Y102.190 E0.01319
G1 X128.678 Y101.832 E0.01285
G1 X128.586 Y101.540 E0.00959
G1 X128.549 Y101.252 E0.00913
G1 X128.564 Y100.948 E0.00953
G1 X128.630 Y100.657 E0.00937
G1 X128.741 Y100.390 E0.00907
G1 X128.883 Y100.162 E0.00842
G1 X129.064 Y99.956 E0.00858
G1 X129.300 Y99.762 E0.00957
G1 X129.554 Y99.621 E0.00912
G1 X129.828 Y99.524 E0.00911
G1 X130.128 Y99.474 E0.00953
G1 X130.421 Y99.477 E0.00921
G1 X130.690 Y99.524 E0.00856
G1 X130.957 Y99.618 E0.00886
G1 X131.216 Y99.762 E0.00931
G1 X131.442 Y99.944 E0.00911
G1 X131.634 Y100.162 E0.00911
G1 X131.793 Y100.422 E0.00952
G1 X131.899 Y100.693 E0.00913
G1 X131.958 Y100.984 E0.00932
G1 X131.967 Y101.268 E0.00892
G1 X131.931 Y101.542 E0.00864
G1 X131.849 Y101.808 E0.00874
G1 X131.716 Y102.076 E0.00938
G1 X131.594 Y102.240 E0.00640
G1 X131.667 Y102.601 F10800.000
;WIPE_START
G1 F8640.000
G1 X131.322 Y102.519 E-0.09007
G1 X131.075 Y102.683 E-0.06832
G1 X130.800 Y102.802 E-0.06936
G1 X130.534 Y102.868 E-0.06324
G1 X130.268 Y102.890 E-0.06152
G1 X129.970 Y102.866 E-0.06913
G1 X129.688 Y102.792 E-0.06721
G1 X129.412 Y102.666 E-0.07017
G1 X129.166 Y102.496 E-0.06899
G1 X128.877 Y102.190 E-0.09715
G1 X128.804 Y102.058 E-0.03484
;WIPE_END
G1 E-0.04000 F2100.000
G1 Z0.600 F10800.000
G1 X127.829 Y103.574
G1 Z0.200
G1 E0.80000 F2100.000
;TYPE:Perimeter
G1 F1200.000
G1 X128.029 Y104.072 E0.01685
G1 X128.143 Y104.598 E0.01685
G1 X128.166 Y105.134 E0.01685
G1 X128.097 Y105.668 E0.01685
G1 X127.940 Y106.181 E0.01685
G1 X127.698 Y106.661 E0.01685
G1 X127.378 Y107.093 E0.01685
G1 X126.990 Y107.465 E0.01685
G1 X126.545 Y107.766 E0.01685
G1 X126.056 Y107.987 E0.01685
G1 X125.535 Y108.123 E0.01685
G1 X125.000 Y108.168 E0.01685
G1 X124.465 Y108.123 E0.01685
G1 X123.944 Y107.987 E0.01685
G1 X123.455 Y107.766 E0.01685
G1 X123.010 Y107.465 E0.01685
G1 X122.622 Y107.093 E0.01685
G1 X122.302 Y106.661 E0.01685
G1 X122.075 Y106.210 E0.01584
G1 X121.903 Y105.673 E0.01768
G1 X121.834 Y105.134 E0.01702
G1 X121.857 Y104.598 E0.01685
G1 X121.971 Y104.072 E0.01685
G1 X122.171 Y103.574 E0.01685
G1 X122.436 Y103.143 E0.01584
G1 X122.803 Y102.716 E0.01768
G1 X123.226 Y102.375 E0.01702
G1 X123.695 Y102.113 E0.01685
G1 X124.202 Y101.934 E0.01685
G1 X124.733 Y101.843 E0.01689
G1 X125.267 Y101.843 E0.01677
G1 X125.798 Y101.934 E0.01689
G1 X126.305 Y102.113 E0.01685
G1 X126.774 Y102.375 E0.01685
G1 X127.192 Y102.713 E0.01685
G1 X127.547 Y103.116 E0.01685
G1 X127.798 Y103.523 E0.01497
G1 X127.477 Y103.720 F10800.000
G1 F1200.000
G1 X127.668 Y104.183 E0.01570
G1 X127.767 Y104.646 E0.01484
G1 X127.787 Y105.118 E0.01484
G1 X127.727 Y105.588 E0.01484
G1 X127.589 Y106.040 E0.01484
G1 X127.376 Y106.463 E0.01484
G1 X127.094 Y106.843 E0.01484
G1 X126.753 Y107.171 E0.01484
G1 X126.361 Y107.436 E0.01484
G1 X125.929 Y107.631 E0.01484
G1 X125.472 Y107.750 E0.01484
G1 X125.000 Y107.790 E0.01484
G1 X124.528 Y107.750 E0.01484
G1 X124.071 Y107.631 E0.01484
G1 X123.639 Y107.436 E0.01484
G1 X123.247 Y107.171 E0.01484
G1 X122.906 Y106.843 E0.01484
G1 X122.624 Y106.463 E0.01484
G1 X122.425 Y106.067 E0.01390
G1 X122.273 Y105.591 E0.01566
G1 X122.213 Y105.118 E0.01494
G1 X122.233 Y104.646 E0.01484
G1 X122.332 Y104.183 E0.01484
G1 X122.509 Y103.744 E0.01484
G1 X122.741 Y103.367 E0.01390
G1 X123.067 Y102.988 E0.01566
G1 X123.438 Y102.689 E0.01494
G1 X123.851 Y102.458 E0.01484
G1 X124.297 Y102.300 E0.01484
G1 X124.765 Y102.220 E0.01487
G1 X125.235 Y102.220 E0.01476
G1 X125.703 Y102.300 E0.01488
G1 X126.149 Y102.458 E0.01484
G1 X126.562 Y102.689 E0.01484
G1 X126.930 Y102.986 E0.01484
G1 X127.243 Y103.341 E0.01484
G1 X127.445 Y103.669 E0.01208
G1 X127.124 Y103.867 F10800.000
;TYPE:External perimeter
G1 F1200.000
G1 X127.306 Y104.294 E0.01455
G1 X127.392 Y104.694 E0.01282
G1 X127.409 Y105.102 E0.01282
G1 X127.357 Y105.508 E0.01282
G1 X127.238 Y105.899 E0.01282
G1 X127.053 Y106.264 E0.01282
G1 X126.810 Y106.593 E0.01282
G1 X126.515 Y106.876 E0.01282
G1 X126.176 Y107.105 E0.01282
G1 X125.803 Y107.274 E0.01282
G1 X125.408 Y107.377 E0.01282
G1 X125.000 Y107.411 E0.01282
G1 X124.592 Y107.377 E0.01282
G1 X124.197 Y107.274 E0.01282
G1 X123.824 Y107.105 E0.01282
G1 X123.485 Y106.876 E0.01282
G1 X123.190 Y106.593 E0.01282
G1 X122.947 Y106.264 E0.01282
G1 X122.775 Y105.924 E0.01195
G1 X122.643 Y105.509 E0.01365
G1 X122.591 Y105.102 E0.01286
G1 X122.608 Y104.694 E0.01282
G1 X122.694 Y104.294 E0.01282
G1 X122.847 Y103.914 E0.01282
G1 X123.047 Y103.590 E0.01195
G1 X123.330 Y103.260 E0.01365
G1 X123.650 Y103.002 E0.01286
G1 X124.007 Y102.803 E0.01282
G1 X124.392 Y102.666 E0.01282
G1 X124.797 Y102.597 E0.01286
G1 X125.203 Y102.597 E0.01275
G1 X125.608 Y102.666 E0.01286
G1 X125.993 Y102.803 E0.01282
G1 X126.350 Y103.002 E0.01282
G1 X126.669 Y103.259 E0.01282
G1 X126.939 Y103.566 E0.01282
G1 X127.093 Y103.816 E0.00919
G1 X127.524 Y103.883 F10800.000
;WIPE_START
G1 F8640.000
G1 X127.306 Y104.294 E-0.12088
G1 X127.392 Y104.694 E-0.09444
G1 X127.409 Y105.102 E-0.09444
G1 X127.357 Y105.508 E-0.09444
G1 X127.238 Y105.899 E-0.09444
G1 X127.053 Y106.264 E-0.09444
G1 X126.810 Y106.593 E-0.09444
G1 X126.584 Y106.810 E-0.07246
;WIPE_END
G1 E-0.04000 F2100.000
G1 Z0.600 F10800.000
G1 X132.625 Y100.479
G1 Z0.200
G1 E0.80000 F2100.000
;TYPE:Perimeter
G1 F1200.000
G1 X132.611 Y100.443 E0.00120
G1 X133.836 Y102.129 E0.06534
G1 X133.836 Y107.871 E0.18003
G1 X130.461 Y112.516 E0.18003
G1 X125.000 Y114.291 E0.18003
G1 X119.539 Y112.516 E0.18003
G1 X116.164 Y107.871 E0.18003
G1 X116.164 Y102.129 E0.18003
G1 X119.539 Y97.484 E0.18003
G1 X125.000 Y95.709 E0.18003
G1 X130.461 Y97.484 E0.18003
G1 X131.689 Y99.174 E0.06551
G1 X131.267 Y98.928 E0.01532
G1 X130.882 Y98.792 E0.01278
G1 X130.491 Y98.723 E0.01246
G1 X130.069 Y98.719 E0.01324
G1 X129.639 Y98.791 E0.01367
G1 X129.242 Y98.931 E0.01319
G1 X128.874 Y99.137 E0.01324
G1 X128.538 Y99.412 E0.01361
G1 X128.276 Y99.711 E0.01245
G1 X128.069 Y100.042 E0.01226
G1 X127.909 Y100.426 E0.01303
G1 X127.813 Y100.846 E0.01350
G1 X127.793 Y101.282 E0.01370
G1 X127.847 Y101.702 E0.01328
G1 X127.981 Y102.132 E0.01412
G1 X128.265 Y102.639 E0.01822
G1 X128.672 Y103.072 E0.01862
G1 X129.038 Y103.324 E0.01395
G1 X129.435 Y103.506 E0.01367
G1 X129.844 Y103.612 E0.01325
G1 X130.269 Y103.646 E0.01339
G1 X130.657 Y103.614 E0.01220
G1 X131.042 Y103.518 E0.01243
G1 X131.436 Y103.349 E0.01345
G1 X131.794 Y103.112 E0.01346
G1 X132.110 Y102.811 E0.01368
G1 X132.361 Y102.471 E0.01326
G1 X132.552 Y102.089 E0.01340
G1 X132.670 Y101.703 E0.01265
G1 X132.723 Y101.306 E0.01254
G1 X132.709 Y100.897 E0.01285
G1 X132.637 Y100.537 E0.01149
;WIPE_START
G1 F8640.000
G1 X132.611 Y100.443 E-0.02260
G1 X133.836 Y102.129 E-0.48121
G1 X133.836 Y103.239 E-0.25619
;WIPE_END
G1 E-0.04000 F2100.000
G1 Z0.600 F10800.000
G1 X134.213 Y102.007
G1 Z0.200
G1 E0.80000 F2100.000
G1 F1200.000
G1 X134.213 Y107.993 E0.18772
G1 X130.694 Y112.837 E0.18772
G1 X125.000 Y114.687 E0.18772
G1 X119.306 Y112.837 E0.18772
G1 X115.787 Y107.993 E0.18772
G1 X115.787 Y102.007 E0.18772
G1 X119.306 Y97.163 E0.18772
G1 X125.000 Y95.313 E0.18772
G1 X130.694 Y97.163 E0.18772
G1 X134.178 Y101.958 E0.18583
G1 X134.590 Y101.884 F10800.000
;TYPE:External perimeter
G1 F1200.000
G1 X134.590 Y108.116 E0.19540
G1 X130.927 Y113.158 E0.19540
G1 X125.000 Y115.084 E0.19540
G1 X119.073 Y113.158 E0.19540
G1 X115.410 Y108.116 E0.19540
G1 X115.410 Y101.884 E0.19540
G1 X119.073 Y96.842 E0.19540
G1 X125.000 Y94.916 E0.19540
G1 X130.927 Y96.842 E0.19540
G1 X134.555 Y101.835 E0.19352
G1 X134.322 Y102.181 F10800.000
;WIPE_START
G1 F8640.000
G1 X134.573 Y105.127 E-0.76000
;WIPE_END
G1 E-0.04000 F2100.000
G1 Z0.600 F10800.000
G1 X132.520 Y100.278
G1 Z0.200
G1 E0.80000 F2100.000
;TYPE:Gap fill
;WIDTH:0.335001
G1 F1200.000
G1 X132.433 Y100.118 E0.00443
;WIDTH:0.325799
G1 X132.197 Y99.762 E0.01005
;WIDTH:0.289344
G1 X131.819 Y99.311 E0.01205
;WIPE_START
G1 F8640.000
G1 X132.197 Y99.762 E-0.13584
;WIPE_END
G1 E-0.66416 F2100.000
G1 Z0.600 F10800.000
G1 X130.677 Y98.641
G1 Z0.200
G1 E0.80000 F2100.000
;TYPE:Solid infill
;WIDTH:0.421181
G1 F1200.000
G1 X129.508 Y97.471 E0.05203
G1 X128.715 Y97.214 E0.02621
G1 X129.953 Y98.452 E0.05505
G1 X129.504 Y98.538 E0.01436
G1 X127.923 Y96.956 E0.07036
G1 X127.130 Y96.699 E0.02621
G1 X129.111 Y98.680 E0.08812
G1 X128.768 Y98.872 E0.01237
G1 X126.338 Y96.442 E0.10810
G1 X125.545 Y96.184 E0.02621
G1 X128.466 Y99.105 E0.12992
M73 P0 R263
G1 X128.340 Y99.208 E0.00512
G1 X128.198 Y99.371 E0.00681
G1 X124.874 Y96.048 E0.14783
G1 X124.470 Y96.179 E0.01335
G1 X127.966 Y99.674 E0.15547
G1 X127.817 Y99.912 E0.00883
G1 X127.773 Y100.017 E0.00356
G1 X124.067 Y96.310 E0.16487
G1 X123.663 Y96.441 E0.01335
G1 X127.624 Y100.403 E0.17620
G1 X127.530 Y100.844 E0.01418
G1 X123.259 Y96.572 E0.18998
G1 X122.855 Y96.704 E0.01335
G1 X127.715 Y101.563 E0.21615
;WIPE_START
G1 F8640.000
G1 X125.387 Y99.236 E-0.76000
;WIPE_END
G1 E-0.04000 F2100.000
G1 Z0.600 F10800.000
G1 X132.833 Y101.332
G1 Z0.200
G1 E0.80000 F2100.000
G1 F1200.000
G1 X133.104 Y101.603 E0.01202
G1 X133.553 Y102.221 E0.02404
G1 X133.553 Y102.587 E0.01151
G1 X132.896 Y101.930 E0.02922
G1 X132.815 Y102.194 E0.00868
G1 X132.752 Y102.321 E0.00447
G1 X133.553 Y103.122 E0.03562
G1 X133.553 Y103.657 E0.01683
G1 X132.566 Y102.670 E0.04390
G1 X132.339 Y102.977 E0.01203
G1 X133.553 Y104.192 E0.05401
G1 X133.553 Y104.727 E0.01683
G1 X132.068 Y103.241 E0.06606
G1 X131.970 Y103.334 E0.00423
G1 X131.763 Y103.471 E0.00783
G1 X133.553 Y105.261 E0.07963
G1 X133.553 Y105.796 E0.01683
G1 X131.420 Y103.663 E0.09488
G1 X131.133 Y103.787 E0.00984
G1 X131.034 Y103.812 E0.00321
G1 X133.553 Y106.331 E0.11207
G1 X133.553 Y106.866 E0.01683
G1 X130.590 Y103.904 E0.13178
G1 X130.269 Y103.930 E0.01013
G1 X130.066 Y103.914 E0.00643
G1 X133.553 Y107.401 E0.15513
G1 X133.553 Y107.779 E0.01188
G1 X133.487 Y107.870 E0.00354
G1 X129.408 Y103.791 E0.18145
G1 X128.898 Y103.571 E0.01746
G1 X128.487 Y103.287 E0.01571
