; generated by PrusaSlicer 2.3.3+win64 on 2022-02-10 at 13:50:32 UTC

; 

; external perimeters extrusion width = 0.45mm
; perimeters extrusion width = 0.45mm
; infill extrusion width = 0.45mm
; solid infill extrusion width = 0.45mm
; top infill extrusion width = 0.40mm
; first layer extrusion width = 0.42mm

; external perimeters extrusion width = 0.45mm
; perimeters extrusion width = 0.45mm
; infill extrusion width = 0.45mm
; solid infill extrusion width = 0.45mm
; top infill extrusion width = 0.40mm
; first layer extrusion width = 0.42mm

M73 P0 R90
M73 Q0 S91
M201 X1000 Y1000 Z200 E8000 ; sets maximum accelerations, mm/sec^2
M203 X200 Y200 Z12 E120 ; sets maximum feedrates, mm/sec
M204 P1250 R1250 T1250 ; sets acceleration (P, T) and retract acceleration (R), mm/sec^2
M205 X8.00 Y8.00 Z0.40 E4.50 ; sets the jerk limits, mm/sec
M205 S0 T0 ; sets the minimum extruding and travel feed rate, mm/sec
M107
;TYPE:Custom
M862.3 P "MK3SMMU2S" ; printer model check
M862.1 P0.4 ; nozzle diameter check
M115 U3.10.0 ; tell printer latest fw version
G90 ; use absolute coordinates
M83 ; extruder relative mode
M104 S215 ; set extruder temp
M140 S60 ; set bed temp
M190 S60 ; wait for bed temp
M109 S215 ; wait for extruder temp
G28 W ; home all without mesh bed level
G80 ; mesh bed leveling

; Send the filament type to the MMU2.0 unit.
; E stands for extruder number, F stands for filament type (0: default; 1:flex; 2: PVA)
M403 E0 F0
M403 E1 F0
M403 E2 F0
M403 E3 F0
M403 E4 F0


;go outside print area
G1 Y-3.0 F1000.0
M73 Q0 S90
G1 Z0.4 F1000.0
; select extruder
T1
; initial load
G1 X55.0 E29.0 F1073.0
G1 X5.0 E29.0 F1800.0
G1 X55.0 E8.0 F2000.0
G1 Z0.3 F1000.0
G92 E0.0
G1 X240.0 E25.0 F2200.0
G1 Y-2.0 F1000.0
G1 X55.0 E25 F1400.0
G1 Z0.20 F1000.0
G1 X5.0 E4.0 F1000.0
G92 E0.0


M221 S95
G92 E0.0

; Don't change E values below. Excessive value can damage the printer.
M907 E430 ; set extruder motor current
G21 ; set units to millimeters
G90 ; use absolute coordinates
M83 ; use relative distances for extrusion
T1
M900 K0.05 ; Filament gcode LA 1.5
M900 K30 ; Filament gcode LA 1.0
G1 Z0.200 F10800.000
;LAYER_CHANGE
;Z:0.2
;HEIGHT:0.2
;BEFORE_LAYER_CHANGE
G92 E0.0
;0.2


G1 E-0.80000 F2100.000
G1 Z0.600 F10800.000
G1 Z0.200
;AFTER_LAYER_CHANGE
;0.2
G1 E-1.20000 F2100.000
G1 Z0.600 F10800.000
G1 X239.135 Y21.653
G1 Z0.200
G1 E2.00000 F2100.000
;HEIGHT:0.200000
;TYPE:Wipe tower
;WIDTH:0.500000
;-------------------------------------
; CP WIPE TOWER FIRST LAYER BRIM START
G1  X239.135 Y114.713  E5.3053 F2400
G1  X236.592 Y115.170   F7000
G1  Y21.196  E3.9288 F2100
G1  X175.678  E2.5466
G1  Y115.170  E3.9288
M73 P0 R89
G1  X236.592  E2.5466
G1  X237.049 Y115.627   F7000
G1  Y20.739  E3.9670 F2100
M73 Q1 S90
G1  X175.221  E2.5849
M73 P1 R89
G1  Y115.627  E3.9670
G1  X237.049  E2.5849
G1  X237.506 Y116.084   F7000
G1  Y20.282  E4.0052 F2100
G1  X174.764  E2.6231
G1  Y116.084  E4.0052
M73 Q1 S89
G1  X237.506  E2.6231
G1  X237.963 Y116.541   F7000
G1  Y19.825  E4.0434 F2100
G1  X174.307  E2.6613
G1  Y116.541  E4.0434
G1  X237.963  E2.6613
; CP WIPE TOWER FIRST LAYER BRIM END
;-----------------------------------

;WIPE_START
G1 F8640.000
G1 X237.506 Y116.084 E-0.14926
G1 X234.861 Y116.084 E-0.61074
;WIPE_END
G1 E-0.04000 F2100.000
G1 Z0.600 F10800.000
G1 X240.015 Y116.985
G1 Z0.200
G1 E0.80000 F2100.000
M204 S1000
;TYPE:Skirt
;WIDTH:0.42
;HEIGHT:0.2
G1 F1200.000
G1 X239.736 Y117.597 E0.02107
G1 X239.361 Y118.046 E0.01835
G1 X238.885 Y118.393 E0.01846
G1 X238.342 Y118.611 E0.01835
G1 X237.759 Y118.690 E0.01846
G1 X174.520 Y118.690 E1.98281
G1 X173.859 Y118.592 E0.02095
G1 X173.252 Y118.314 E0.02095
G1 X172.844 Y117.983 E0.01645
G1 X172.519 Y117.572 E0.01645
G1 X127.913 Y45.589 E2.65516
G1 X127.712 Y45.076 E0.01728
G1 X127.635 Y44.534 E0.01716
G1 X127.635 Y34.706 E0.30817
G1 X127.733 Y34.048 E0.02083
G1 X128.011 Y33.441 E0.02095
G1 X133.834 Y25.420 E0.31078
G1 X134.353 Y24.909 E0.02284
G1 X134.992 Y24.583 E0.02249
G1 X144.674 Y21.474 E0.31884
G1 X174.439 Y17.678 E0.94083
G1 X237.739 Y17.676 E1.98472
G1 X238.637 Y17.854 E0.02872
G1 X239.399 Y18.356 E0.02860
G1 X239.917 Y19.111 E0.02872
G1 X240.111 Y20.007 E0.02872
G1 X240.112 Y116.320 E3.01986
G1 X240.023 Y116.926 E0.01919
; printing object body15139 id:0 copy 0
;WIPE_START
G1 F8640.000
G1 X239.736 Y117.597 E-0.16850
G1 X239.361 Y118.046 E-0.13510
G1 X238.885 Y118.393 E-0.13597
G1 X238.342 Y118.611 E-0.13510
G1 X237.759 Y118.690 E-0.13597
G1 X237.545 Y118.690 E-0.04935
;WIPE_END
G1 E-0.04000 F2100.000
G1 Z0.600 F10800.000
G1 X150.714 Y52.513
G1 Z0.200
G1 E0.80000 F2100.000
;TYPE:External perimeter
G1 F1200.000
G1 X150.496 Y52.809 E0.01151
G1 X150.220 Y53.074 E0.01199
G1 X149.909 Y53.284 E0.01177
G1 X149.568 Y53.439 E0.01176
G1 X149.205 Y53.533 E0.01176
G1 X148.831 Y53.565 E0.01176
G1 X148.458 Y53.533 E0.01176
G1 X148.095 Y53.439 E0.01176
G1 X147.753 Y53.284 E0.01176
G1 X147.442 Y53.074 E0.01176
G1 X147.172 Y52.815 E0.01176
G1 X146.949 Y52.513 E0.01176
G1 X146.780 Y52.178 E0.01176
G1 X146.670 Y51.820 E0.01176
G1 X146.624 Y51.460 E0.01138
G1 X146.638 Y51.074 E0.01211
G1 X146.717 Y50.707 E0.01178
G1 X146.857 Y50.359 E0.01176
G1 X147.054 Y50.040 E0.01175
G1 X147.302 Y49.758 E0.01177
G1 X147.593 Y49.523 E0.01176
G1 X147.921 Y49.340 E0.01176
G1 X148.274 Y49.215 E0.01176
G1 X148.644 Y49.151 E0.01176
G1 X149.019 Y49.151 E0.01176
G1 X149.388 Y49.215 E0.01176
G1 X149.742 Y49.340 E0.01176
G1 X150.069 Y49.523 E0.01176
G1 X150.361 Y49.758 E0.01176
G1 X150.609 Y50.040 E0.01176
G1 X150.805 Y50.359 E0.01176
G1 X150.945 Y50.707 E0.01176
G1 X151.024 Y51.073 E0.01176
G1 X151.040 Y51.448 E0.01176
G1 X150.992 Y51.820 E0.01176
G1 X150.883 Y52.178 E0.01176
G1 X150.741 Y52.460 E0.00987
G1 X150.889 Y52.836 F10800.000
;WIPE_START
G1 F8640.000
G1 X150.496 Y52.809 E-0.09847
G1 X150.220 Y53.074 E-0.08831
G1 X149.909 Y53.284 E-0.08665
G1 X149.568 Y53.439 E-0.08658
G1 X149.205 Y53.533 E-0.08658
G1 X148.831 Y53.565 E-0.08658
G1 X148.458 Y53.533 E-0.08658
G1 X148.095 Y53.439 E-0.08658
G1 X147.883 Y53.343 E-0.05365
;WIPE_END
G1 E-0.04000 F2100.000
G1 Z0.600 F10800.000
G1 X156.294 Y41.528
G1 Z0.200
G1 E0.80000 F2100.000
G1 F1200.000
G1 X155.983 Y41.318 E0.01176
G1 X155.723 Y41.069 E0.01131
G1 X155.490 Y40.758 E0.01218
G1 X155.321 Y40.423 E0.01178
G1 X155.211 Y40.064 E0.01176
G1 X155.164 Y39.692 E0.01176
G1 X155.179 Y39.318 E0.01176
G1 X155.258 Y38.951 E0.01176
G1 X155.398 Y38.603 E0.01176
G1 X155.595 Y38.284 E0.01175
G1 X155.843 Y38.002 E0.01177
G1 X156.134 Y37.767 E0.01176
G1 X156.462 Y37.584 E0.01176
G1 X156.815 Y37.459 E0.01176
G1 X157.185 Y37.396 E0.01176
G1 X157.560 Y37.396 E0.01176
G1 X157.929 Y37.459 E0.01176
G1 X158.283 Y37.584 E0.01176
G1 X158.600 Y37.761 E0.01138
G1 X158.902 Y38.002 E0.01211
G1 X159.150 Y38.284 E0.01177
G1 X159.346 Y38.603 E0.01176
G1 X159.486 Y38.951 E0.01176
G1 X159.563 Y39.306 E0.01138
G1 X159.581 Y39.692 E0.01211
G1 X159.533 Y40.064 E0.01178
G1 X159.424 Y40.423 E0.01176
G1 X159.260 Y40.747 E0.01138
G1 X159.032 Y41.059 E0.01211
G1 X158.761 Y41.318 E0.01177
G1 X158.450 Y41.528 E0.01176
G1 X158.109 Y41.683 E0.01176
G1 X157.746 Y41.777 E0.01176
G1 X157.372 Y41.809 E0.01176
G1 X156.999 Y41.777 E0.01176
G1 X156.636 Y41.683 E0.01176
G1 X156.349 Y41.553 E0.00988
G1 X155.972 Y41.721 F10800.000
;WIPE_START
G1 F8640.000
G1 X155.983 Y41.318 E-0.10026
G1 X155.723 Y41.069 E-0.08329
G1 X155.490 Y40.758 E-0.08967
G1 X155.321 Y40.423 E-0.08674
G1 X155.211 Y40.064 E-0.08658
G1 X155.164 Y39.692 E-0.08658
G1 X155.179 Y39.318 E-0.08658
G1 X155.258 Y38.951 E-0.08658
G1 X155.345 Y38.735 E-0.05371
;WIPE_END
G1 E-0.04000 F2100.000
G1 Z0.600 F10800.000
G1 X148.716 Y40.397
G1 Z0.200
G1 E0.80000 F2100.000
;TYPE:Perimeter
G1 F1200.000
G1 X148.528 Y41.012 E0.02016
G1 X148.239 Y41.586 E0.02016
G1 X147.857 Y42.102 E0.02015
G1 X147.393 Y42.547 E0.02016
G1 X146.860 Y42.907 E0.02016
G1 X146.274 Y43.172 E0.02016
G1 X145.652 Y43.334 E0.02016
G1 X145.012 Y43.388 E0.02016
G1 X144.371 Y43.334 E0.02016
G1 X143.749 Y43.172 E0.02016
G1 X143.163 Y42.907 E0.02016
G1 X142.631 Y42.547 E0.02016
G1 X142.167 Y42.102 E0.02016
G1 X141.784 Y41.586 E0.02016
G1 X141.495 Y41.012 E0.02016
G1 X141.307 Y40.397 E0.02016
G1 X141.225 Y39.759 E0.02015
G1 X141.252 Y39.117 E0.02016
G1 X141.388 Y38.489 E0.02016
G1 X141.627 Y37.892 E0.02016
G1 X141.965 Y37.345 E0.02016
G1 X142.389 Y36.862 E0.02016
G1 X142.889 Y36.458 E0.02015
G1 X143.451 Y36.145 E0.02016
G1 X144.057 Y35.931 E0.02016
G1 X144.690 Y35.822 E0.02016
G1 X145.333 Y35.822 E0.02016
G1 X145.967 Y35.931 E0.02016
G1 X146.573 Y36.145 E0.02016
G1 X147.134 Y36.458 E0.02016
G1 X147.591 Y36.828 E0.01842
G1 X148.056 Y37.341 E0.02173
G1 X148.396 Y37.892 E0.02029
G1 X148.635 Y38.489 E0.02015
G1 X148.771 Y39.117 E0.02016
G1 X148.798 Y39.759 E0.02016
G1 X148.724 Y40.337 E0.01827
G1 X148.350 Y40.289 F10800.000
;TYPE:External perimeter
G1 F1200.000
G1 X148.177 Y40.870 E0.01901
G1 X147.917 Y41.387 E0.01814
G1 X147.573 Y41.852 E0.01814
G1 X147.155 Y42.253 E0.01814
G1 X146.675 Y42.577 E0.01814
G1 X146.148 Y42.815 E0.01814
G1 X145.588 Y42.961 E0.01814
G1 X145.012 Y43.010 E0.01814
G1 X144.435 Y42.961 E0.01814
G1 X143.875 Y42.815 E0.01814
G1 X143.348 Y42.577 E0.01814
G1 X142.868 Y42.253 E0.01814
G1 X142.451 Y41.852 E0.01814
G1 X142.107 Y41.387 E0.01814
G1 X141.846 Y40.870 E0.01814
G1 X141.677 Y40.317 E0.01814
G1 X141.603 Y39.743 E0.01814
G1 X141.628 Y39.165 E0.01814
G1 X141.750 Y38.599 E0.01814
G1 X141.965 Y38.063 E0.01814
G1 X142.269 Y37.570 E0.01814
G1 X142.651 Y37.136 E0.01814
G1 X143.101 Y36.772 E0.01814
G1 X143.606 Y36.490 E0.01814
G1 X144.152 Y36.297 E0.01814
G1 X144.722 Y36.199 E0.01814
G1 X145.301 Y36.199 E0.01814
G1 X145.871 Y36.297 E0.01814
G1 X146.417 Y36.490 E0.01814
G1 X146.922 Y36.772 E0.01814
G1 X147.331 Y37.103 E0.01650
G1 X147.754 Y37.569 E0.01972
G1 X148.058 Y38.063 E0.01819
G1 X148.274 Y38.599 E0.01814
G1 X148.395 Y39.165 E0.01814
G1 X148.420 Y39.743 E0.01814
G1 X148.358 Y40.230 E0.01539
G1 X148.648 Y40.556 F10800.000
;WIPE_START
G1 F8640.000
G1 X148.177 Y40.870 E-0.15365
G1 X147.917 Y41.387 E-0.13361
G1 X147.573 Y41.852 E-0.13361
G1 X147.155 Y42.253 E-0.13361
G1 X146.675 Y42.577 E-0.13361
G1 X146.392 Y42.705 E-0.07192
;WIPE_END
G1 E-0.04000 F2100.000
G1 Z0.600 F10800.000
G1 X159.225 Y41.397
G1 Z0.200
G1 E0.80000 F2100.000
;TYPE:Perimeter
G1 F1200.000
G1 X159.225 Y44.217 E0.08841
G1 X153.796 Y51.689 E0.28959
G1 X151.112 Y52.561 E0.08847
G1 X151.234 Y52.320 E0.00846
G1 X151.362 Y51.900 E0.01377
G1 X151.418 Y51.464 E0.01377
G1 X151.400 Y51.025 E0.01377
G1 X151.307 Y50.596 E0.01377
G1 X151.143 Y50.188 E0.01377
G1 X150.913 Y49.815 E0.01377
G1 X150.623 Y49.485 E0.01377
G1 X150.281 Y49.209 E0.01377
G1 X149.898 Y48.995 E0.01377
G1 X149.484 Y48.848 E0.01377
G1 X149.051 Y48.774 E0.01377
G1 X148.612 Y48.774 E0.01377
G1 X148.179 Y48.848 E0.01377
G1 X147.765 Y48.995 E0.01377
G1 X147.381 Y49.209 E0.01377
G1 X147.040 Y49.485 E0.01377
G1 X146.749 Y49.815 E0.01378
G1 X146.519 Y50.189 E0.01376
G1 X146.356 Y50.596 E0.01377
G1 X146.263 Y51.027 E0.01382
G1 X146.246 Y51.477 E0.01412
G1 X146.300 Y51.900 E0.01336
G1 X146.429 Y52.320 E0.01377
G1 X146.626 Y52.712 E0.01377
G1 X146.888 Y53.065 E0.01377
G1 X147.205 Y53.369 E0.01377
G1 X147.569 Y53.615 E0.01377
G1 X147.694 Y53.671 E0.00432
G1 X145.012 Y54.543 E0.08843
G1 X136.228 Y51.689 E0.28959
G1 X130.799 Y44.217 E0.28959
G1 X130.799 Y34.980 E0.28959
G1 X136.228 Y27.508 E0.28959
M73 Q2 S89
G1 X145.012 Y24.654 E0.28959
M73 P1 R88
G1 X153.796 Y27.508 E0.28959
M73 P2 R88
G1 X159.225 Y34.980 E0.28959
G1 X159.225 Y37.798 E0.08835
G1 X159.163 Y37.728 E0.00293
G1 X158.811 Y37.447 E0.01412
G1 X158.439 Y37.239 E0.01336
G1 X158.025 Y37.093 E0.01377
G1 X157.592 Y37.019 E0.01377
G1 X157.153 Y37.019 E0.01377
G1 X156.720 Y37.093 E0.01377
G1 X156.306 Y37.239 E0.01377
G1 X155.922 Y37.453 E0.01377
G1 X155.581 Y37.729 E0.01377
G1 X155.290 Y38.059 E0.01378
G1 X155.060 Y38.433 E0.01376
G1 X154.897 Y38.840 E0.01377
G1 X154.804 Y39.270 E0.01377
G1 X154.785 Y39.708 E0.01377
G1 X154.841 Y40.144 E0.01377
G1 X154.970 Y40.564 E0.01377
G1 X155.168 Y40.958 E0.01383
G1 X155.440 Y41.320 E0.01419
G1 X155.746 Y41.613 E0.01328
G1 X156.110 Y41.859 E0.01377
G1 X156.510 Y42.040 E0.01377
G1 X156.935 Y42.150 E0.01377
G1 X157.372 Y42.188 E0.01377
G1 X157.810 Y42.150 E0.01377
G1 X158.235 Y42.040 E0.01377
G1 X158.635 Y41.859 E0.01377
G1 X158.999 Y41.613 E0.01377
G1 X159.181 Y41.438 E0.00792
;WIPE_START
G1 F8640.000
G1 X159.225 Y44.217 E-0.64160
G1 X158.923 Y44.631 E-0.11840
;WIPE_END
G1 E-0.04000 F2100.000
G1 Z0.600 F10800.000
G1 X159.602 Y44.339
G1 Z0.200
G1 E0.80000 F2100.000
;TYPE:External perimeter
G1 F1200.000
G1 X154.029 Y52.009 E0.29727
G1 X145.012 Y54.939 E0.29727
G1 X135.994 Y52.009 E0.29727
G1 X130.422 Y44.339 E0.29727
G1 X130.422 Y34.858 E0.29728
G1 X135.994 Y27.187 E0.29727
G1 X145.012 Y24.258 E0.29727
G1 X154.029 Y27.187 E0.29727
G1 X159.602 Y34.858 E0.29727
G1 X159.602 Y44.279 E0.29539
G1 X159.210 Y44.422 F10800.000
;WIPE_START
G1 F8640.000
G1 X157.677 Y46.949 E-0.76000
;WIPE_END
G1 E-0.04000 F2100.000
G1 Z0.600 F10800.000
G1 X159.111 Y42.388
G1 Z0.200
G1 E0.80000 F2100.000
;TYPE:Solid infill
;WIDTH:0.423763
G1 F1200.000
G1 X158.807 Y42.084 E0.01362
G1 X158.442 Y42.257 E0.01281
G1 X158.942 Y42.757 E0.02240
G1 X158.942 Y43.295 E0.01706
G1 X158.031 Y42.385 E0.04077
G1 X157.858 Y42.430 E0.00568
G1 X157.563 Y42.455 E0.00937
G1 X158.942 Y43.834 E0.06174
G1 X158.942 Y44.125 E0.00921
G1 X158.837 Y44.268 E0.00562
G1 X156.802 Y42.233 E0.09116
;WIPE_START
G1 F8640.000
G1 X158.837 Y44.268 E-0.66468
G1 X158.942 Y44.125 E-0.04098
G1 X158.942 Y43.889 E-0.05433
;WIPE_END
G1 E-0.04000 F2100.000
G1 Z0.600 F10800.000
G1 X155.799 Y30.458
G1 Z0.200
G1 E0.80000 F2100.000
G1 F1200.000
G1 X152.834 Y27.493 E0.13277
G1 X152.036 Y27.234 E0.02656
G1 X156.463 Y31.660 E0.19823
G1 X157.894 Y33.630 E0.07709
G1 X151.239 Y26.975 E0.29805
G1 X150.441 Y26.715 E0.02656
G1 X158.942 Y35.216 E0.38071
G1 X158.942 Y35.755 E0.01706
G1 X149.643 Y26.456 E0.41644
G1 X148.845 Y26.197 E0.02656
G1 X158.942 Y36.294 E0.45217
G1 X158.942 Y36.832 E0.01706
G1 X148.047 Y25.938 E0.48790
G1 X147.249 Y25.679 E0.02656
G1 X158.549 Y36.978 E0.50604
G1 X158.096 Y36.818 E0.01521
G1 X157.800 Y36.767 E0.00953
G1 X146.452 Y25.419 E0.50821
G1 X145.654 Y25.160 E0.02656
G1 X157.229 Y36.736 E0.51841
G1 X157.129 Y36.736 E0.00319
G1 X156.755 Y36.800 E0.01201
G1 X144.932 Y24.977 E0.52947
G1 X144.526 Y25.109 E0.01354
G1 X156.343 Y36.926 E0.52921
G1 X156.189 Y36.980 E0.00516
G1 X155.977 Y37.099 E0.00769
G1 X144.119 Y25.241 E0.53103
G1 X143.713 Y25.373 E0.01354
G1 X155.649 Y37.310 E0.53458
M73 Q2 S88
G1 X155.357 Y37.556 E0.01211
G1 X143.306 Y25.506 E0.53966
G1 X142.900 Y25.638 E0.01354
G1 X155.104 Y37.842 E0.54658
G1 X154.891 Y38.168 E0.01232
G1 X142.493 Y25.770 E0.55524
G1 X142.087 Y25.902 E0.01354
G1 X154.716 Y38.531 E0.56559
G1 X154.625 Y38.757 E0.00772
G1 X154.586 Y38.940 E0.00591
G1 X141.680 Y26.034 E0.57797
G1 X141.274 Y26.166 E0.01354
G1 X154.515 Y39.407 E0.59301
G1 X154.502 Y39.720 E0.00992
G1 X154.533 Y39.964 E0.00777
G1 X140.867 Y26.298 E0.61201
G1 X140.461 Y26.430 E0.01354
G1 X154.713 Y40.682 E0.63826
G1 X154.927 Y41.107 E0.01508
G1 X155.227 Y41.508 E0.01586
G1 X155.567 Y41.834 E0.01491
G1 X155.971 Y42.107 E0.01543
G1 X156.274 Y42.244 E0.01053
G1 X158.611 Y44.580 E0.10464
G1 X158.384 Y44.892 E0.01221
G1 X140.054 Y26.562 E0.82089
G1 X139.648 Y26.694 E0.01354
G1 X158.157 Y45.204 E0.82895
G1 X157.931 Y45.516 E0.01221
G1 X139.241 Y26.826 E0.83700
G1 X138.835 Y26.958 E0.01354
G1 X157.704 Y45.828 E0.84506
G1 X157.478 Y46.140 E0.01221
G1 X138.428 Y27.091 E0.85311
G1 X138.022 Y27.223 E0.01354
G1 X146.683 Y35.884 E0.38789
G1 X147.293 Y36.223 E0.02210
G1 X147.786 Y36.621 E0.02007
G1 X148.284 Y37.171 E0.02347
G1 X148.649 Y37.764 E0.02208
G1 X148.707 Y37.908 E0.00489
G1 X157.251 Y46.452 E0.38264
G1 X157.024 Y46.764 E0.01221
G1 X148.973 Y38.712 E0.36057
G1 X149.052 Y39.081 E0.01194
G1 X149.063 Y39.342 E0.00826
G1 X156.798 Y47.076 E0.34637
G1 X156.571 Y47.388 E0.01221
G1 X149.067 Y39.884 E0.33605
G1 X149.006 Y40.361 E0.01524
G1 X156.344 Y47.700 E0.32864
